;Generated with Cura_SteamEngine 13.12
M140 S100.000000
M109 T0 S230.000000
T0
M190 S100.000000

M136 (enable build)
M73 P0
G162 X Y F2000(home XY axes maximum)
G161 Z F900(home Z axis minimum)
G92 X0 Y0 Z-5 A0 B0 (set Z to -5)
G1 Z0.0 F9000(move Z to '0')
G161 Z F100(home Z axis minimum)
M132 X Y Z A B (Recall stored home offsets for XYZAB axis)
G92 X152 Y72 Z0 A0 B0
G1 X-100 Y-74 Z40 F9000 (move to waiting position)
G130 X20 Y20 A20 B20 (Lower stepper Vrefs while heating)
M135 T0
M104 S220 T0
M133 T0
G130 X127 Y127 A127 B127 (Set Stepper motor Vref to defaults)
; Sliced ?filename? at: Sat 21-06-2014 16:06:16
; Basic settings: Layer height: 0.25 Walls: 0.6 Fill: 30
; Print time: #P_TIME#
; Filament used: #F_AMNT#m #F_WGHT#g
; Filament cost: #F_COST#
M73 P0;
; -- end of START GCODE --

;Layer count: 8
;LAYER:0
M107
G0 F3600 X6.80 Y6.09 Z0.30
;TYPE:SKIRT
G1 F2400 E0.00000
G1 F1200 X6.42 Y7.91 E0.13883
G1 X6.23 Y9.56 E0.26380
G1 X6.13 Y13.29 E0.54243
G1 X6.08 Y21.28 E1.14053
G1 X-11.63 Y21.28 E2.46556
G1 X-11.69 Y11.63 E3.18782
G1 X-11.94 Y9.05 E3.38161
G1 X-12.30 Y6.98 E3.53858
G1 X-15.27 Y-4.32 E4.41325
G1 X-19.25 Y-21.07 E5.70186
G1 X-11.72 Y-21.26 E6.26561
G1 X2.92 Y-21.29 E7.36135
G1 X8.14 Y-21.25 E7.75178
G1 X13.05 Y-20.49 E8.12371
G1 X12.70 Y-18.36 E8.28495
G1 X13.44 Y-19.30 E8.37429
G1 X15.37 Y-20.70 E8.55293
G1 X18.39 Y-20.99 E8.78006
G1 X24.69 Y-21.28 E9.25155
G1 X27.19 Y-21.33 E9.43906
G1 X32.03 Y-21.29 E9.80135
G1 X34.50 Y-21.32 E9.98606
G1 X37.26 Y-21.22 E10.19236
G1 X40.26 Y-19.85 E10.43928
G1 X42.59 Y-17.47 E10.68874
G1 X43.74 Y-14.36 E10.93680
G1 X43.78 Y-1.04 E11.93399
G1 X43.54 Y-0.22 E11.99773
G1 X43.54 Y0.27 E12.03470
G1 X43.59 Y1.38 E12.11779
G1 X43.57 Y2.43 E12.19608
G1 X43.60 Y4.82 E12.37495
G1 X43.54 Y7.20 E12.55343
G1 X43.55 Y9.34 E12.71358
G1 X43.78 Y11.58 E12.88169
G1 X43.91 Y13.48 E13.02453
G1 X43.55 Y15.82 E13.20196
G1 X42.35 Y18.25 E13.40421
G1 X40.31 Y19.84 E13.59778
G1 X38.43 Y20.74 E13.75379
G1 X36.56 Y20.94 E13.89434
G1 X34.40 Y20.90 E14.05661
G1 X33.14 Y21.10 E14.15185
G1 X31.49 Y21.19 E14.27524
G1 X28.58 Y21.22 E14.49332
G1 X26.35 Y21.19 E14.65998
G1 X24.12 Y21.22 E14.82665
G1 X21.59 Y21.19 E15.01651
G1 X19.30 Y21.10 E15.18803
G1 X17.96 Y20.86 E15.28980
G1 X16.67 Y20.79 E15.38625
G1 X14.64 Y20.48 E15.54012
G1 X11.65 Y18.86 E15.79479
G1 X10.25 Y13.06 E16.24151
G1 X9.98 Y11.28 E16.37636
G1 X9.86 Y6.80 E16.71152
G1 X10.02 Y-6.50 E17.70675
G1 X6.80 Y6.09 E18.67888
G0 F3600 X-14.17 Y6.37
G1 F1200 X-14.22 Y7.72 E18.78004
G1 X-14.47 Y10.21 E18.96731
G1 X-14.68 Y11.48 E19.06409
G1 X-15.00 Y12.71 E19.15885
G1 X-15.61 Y14.11 E19.27294
G1 X-16.51 Y15.41 E19.39208
G1 X-17.34 Y16.23 E19.47897
G1 X-18.96 Y17.61 E19.63809
G1 X-20.25 Y18.63 E19.76117
G1 X-21.74 Y19.56 E19.89282
G1 X-23.32 Y20.28 E20.02262
G1 X-24.94 Y20.84 E20.15098
G1 X-26.54 Y21.19 E20.27377
G1 X-28.20 Y21.34 E20.39822
G1 X-29.86 Y21.27 E20.52218
G1 X-31.55 Y20.96 E20.65088
G1 X-34.54 Y20.19 E20.88195
G1 X-36.06 Y19.67 E21.00265
G1 X-37.78 Y18.81 E21.14613
G1 X-39.80 Y17.23 E21.33837
G1 X-41.40 Y15.27 E21.52733
G1 X-42.55 Y13.12 E21.71013
G1 X-43.35 Y10.85 E21.88984
G1 X-43.81 Y8.47 E22.07156
G1 X-43.90 Y6.11 E22.24853
G1 X-43.67 Y3.80 E22.42172
G1 X-43.16 Y1.52 E22.59694
G1 X-42.24 Y-0.90 E22.79056
G1 X-40.71 Y-3.18 E22.99583
G1 X-38.48 Y-5.01 E23.21223
G1 X-36.17 Y-5.92 E23.39767
G1 X-36.23 Y-15.62 E24.12411
G1 X-36.21 Y-16.36 E24.17943
G1 X-35.81 Y-21.24 E24.54543
G1 X-20.65 Y-21.24 E25.67956
G1 X-20.69 Y-16.39 E26.04222
G1 X-20.66 Y-15.80 E26.08634
G1 X-20.74 Y-14.52 E26.18259
G1 X-21.11 Y-13.86 E26.23913
G1 X-20.67 Y-12.91 E26.31745
G1 X-20.60 Y-6.12 E26.82539
G1 X-22.94 Y-6.12 E27.00066
G1 X-22.02 Y-5.78 E27.07414
G1 X-21.16 Y-5.12 E27.15495
G1 X-21.06 Y-5.09 E27.16326
G1 X-20.17 Y-4.66 E27.23680
G1 X-19.53 Y-4.26 E27.29329
G1 X-18.90 Y-3.70 E27.35648
G1 X-17.22 Y-1.53 E27.56146
G1 X-16.44 Y-0.47 E27.66054
G1 X-15.68 Y0.70 E27.76500
G1 X-15.17 Y1.61 E27.84282
G1 X-14.73 Y2.64 E27.92630
G1 X-14.40 Y3.74 E28.01297
G1 X-14.21 Y4.91 E28.10115
G1 X-14.17 Y6.37 E28.21023
G1 F2400 E23.71023
G0 F3600 X-8.78 Y6.22
;TYPE:WALL-OUTER
G1 F2400 E28.21023
G1 F1200 X-11.78 Y-5.20 E29.09332
G1 X-14.72 Y-17.58 E30.04594
G1 X2.91 Y-17.69 E31.36569
G1 X7.85 Y-17.66 E31.73516
G1 X8.92 Y-17.49 E31.81598
G1 X8.79 Y-16.72 E31.87435
G1 X8.89 Y-15.87 E31.93806
G1 X8.86 Y-15.42 E31.97195
G1 X8.74 Y-14.92 E32.01079
G1 X7.97 Y-12.77 E32.18129
G1 X7.54 Y-11.34 E32.29334
G1 X3.29 Y5.26 E33.57583
G1 X2.86 Y7.33 E33.73370
G1 X2.63 Y9.32 E33.88346
G1 X2.53 Y13.22 E34.17579
G1 X2.50 Y17.68 E34.50919
G1 X-8.05 Y17.68 E35.29885
G1 X-8.09 Y11.44 E35.76583
G1 X-8.38 Y8.56 E35.98196
G1 X-8.78 Y6.22 E36.16036
G0 F3600 X-8.55 Y6.30
;TYPE:FILL
G1 F1200 X2.30 Y17.15 E37.30854
G0 F3600 X1.77 Y17.47
G1 F1200 X-8.38 Y7.32 E38.38238
G0 F3600 X-8.20 Y8.35
G1 F1200 X0.92 Y17.47 E39.34773
G0 F3600 X0.07 Y17.47
G1 F1200 X-8.09 Y9.30 E40.21170
G0 F3600 X-8.00 Y10.24
G1 F1200 X-0.77 Y17.47 E40.97608
G0 F3600 X-1.62 Y17.47
G1 F1200 X-7.90 Y11.19 E41.64071
G0 F3600 X-7.88 Y12.06
G1 F1200 X-2.47 Y17.47 E42.21264
G0 F3600 X-3.32 Y17.47
G1 F1200 X-7.87 Y12.92 E42.69407
G0 F3600 X-7.86 Y13.77
G1 F1200 X-4.17 Y17.47 E43.08518
G0 F3600 X-5.02 Y17.47
G1 F1200 X-7.86 Y14.63 E43.38585
G0 F3600 X-7.85 Y15.48
G1 F1200 X-5.87 Y17.47 E43.59624
G0 F3600 X-6.72 Y17.47
G1 F1200 X-7.85 Y16.33 E43.71615
G0 F3600 X-7.84 Y17.19
G1 F1200 X-7.56 Y17.47 E43.74573
G0 F3600 X-7.56 Y17.28
G0 X2.11 Y16.30
G0 X2.30 Y16.30
G1 F1200 X-8.84 Y5.16 E44.92477
G0 F3600 X-9.14 Y4.01
G1 F1200 X2.31 Y15.46 E46.13640
G0 F3600 X2.31 Y14.61
G1 F1200 X-9.44 Y2.86 E47.38062
G0 F3600 X-9.75 Y1.71
G1 F1200 X2.32 Y13.77 E48.65750
G0 F3600 X2.33 Y12.94
G1 F1200 X-10.05 Y0.56 E49.96761
G0 F3600 X-10.35 Y-0.59
G1 F1200 X2.35 Y12.11 E51.31201
G0 F3600 X2.37 Y11.28
G1 F1200 X-10.65 Y-1.75 E52.69059
G0 F3600 X-10.96 Y-2.90
G1 F1200 X2.39 Y10.45 E54.10357
G0 F3600 X2.41 Y9.63
G1 F1200 X-11.26 Y-4.05 E55.55073
G0 F3600 X-11.56 Y-5.20
G1 F1200 X2.48 Y8.84 E57.03641
G0 F3600 X2.57 Y8.08
G1 F1200 X-11.83 Y-6.31 E58.55967
G0 F3600 X-12.09 Y-7.43
G1 F1200 X2.65 Y7.32 E60.12018
G0 F3600 X2.80 Y6.62
G1 F1200 X-12.36 Y-8.54 E61.72408
G0 F3600 X-12.62 Y-9.65
G1 F1200 X2.94 Y5.91 E63.37142
G0 F3600 X3.09 Y5.21
G1 F1200 X-12.89 Y-10.77 E65.06232
G0 F3600 X-13.15 Y-11.88
G1 F1200 X3.26 Y4.54 E66.79946
G0 F3600 X3.44 Y3.86
G1 F1200 X-13.41 Y-12.99 E68.58286
G0 F3600 X-13.68 Y-14.10
G1 F1200 X3.61 Y3.18 E70.41255
G0 F3600 X3.78 Y2.51
G1 F1200 X-13.94 Y-15.22 E72.28855
G0 F3600 X-14.21 Y-16.33
G1 F1200 X3.95 Y1.83 E74.21080
G0 F3600 X4.13 Y1.16
G1 F1200 X-14.40 Y-17.37 E76.17194
G0 F3600 X-13.56 Y-17.38
G1 F1200 X4.30 Y0.48 E78.06201
G0 F3600 X4.47 Y-0.19
G1 F1200 X-12.72 Y-17.38 E79.88112
G0 F3600 X-11.87 Y-17.39
G1 F1200 X4.65 Y-0.87 E81.62938
G0 F3600 X4.82 Y-1.54
G1 F1200 X-11.03 Y-17.39 E83.30657
G0 F3600 X-10.19 Y-17.40
G1 F1200 X4.99 Y-2.22 E84.91285
G0 F3600 X5.16 Y-2.90
G1 F1200 X-9.34 Y-17.40 E86.44812
G0 F3600 X-8.50 Y-17.41
G1 F1200 X5.34 Y-3.57 E87.91243
G0 F3600 X5.51 Y-4.25
G1 F1200 X-7.66 Y-17.41 E89.30577
G0 F3600 X-6.81 Y-17.42
G1 F1200 X5.68 Y-4.92 E90.62816
G0 F3600 X5.86 Y-5.60
G1 F1200 X-5.97 Y-17.42 E91.87958
G0 F3600 X-5.12 Y-17.43
G1 F1200 X6.03 Y-6.27 E93.05999
G0 F3600 X6.20 Y-6.95
G1 F1200 X-4.28 Y-17.43 E94.16944
G0 F3600 X-3.44 Y-17.44
G1 F1200 X6.37 Y-7.63 E95.20782
G0 F3600 X6.55 Y-8.30
G1 F1200 X-2.60 Y-17.44 E96.17540
G0 F3600 X-1.75 Y-17.45
G1 F1200 X6.72 Y-8.98 E97.07196
G0 F3600 X6.89 Y-9.65
G1 F1200 X-0.91 Y-17.45 E97.89746
G0 F3600 X-0.06 Y-17.46
G1 F1200 X7.07 Y-10.33 E98.65211
G0 F3600 X7.24 Y-11.00
G1 F1200 X0.78 Y-17.46 E99.33573
G0 F3600 X1.62 Y-17.47
G1 F1200 X7.42 Y-11.67 E99.94957
G0 F3600 X7.62 Y-12.32
G1 F1200 X2.46 Y-17.47 E100.49503
G0 F3600 X3.31 Y-17.47
G1 F1200 X7.82 Y-12.97 E100.97213
G0 F3600 X8.05 Y-13.59
G1 F1200 X4.17 Y-17.47 E101.38244
G0 F3600 X5.02 Y-17.46
G1 F1200 X8.27 Y-14.22 E101.72608
G0 F3600 X8.49 Y-14.84
G1 F1200 X5.88 Y-17.46 E102.00278
G0 F3600 X6.73 Y-17.45
G1 F1200 X8.65 Y-15.53 E102.20651
G0 F3600 X8.61 Y-16.42
G1 F1200 X7.58 Y-17.45 E102.31552
G0 F3600 X8.54 Y-17.34
G1 F1200 X8.66 Y-17.22 E102.32790
G0 F3600 X8.47 Y-17.25
G0 X7.38 Y-16.16
G1 F2400 E97.82790
G0 F3600 X14.41 Y-14.15
;TYPE:WALL-OUTER
G1 F2400 E102.32790
G1 F1200 X14.86 Y-15.03 E102.40177
G1 X15.37 Y-15.92 E102.47872
G1 X15.96 Y-16.68 E102.55063
G1 X16.69 Y-17.21 E102.61804
G1 X18.65 Y-17.40 E102.76516
G1 X27.22 Y-17.73 E103.40676
G1 X32.05 Y-17.69 E103.76830
G1 X34.46 Y-17.72 E103.94860
G1 X36.42 Y-17.65 E104.09537
G1 X38.16 Y-16.86 E104.23843
G1 X39.48 Y-15.50 E104.38036
G1 X40.15 Y-13.71 E104.52313
G1 X40.18 Y-1.54 E105.43425
G1 X39.95 Y-0.74 E105.49607
G1 X39.94 Y0.33 E105.57652
G1 X39.99 Y1.44 E105.65960
G1 X39.97 Y2.43 E105.73378
G1 X40.00 Y4.79 E105.91019
G1 X39.94 Y7.16 E106.08761
G1 X39.95 Y9.53 E106.26519
G1 X40.19 Y11.88 E106.44189
G1 X40.29 Y13.33 E106.55067
G1 X40.08 Y14.72 E106.65609
G1 X39.48 Y15.92 E106.75592
G1 X38.40 Y16.77 E106.85873
G1 X37.44 Y17.23 E106.93882
G1 X36.41 Y17.33 E107.01579
G1 X34.14 Y17.29 E107.18592
G1 X32.75 Y17.51 E107.29138
G1 X31.38 Y17.59 E107.39394
G1 X28.58 Y17.62 E107.60333
G1 X26.35 Y17.59 E107.77030
G1 X24.12 Y17.62 E107.93719
G1 X21.68 Y17.60 E108.11972
G1 X19.69 Y17.51 E108.26869
G1 X18.38 Y17.27 E108.36857
G1 X17.04 Y17.20 E108.46921
G1 X15.80 Y17.01 E108.56322
G1 X14.77 Y16.46 E108.65044
G1 X13.79 Y12.37 E108.96509
G1 X13.57 Y10.96 E109.07210
G1 X13.46 Y6.78 E109.38488
G1 X13.64 Y-8.01 E110.49177
G1 X13.64 Y-10.12 E110.64990
G1 X13.82 Y-12.19 E110.80503
G1 X14.41 Y-14.15 E110.95860
G0 F3600 X14.55 Y-13.88
;TYPE:FILL
G1 F1200 X39.94 Y11.52 E113.64581
G0 F3600 X40.02 Y12.44
G1 F1200 X14.35 Y-13.23 E116.36207
G0 F3600 X14.15 Y-12.57
G1 F1200 X40.08 Y13.35 E119.10532
G0 F3600 X39.96 Y14.08
G1 F1200 X14.00 Y-11.88 E121.85280
G0 F3600 X13.93 Y-11.10
G1 F1200 X39.81 Y14.78 E124.59160
G0 F3600 X39.53 Y15.35
G1 F1200 X13.86 Y-10.32 E127.30796
G0 F3600 X13.85 Y-9.49
G1 F1200 X39.20 Y15.87 E129.99152
G0 F3600 X38.73 Y16.24
G1 F1200 X13.85 Y-8.64 E132.62481
G0 F3600 X13.84 Y-7.79
G1 F1200 X38.24 Y16.61 E135.20724
G0 F3600 X37.67 Y16.88
G1 F1200 X13.83 Y-6.95 E137.73004
G0 F3600 X13.82 Y-6.12
G1 F1200 X37.00 Y17.06 E140.18314
G0 F3600 X36.21 Y17.12
G1 F1200 X13.81 Y-5.28 E142.55375
G0 F3600 X13.80 Y-4.44
G1 F1200 X35.35 Y17.10 E144.83387
G0 F3600 X34.48 Y17.09
G1 F1200 X13.79 Y-3.60 E147.02367
G0 F3600 X13.78 Y-2.76
G1 F1200 X33.70 Y17.15 E149.13117
G0 F3600 X32.97 Y17.27
G1 F1200 X13.77 Y-1.92 E151.16227
G0 F3600 X13.76 Y-1.09
G1 F1200 X32.19 Y17.34 E153.11203
G0 F3600 X31.38 Y17.38
G1 F1200 X13.75 Y-0.25 E154.97798
G0 F3600 X13.74 Y0.59
G1 F1200 X30.54 Y17.39 E156.75587
G0 F3600 X29.70 Y17.40
G1 F1200 X13.73 Y1.43 E158.44570
G0 F3600 X13.72 Y2.27
G1 F1200 X28.86 Y17.40 E160.04749
G0 F3600 X28.01 Y17.40
G1 F1200 X13.71 Y3.11 E161.56011
G0 F3600 X13.70 Y3.94
G1 F1200 X27.15 Y17.39 E162.98319
G0 F3600 X26.29 Y17.38
G1 F1200 X13.69 Y4.78 E164.31674
G0 F3600 X13.68 Y5.62
G1 F1200 X25.45 Y17.39 E165.56250
G0 F3600 X24.61 Y17.40
G1 F1200 X13.67 Y6.46 E166.72026
G0 F3600 X13.68 Y7.32
G1 F1200 X23.77 Y17.40 E167.78727
G0 F3600 X22.91 Y17.40
G1 F1200 X13.71 Y8.19 E168.76126
G0 F3600 X13.73 Y9.06
G1 F1200 X22.06 Y17.39 E169.64221
G0 F3600 X21.18 Y17.36
G1 F1200 X13.75 Y9.94 E170.42834
G0 F3600 X13.78 Y10.81
G1 F1200 X20.30 Y17.33 E171.11827
G0 F3600 X19.36 Y17.24
G1 F1200 X13.91 Y11.79 E171.69511
G0 F3600 X14.11 Y12.84
G1 F1200 X18.33 Y17.06 E172.14151
G0 F3600 X17.44 Y17.01
G1 F1200 X14.38 Y13.96 E172.46467
G0 F3600 X14.65 Y15.08
G1 F1200 X16.48 Y16.90 E172.65803
G0 F3600 X15.16 Y16.43
G1 F1200 X14.92 Y16.19 E172.68301
G0 F3600 X15.11 Y16.15
G0 X39.65 Y10.59
G0 X39.84 Y10.57
G1 F1200 X14.81 Y-14.47 E175.33259
G0 F3600 X15.10 Y-15.02
G1 F1200 X39.75 Y9.62 E177.94122
G0 F3600 X39.74 Y8.76
G1 F1200 X15.41 Y-15.56 E180.51587
G0 F3600 X15.75 Y-16.07
G1 F1200 X39.73 Y7.91 E183.05391
G0 F3600 X39.73 Y7.06
G1 F1200 X16.13 Y-16.54 E185.55173
G0 F3600 X16.62 Y-16.90
G1 F1200 X39.75 Y6.24 E187.99991
G0 F3600 X39.77 Y5.41
G1 F1200 X17.31 Y-17.06 E190.37751
G0 F3600 X18.08 Y-17.13
G1 F1200 X39.79 Y4.57 E192.67467
G0 F3600 X39.78 Y3.71
G1 F1200 X18.87 Y-17.19 E194.88753
G0 F3600 X19.68 Y-17.23
G1 F1200 X39.76 Y2.85 E197.01271
G0 F3600 X39.77 Y2.01
G1 F1200 X20.50 Y-17.26 E199.05175
G0 F3600 X21.32 Y-17.29
G1 F1200 X39.77 Y1.16 E201.00421
G0 F3600 X39.73 Y0.27
G1 F1200 X22.13 Y-17.32 E202.86618
G0 F3600 X22.95 Y-17.35
G1 F1200 X39.74 Y-0.57 E204.64270
G0 F3600 X39.88 Y-1.27
G1 F1200 X23.77 Y-17.39 E206.34815
G0 F3600 X24.58 Y-17.42
G1 F1200 X39.97 Y-2.04 E207.97607
G0 F3600 X39.96 Y-2.89
G1 F1200 X25.40 Y-17.45 E209.51721
G0 F3600 X26.22 Y-17.48
G1 F1200 X39.96 Y-3.74 E210.97173
G0 F3600 X39.96 Y-4.59
G1 F1200 X27.03 Y-17.51 E212.33962
G0 F3600 X27.88 Y-17.51
G1 F1200 X39.96 Y-5.44 E213.61756
G0 F3600 X39.96 Y-6.29
G1 F1200 X28.74 Y-17.51 E214.80469
G0 F3600 X29.59 Y-17.50
G1 F1200 X39.95 Y-7.14 E215.90112
G0 F3600 X39.95 Y-7.99
G1 F1200 X30.45 Y-17.49 E216.90664
G0 F3600 X31.31 Y-17.48
G1 F1200 X39.95 Y-8.84 E217.82146
G0 F3600 X39.95 Y-9.69
G1 F1200 X32.16 Y-17.48 E218.64569
G0 F3600 X33.00 Y-17.49
G1 F1200 X39.94 Y-10.54 E219.38102
G0 F3600 X39.94 Y-11.39
G1 F1200 X33.83 Y-17.50 E220.02745
G0 F3600 X34.68 Y-17.50
G1 F1200 X39.94 Y-12.24 E220.58376
G0 F3600 X39.94 Y-13.09
G1 F1200 X35.56 Y-17.47 E221.04667
G0 F3600 X36.50 Y-17.38
G1 F1200 X39.78 Y-14.10 E221.39317
G0 F3600 X38.57 Y-13.66
G1 F2400 E216.89317
G0 F3600 X-18.12 Y3.87
;TYPE:WALL-OUTER
G1 F2400 E221.39317
G1 F1200 X-17.91 Y4.55 E221.44634
G1 X-17.81 Y5.24 E221.49793
G1 X-17.77 Y6.35 E221.58133
G1 X-17.82 Y7.46 E221.66475
G1 X-18.04 Y9.74 E221.83615
G1 X-18.21 Y10.74 E221.91207
G1 X-18.41 Y11.53 E221.97289
G1 X-18.77 Y12.35 E222.03949
G1 X-19.28 Y13.09 E222.10689
G1 X-19.78 Y13.58 E222.15923
G1 X-21.25 Y14.84 E222.30407
G1 X-22.32 Y15.68 E222.40589
G1 X-23.44 Y16.37 E222.50465
G1 X-24.66 Y16.93 E222.60497
G1 X-25.93 Y17.37 E222.70541
G1 X-27.09 Y17.63 E222.79499
G1 X-28.27 Y17.73 E222.88361
G1 X-29.47 Y17.68 E222.97282
G1 X-30.77 Y17.45 E223.07210
G1 X-33.50 Y16.74 E223.28316
G1 X-34.67 Y16.34 E223.37576
G1 X-35.85 Y15.75 E223.47389
G1 X-37.27 Y14.64 E223.60914
G1 X-38.39 Y13.27 E223.74163
G1 X-39.25 Y11.66 E223.87786
G1 X-39.87 Y9.91 E224.01669
G1 X-40.22 Y8.06 E224.15796
G1 X-40.29 Y6.22 E224.29591
G1 X-40.11 Y4.37 E224.43459
G1 X-39.70 Y2.56 E224.57392
G1 X-39.02 Y0.77 E224.71739
G1 X-38.01 Y-0.73 E224.85243
G1 X-36.63 Y-1.87 E224.98631
G1 X-34.80 Y-2.59 E225.13381
G1 X-34.47 Y-2.65 E225.15835
G1 X-33.40 Y-2.78 E225.23964
G1 X-33.03 Y-2.89 E225.26837
G1 X-32.74 Y-3.14 E225.29684
G1 X-32.59 Y-3.47 E225.32403
G1 X-32.56 Y-3.84 E225.35149
G1 X-32.63 Y-15.60 E226.23157
G1 X-32.62 Y-16.18 E226.27514
G1 X-32.50 Y-17.64 E226.38455
G1 X-24.28 Y-17.64 E226.99947
G1 X-24.29 Y-16.33 E227.09691
G1 X-24.27 Y-15.83 E227.13458
G1 X-24.28 Y-15.57 E227.15445
G1 X-24.34 Y-15.46 E227.16356
G1 X-24.47 Y-15.39 E227.17466
G1 X-24.72 Y-15.33 E227.19364
G1 X-26.68 Y-15.19 E227.34108
G1 X-26.68 Y-12.35 E227.55376
G1 X-24.97 Y-12.36 E227.68218
G1 X-24.56 Y-12.33 E227.71264
G1 X-24.48 Y-12.30 E227.71945
G1 X-24.36 Y-12.22 E227.72971
G1 X-24.28 Y-12.14 E227.73861
G1 X-24.27 Y-12.10 E227.74142
G1 X-24.24 Y-9.72 E227.91954
G1 X-26.88 Y-9.72 E228.11725
G1 X-26.88 Y-3.21 E228.60458
G1 X-25.49 Y-3.06 E228.70922
G1 X-24.60 Y-2.90 E228.77695
G1 X-23.78 Y-2.59 E228.84250
G1 X-22.88 Y-1.90 E228.92747
G1 X-22.42 Y-1.75 E228.96368
G1 X-21.92 Y-1.51 E229.00529
G1 X-21.70 Y-1.37 E229.02466
G1 X-21.54 Y-1.23 E229.04008
G1 X-19.40 Y1.59 E229.30556
G1 X-18.76 Y2.57 E229.39259
G1 X-18.41 Y3.19 E229.44646
G1 X-18.12 Y3.87 E229.50181
G0 F3600 X-18.50 Y4.00
G0 X-22.42 Y4.93
G0 X-22.82 Y4.98
G1 F1200 X-23.04 Y4.06 E229.57280
G1 X-23.39 Y3.07 E229.65117
G1 X-23.79 Y2.21 E229.72241
G1 X-24.21 Y1.53 E229.78246
G1 X-24.65 Y0.98 E229.83490
G1 X-25.23 Y0.46 E229.89319
G1 X-25.92 Y0.04 E229.95363
G1 X-27.00 Y-0.40 E230.04126
G1 X-28.11 Y-0.61 E230.12549
G1 X-29.24 Y-0.58 E230.20977
G1 X-30.39 Y-0.35 E230.29747
G1 X-32.30 Y0.52 E230.45501
