;Generated with Cura_SteamEngine 13.12
M140 S100.000000
M109 T0 S230.000000
T0
M190 S100.000000

M136 (enable build)
M73 P0
G162 X Y F2000(home XY axes maximum)
G161 Z F900(home Z axis minimum)
G92 X0 Y0 Z-5 A0 B0 (set Z to -5)
G1 Z0.0 F9000(move Z to '0')
G161 Z F100(home Z axis minimum)
M132 X Y Z A B (Recall stored home offsets for XYZAB axis)
G92 X152 Y72 Z0 A0 B0
G1 X-100 Y-74 Z40 F9000 (move to waiting position)
G130 X20 Y20 A20 B20 (Lower stepper Vrefs while heating)
M135 T0
M104 S220 T0
M133 T0
G130 X127 Y127 A127 B127 (Set Stepper motor Vref to defaults)
; Sliced ?filename? at: Sat 21-06-2014 16:19:01
; Basic settings: Layer height: 0.25 Walls: 0.6 Fill: 30
; Print time: #P_TIME#
; Filament used: #F_AMNT#m #F_WGHT#g
; Filament cost: #F_COST#
M73 P0;
; -- end of START GCODE --

;Layer count: 12
;LAYER:0
M107
G0 F3600 X0.97 Y-9.30 Z0.30
;TYPE:SKIRT
G1 F2400 E0.00000
G1 F1200 X2.89 Y-9.28 E0.14339
G1 X4.44 Y-9.04 E0.26069
G1 X5.97 Y-9.19 E0.37625
G1 X8.15 Y-9.29 E0.53956
G1 X9.05 Y-9.31 E0.60648
G1 X10.67 Y-9.30 E0.72779
G1 X11.52 Y-9.31 E0.79185
G1 X12.93 Y-9.26 E0.89721
G1 X14.70 Y-8.45 E1.04299
G1 X16.10 Y-7.03 E1.19191
G1 X16.78 Y-5.19 E1.33884
G1 X16.78 Y-4.31 E1.40447
G1 X17.37 Y-4.31 E1.44840
G1 X17.37 Y3.89 E2.06205
G1 X16.80 Y3.89 E2.10478
G1 X16.85 Y4.59 E2.15714
G1 X16.64 Y5.95 E2.25997
G1 X15.87 Y7.50 E2.39006
G1 X14.61 Y8.49 E2.50987
G1 X13.42 Y9.06 E2.60855
G1 X12.28 Y9.18 E2.69409
G1 X11.62 Y9.17 E2.74364
G1 X11.23 Y9.23 E2.77334
G1 X9.50 Y9.27 E2.90247
G1 X8.73 Y9.27 E2.95987
G1 X7.96 Y9.27 E3.01765
G1 X6.18 Y9.22 E3.15105
G1 X5.72 Y9.14 E3.18620
G1 X5.30 Y9.11 E3.21776
G1 X4.19 Y8.95 E3.30184
G1 X4.18 Y9.29 E3.32758
G1 X-6.05 Y9.29 E4.09360
G1 X-6.06 Y8.37 E4.16282
G1 X-6.26 Y8.49 E4.18005
G1 X-7.00 Y8.82 E4.24084
G1 X-7.75 Y9.07 E4.29982
G1 X-8.51 Y9.24 E4.35848
G1 X-9.36 Y9.32 E4.42262
G1 X-10.23 Y9.27 E4.48744
G1 X-10.96 Y9.14 E4.54321
G1 X-12.14 Y8.84 E4.63423
G1 X-12.91 Y8.57 E4.69549
G1 X-13.77 Y8.14 E4.76748
G1 X-14.81 Y7.33 E4.86628
G1 X-15.65 Y6.30 E4.96493
G1 X-16.23 Y5.19 E5.05876
G1 X-16.59 Y4.14 E5.14249
G1 X-16.79 Y3.07 E5.22340
G1 X-16.84 Y1.97 E5.30608
G1 X-16.73 Y0.92 E5.38504
G1 X-16.50 Y-0.13 E5.46538
G1 X-16.04 Y-1.32 E5.56065
G1 X-15.22 Y-2.55 E5.67182
G1 X-14.26 Y-3.34 E5.76412
G1 X-14.28 Y-5.22 E5.90549
G1 X-14.27 Y-5.57 E5.93124
G1 X-13.96 Y-9.28 E6.20983
G1 X-4.67 Y-9.28 E6.90542
G1 X-4.67 Y-9.26 E6.90669
G1 X0.97 Y-9.30 E7.32870
G0 F3600 X0.97 Y-9.90
G1 F1200 X2.94 Y-9.88 E7.47575
G1 X4.45 Y-9.65 E7.59063
G1 X5.93 Y-9.79 E7.70175
G1 X8.13 Y-9.89 E7.86663
G1 X9.04 Y-9.91 E7.93482
G1 X10.67 Y-9.90 E8.05628
G1 X11.53 Y-9.91 E8.12102
G1 X13.07 Y-9.85 E8.23634
G1 X15.06 Y-8.95 E8.39944
G1 X16.61 Y-7.36 E8.56630
G1 X17.38 Y-5.30 E8.73077
G1 X17.38 Y-4.91 E8.75958
G1 X17.97 Y-4.91 E8.80366
G1 X17.97 Y4.49 E9.50711
G1 X17.44 Y4.49 E9.54662
G1 X17.45 Y4.61 E9.55585
G1 X17.22 Y6.13 E9.67073
G1 X16.34 Y7.89 E9.81789
G1 X14.93 Y9.01 E9.95273
G1 X13.58 Y9.65 E10.06419
G1 X12.31 Y9.78 E10.16020
G1 X11.66 Y9.77 E10.20855
G1 X11.28 Y9.83 E10.23734
G1 X9.51 Y9.87 E10.37014
G1 X8.74 Y9.86 E10.42776
G1 X7.96 Y9.87 E10.48614
G1 X6.12 Y9.82 E10.62374
G1 X5.65 Y9.74 E10.65949
G1 X5.24 Y9.71 E10.69053
G1 X4.78 Y9.64 E10.72519
G1 X4.77 Y9.89 E10.74383
G1 X-6.65 Y9.89 E11.59859
G1 X-6.65 Y9.32 E11.64133
G1 X-6.78 Y9.38 E11.65168
G1 X-7.58 Y9.65 E11.71522
G1 X-8.42 Y9.84 E11.77925
G1 X-9.35 Y9.92 E11.84955
G1 X-10.30 Y9.87 E11.92014
G1 X-11.09 Y9.73 E11.98047
G1 X-12.32 Y9.42 E12.07513
G1 X-13.15 Y9.12 E12.14121
G1 X-14.10 Y8.65 E12.22049
G1 X-15.24 Y7.76 E12.32879
G1 X-16.15 Y6.64 E12.43707
G1 X-16.78 Y5.43 E12.53893
G1 X-17.17 Y4.29 E12.62922
G1 X-17.39 Y3.14 E12.71662
G1 X-17.44 Y1.95 E12.80581
G1 X-17.33 Y0.82 E12.89056
G1 X-17.08 Y-0.30 E12.97689
G1 X-16.58 Y-1.60 E13.08047
G1 X-15.67 Y-2.96 E13.20341
G1 X-14.87 Y-3.62 E13.28098
G1 X-14.88 Y-5.23 E13.40147
G1 X-14.87 Y-5.60 E13.42924
G1 X-14.52 Y-9.88 E13.75055
G1 X-4.06 Y-9.88 E14.53273
G1 X-4.06 Y-9.86 E14.53378
G1 X0.97 Y-9.90 E14.91058
G1 F2400 E10.41058
G0 F3600 X0.97 Y-5.70
;TYPE:WALL-OUTER
G1 F2400 E14.91058
G1 F1200 X2.60 Y-5.68 E15.03264
G1 X2.74 Y-5.66 E15.04325
G1 X2.73 Y-5.58 E15.04962
G1 X2.76 Y-5.29 E15.07169
G1 X2.75 Y-5.17 E15.08031
G1 X2.27 Y-3.65 E15.19958
G1 X0.76 Y2.39 E15.66597
G1 X0.68 Y3.09 E15.71869
G1 X0.64 Y5.69 E15.91314
G1 X-2.48 Y5.69 E16.14685
G1 X-2.50 Y3.74 E16.29256
G1 X-2.59 Y2.86 E16.35940
G1 X-2.74 Y1.97 E16.42667
G1 X-3.70 Y-1.66 E16.70800
G1 X-4.65 Y-5.66 E17.01538
G1 X0.97 Y-5.70 E17.43633
G0 F3600 X0.88 Y-5.48
;TYPE:FILL
G1 F1200 X2.21 Y-4.15 E17.57730
G0 F3600 X2.41 Y-4.80
G1 F1200 X1.73 Y-5.48 E17.64943
G0 F3600 X1.73 Y-5.29
G0 X0.04 Y-5.29
G0 X0.04 Y-5.48
G1 F1200 X2.02 Y-3.50 E17.85919
G0 F3600 X1.85 Y-2.82
G1 F1200 X-0.81 Y-5.47 E18.14012
G0 F3600 X-1.65 Y-5.47
G1 F1200 X1.68 Y-2.14 E18.49213
G0 F3600 X1.51 Y-1.46
G1 F1200 X-2.49 Y-5.46 E18.91540
G0 F3600 X-3.33 Y-5.46
G1 F1200 X1.34 Y-0.78 E19.40986
G0 F3600 X1.17 Y-0.10
G1 F1200 X-4.18 Y-5.45 E19.97559
G0 F3600 X-4.19 Y-4.61
G1 F1200 X1.00 Y0.57 E20.52454
G0 F3600 X0.83 Y1.25
G1 F1200 X-3.92 Y-3.50 E21.02741
G0 F3600 X-3.66 Y-2.39
G1 F1200 X0.66 Y1.93 E21.48424
G0 F3600 X0.52 Y2.64
G1 F1200 X-3.38 Y-1.26 E21.89651
G0 F3600 X-3.08 Y-0.10
G1 F1200 X0.46 Y3.43 E22.27084
G0 F3600 X0.45 Y4.27
G1 F1200 X-2.77 Y1.05 E22.61173
G0 F3600 X-2.50 Y2.17
G1 F1200 X0.44 Y5.10 E22.92219
G0 F3600 X-0.03 Y5.48
G1 F1200 X-2.35 Y3.17 E23.16698
G0 F3600 X-2.29 Y4.07
G1 F1200 X-0.88 Y5.48 E23.31568
G0 F3600 X-1.73 Y5.48
G1 F1200 X-2.28 Y4.93 E23.37384
G0 F3600 X-0.99 Y4.19
G1 F2400 E18.87384
G0 F3600 X4.72 Y3.63
;TYPE:WALL-OUTER
G1 F2400 E23.37384
G1 F1200 X4.69 Y2.26 E23.47647
G1 X4.74 Y-3.36 E23.89744
G1 X4.80 Y-4.03 E23.94717
G1 X4.99 Y-4.64 E23.99504
G1 X5.29 Y-5.20 E24.04292
G1 X5.46 Y-5.41 E24.06334
G1 X5.64 Y-5.54 E24.07952
G1 X8.28 Y-5.69 E24.27763
G1 X9.07 Y-5.71 E24.33722
G1 X10.68 Y-5.70 E24.45756
G1 X11.48 Y-5.71 E24.51720
G1 X12.09 Y-5.68 E24.56303
G1 X12.60 Y-5.45 E24.60480
G1 X12.99 Y-5.06 E24.64634
G1 X13.18 Y-4.53 E24.68794
G1 X13.19 Y-0.54 E24.98698
G1 X13.12 Y-0.28 E25.00747
G1 X13.11 Y0.11 E25.03658
G1 X13.13 Y0.51 E25.06632
G1 X13.12 Y0.81 E25.08870
G1 X13.13 Y1.59 E25.14715
G1 X13.11 Y2.38 E25.20659
G1 X13.12 Y3.19 E25.26669
G1 X13.20 Y3.97 E25.32589
G1 X13.23 Y4.43 E25.36048
G1 X13.16 Y4.84 E25.39153
G1 X13.00 Y5.18 E25.41917
G1 X12.69 Y5.42 E25.44849
G1 X12.42 Y5.55 E25.47081
G1 X12.13 Y5.58 E25.49279
G1 X11.37 Y5.56 E25.55012
G1 X10.90 Y5.64 E25.58520
G1 X9.47 Y5.67 E25.69217
G1 X8.73 Y5.66 E25.74748
G1 X8.00 Y5.67 E25.80271
G1 X6.55 Y5.63 E25.91066
G1 X6.15 Y5.56 E25.94140
G1 X5.33 Y5.48 E26.00313
G1 X5.10 Y5.35 E26.02295
G1 X4.79 Y4.06 E26.12256
G1 X4.72 Y3.63 E26.15474
G0 F3600 X4.94 Y3.67
;TYPE:FILL
G1 F1200 X6.70 Y5.43 E26.34085
G0 F3600 X7.57 Y5.45
G1 F1200 X4.91 Y2.79 E26.62252
G0 F3600 X4.90 Y1.93
G1 F1200 X8.43 Y5.46 E26.99590
G0 F3600 X9.28 Y5.46
G1 F1200 X4.91 Y1.09 E27.45839
G0 F3600 X4.92 Y0.25
G1 F1200 X10.11 Y5.45 E28.00830
G0 F3600 X10.93 Y5.42
G1 F1200 X4.93 Y-0.59 E28.64420
G0 F3600 X4.93 Y-1.43
G1 F1200 X11.72 Y5.36 E29.36275
G0 F3600 X12.49 Y5.28
G1 F1200 X4.94 Y-2.27 E30.16163
G0 F3600 X4.95 Y-3.11
G1 F1200 X12.92 Y4.86 E31.00518
G0 F3600 X12.99 Y4.08
G1 F1200 X5.00 Y-3.91 E31.85089
G0 F3600 X5.19 Y-4.57
G1 F1200 X12.90 Y3.15 E32.66734
G0 F3600 X12.90 Y2.30
G1 F1200 X5.49 Y-5.11 E33.45188
G0 F3600 X6.10 Y-5.36
G1 F1200 X12.92 Y1.47 E34.17398
G0 F3600 X12.92 Y0.61
G1 F1200 X6.90 Y-5.40 E34.81072
G0 F3600 X7.70 Y-5.45
G1 F1200 X12.90 Y-0.25 E35.36127
G0 F3600 X12.98 Y-1.02
G1 F1200 X8.51 Y-5.49 E35.83402
G0 F3600 X9.35 Y-5.50
G1 F1200 X12.98 Y-1.87 E36.21777
G0 F3600 X12.98 Y-2.72
G1 F1200 X10.21 Y-5.49 E36.51072
G0 F3600 X11.06 Y-5.49
G1 F1200 X12.97 Y-3.57 E36.71360
G0 F3600 X12.97 Y-4.42
G1 F1200 X11.91 Y-5.48 E36.82541
G0 F3600 X11.91 Y-5.29
G0 X5.35 Y4.70
G0 X5.17 Y4.74
G1 F1200 X5.73 Y5.31 E36.88510
G0 F3600 X5.74 Y5.13
G0 X6.30 Y3.92
G1 F2400 E32.38510
G0 F3600 X-6.12 Y2.13
;TYPE:WALL-OUTER
G1 F2400 E36.88510
G1 F1200 X-6.26 Y3.53 E36.98970
G1 X-6.33 Y3.80 E37.01062
G1 X-6.44 Y4.03 E37.03001
G1 X-6.58 Y4.23 E37.04817
G1 X-6.72 Y4.37 E37.06262
G1 X-7.56 Y5.06 E37.14424
G1 X-7.93 Y5.29 E37.17711
G1 X-8.32 Y5.47 E37.20937
G1 X-8.72 Y5.60 E37.24025
G1 X-9.06 Y5.68 E37.26679
G1 X-9.43 Y5.71 E37.29413
G1 X-9.83 Y5.69 E37.32448
G1 X-10.19 Y5.62 E37.35177
G1 X-11.10 Y5.39 E37.42192
G1 X-11.51 Y5.25 E37.45437
G1 X-11.84 Y5.08 E37.48191
G1 X-12.28 Y4.73 E37.52441
G1 X-12.63 Y4.31 E37.56510
G1 X-12.91 Y3.77 E37.61092
G1 X-13.10 Y3.21 E37.65506
G1 X-13.21 Y2.66 E37.69689
G1 X-13.23 Y2.08 E37.74055
G1 X-13.17 Y1.49 E37.78507
G1 X-13.04 Y0.91 E37.82953
G1 X-12.83 Y0.35 E37.87440
G1 X-12.52 Y-0.11 E37.91529
G1 X-12.11 Y-0.45 E37.95574
G1 X-11.54 Y-0.67 E38.00097
G1 X-11.09 Y-0.73 E38.03502
G1 X-10.91 Y-0.78 E38.04904
G1 X-10.75 Y-0.93 E38.06533
G1 X-10.67 Y-1.11 E38.08004
G1 X-10.65 Y-1.27 E38.09238
G1 X-10.68 Y-5.20 E38.38619
G1 X-10.65 Y-5.68 E38.42240
G1 X-8.29 Y-5.68 E38.59856
G1 X-8.30 Y-5.44 E38.61630
G1 X-8.29 Y-5.31 E38.62641
G1 X-9.09 Y-5.25 E38.68666
G1 X-9.09 Y-3.91 E38.78664
G1 X-8.33 Y-3.92 E38.84396
G1 X-8.29 Y-3.92 E38.84704
G1 X-8.28 Y-3.44 E38.88266
G1 X-9.16 Y-3.44 E38.94837
G1 X-9.16 Y-0.89 E39.13920
G1 X-8.52 Y-0.82 E39.18715
G1 X-8.26 Y-0.77 E39.20744
G1 X-8.02 Y-0.69 E39.22608
G1 X-7.72 Y-0.46 E39.25454
G1 X-7.56 Y-0.40 E39.26728
G1 X-7.33 Y-0.27 E39.28694
G1 X-6.63 Y0.65 E39.37372
G1 X-6.31 Y1.16 E39.41837
G1 X-6.23 Y1.36 E39.43447
G1 X-6.16 Y1.57 E39.45099
G1 X-6.14 Y1.76 E39.46575
G1 X-6.12 Y2.13 E39.49375
G0 F3600 X-7.37 Y1.97
G1 F1200 X-7.41 Y1.61 E39.52159
G1 X-7.49 Y1.28 E39.54684
G1 X-7.61 Y0.96 E39.57216
G1 X-7.75 Y0.65 E39.59754
G1 X-7.90 Y0.40 E39.61956
G1 X-8.08 Y0.18 E39.64099
G1 X-8.29 Y-0.01 E39.66191
G1 X-8.57 Y-0.18 E39.68661
G1 X-8.94 Y-0.33 E39.71650
G1 X-9.35 Y-0.40 E39.74763
G1 X-9.79 Y-0.39 E39.78042
G1 X-10.19 Y-0.31 E39.81082
G1 X-10.88 Y0.00 E39.86715
G1 X-11.42 Y0.46 E39.92033
G1 X-11.81 Y1.04 E39.97283
G1 X-12.09 Y1.72 E40.02735
G1 X-12.12 Y1.89 E40.04049
G1 X-12.13 Y2.63 E40.09603
G1 X-12.07 Y2.99 E40.12327
G1 X-11.82 Y3.62 E40.17401
G1 X-11.68 Y3.87 E40.19569
G1 X-11.06 Y4.59 E40.26656
G1 X-10.71 Y4.94 E40.30376
G1 X-10.56 Y5.02 E40.31616
G1 X-10.45 Y5.04 E40.32455
G1 X-9.86 Y5.04 E40.36856
G1 X-9.30 Y4.97 E40.41124
G1 X-8.74 Y4.77 E40.45567
G1 X-8.22 Y4.41 E40.50276
G1 X-8.03 Y4.19 E40.52497
G1 X-7.93 Y4.04 E40.53784
G1 X-7.53 Y3.01 E40.62060
G1 X-7.39 Y2.51 E40.65934
G1 X-7.37 Y1.97 E40.69972
G0 F3600 X-7.18 Y1.73
;TYPE:FILL
G1 F1200 X-6.41 Y2.92 E40.78525
G1 X-7.29 Y2.89 E40.86354
G1 X-6.86 Y4.17 E40.94146
G1 X-7.77 Y4.11 E41.00016
G1 X-7.79 Y4.94 E41.04110
G1 X-8.66 Y4.92 E41.07648
G1 X-9.00 Y5.42 E41.10714
G1 X-9.63 Y5.22 E41.15644
G1 F2400 E36.65644
G0 F3600 X-11.56 Y4.99
G1 F2400 E41.15644
G1 F1200 X-12.56 Y3.98 E41.26248
G0 F3600 X-12.03 Y3.66
G1 F1200 X-12.98 Y2.71 E41.36313
G0 F3600 X-12.34 Y2.51
G1 F1200 X-12.65 Y1.78 E41.43222
G1 X-12.76 Y0.81 E41.49298
G1 X-11.90 Y0.83 E41.55644
G1 X-12.05 Y-0.17 E41.61697
G1 X-11.09 Y-0.06 E41.66578
G1 X-10.84 Y-0.66 E41.69465
G1 X-10.26 Y-0.51 E41.73960
G0 F3600 X-9.52 Y-0.61
G1 F1200 X-10.44 Y-1.53 E41.83749
G0 F3600 X-10.45 Y-2.39
G1 F1200 X-9.37 Y-1.31 E41.95158
G0 F3600 X-9.37 Y-2.16
G1 F1200 X-10.45 Y-3.24 E42.06630
G0 F3600 X-10.46 Y-4.09
G1 F1200 X-9.37 Y-3.01 E42.18156
G0 F3600 X-9.30 Y-3.79
G1 F1200 X-10.46 Y-4.95 E42.30443
G0 F3600 X-10.13 Y-5.47
G1 F1200 X-9.30 Y-4.64 E42.39253
G1 F2400 E37.89253
G0 F3600 X-8.69 Y-0.63
G1 F2400 E42.39253
G1 F1200 X-8.35 Y-0.29 E42.42799
G0 F3600 X-7.64 Y0.42
G1 F1200 X-6.36 Y1.71 E42.56419
;LAYER:1
M106 S255
G0 F9000 X-6.14 Y1.76 Z0.55
;TYPE:WALL-OUTER
G1 F1620 X-6.12 Y2.11 E42.58597
G1 X-6.22 Y3.27 E42.65874
G1 X-6.33 Y3.78 E42.69119
G1 X-6.43 Y4.01 E42.70691
G1 X-6.60 Y4.25 E42.72495
G1 X-7.62 Y5.11 E42.80831
G1 X-7.91 Y5.28 E42.82897
G1 X-8.37 Y5.48 E42.86066
G1 X-8.76 Y5.61 E42.88610
G1 X-9.06 Y5.68 E42.90547
G1 X-9.43 Y5.71 E42.92850
G1 X-9.86 Y5.68 E42.95543
G1 X-10.69 Y5.50 E43.00864
G1 X-11.48 Y5.26 E43.06020
G1 X-11.84 Y5.08 E43.08472
G1 X-12.28 Y4.73 E43.12008
G1 X-12.63 Y4.31 E43.15404
G1 X-12.90 Y3.81 E43.18983
G1 X-13.09 Y3.25 E43.22646
G1 X-13.21 Y2.66 E43.26386
G1 X-13.23 Y2.08 E43.30025
G1 X-13.17 Y1.49 E43.33735
G1 X-13.04 Y0.91 E43.37440
G1 X-12.83 Y0.35 E43.41179
G1 X-12.52 Y-0.11 E43.44586
G1 X-12.11 Y-0.45 E43.47957
G1 X-11.55 Y-0.67 E43.51679
G1 X-11.09 Y-0.73 E43.54582
G1 X-10.91 Y-0.78 E43.55731
G1 X-10.75 Y-0.93 E43.57088
G1 X-10.67 Y-1.11 E43.58314
G1 X-10.65 Y-1.27 E43.59342
G1 X-10.68 Y-5.20 E43.83827
G1 X-10.65 Y-5.68 E43.86844
G1 X-8.29 Y-5.68 E44.01524
G1 X-8.30 Y-5.44 E44.03002
G1 X-8.29 Y-5.31 E44.03844
G1 X-9.09 Y-5.25 E44.08865
G1 X-9.09 Y-3.91 E44.17197
G1 X-8.33 Y-3.92 E44.21974
G1 X-8.29 Y-3.92 E44.22230
G1 X-8.28 Y-3.44 E44.25199
G1 X-9.16 Y-3.44 E44.30674
G1 X-9.16 Y-0.90 E44.46527
G1 X-8.25 Y-0.77 E44.52263
G1 X-8.02 Y-0.69 E44.53769
G1 X-7.73 Y-0.47 E44.56048
G1 X-7.35 Y-0.29 E44.58685
G1 X-7.33 Y-0.27 E44.58835
G1 X-6.63 Y0.65 E44.66067
G1 X-6.32 Y1.15 E44.69729
G1 X-6.16 Y1.57 E44.72545
G1 X-6.14 Y1.76 E44.73731
G0 F9000 X-7.37 Y1.97
G1 F1620 X-7.42 Y1.57 E44.76275
G1 X-7.50 Y1.24 E44.78363
G1 X-7.60 Y0.97 E44.80168
G1 X-7.88 Y0.42 E44.84031
G1 X-8.07 Y0.19 E44.85890
G1 X-8.29 Y-0.01 E44.87723
G1 X-8.55 Y-0.17 E44.89627
G1 X-8.94 Y-0.33 E44.92286
G1 X-9.35 Y-0.40 E44.94873
G1 X-9.77 Y-0.39 E44.97449
G1 X-10.19 Y-0.31 E45.00146
G1 X-10.88 Y0.00 E45.04840
G1 X-11.42 Y0.46 E45.09272
G1 X-11.81 Y1.04 E45.13647
G1 X-12.09 Y1.73 E45.18249
G1 X-12.13 Y2.02 E45.20108
G1 X-12.13 Y2.63 E45.23918
G1 X-12.07 Y2.99 E45.26181
G1 X-11.83 Y3.61 E45.30338
G1 X-11.68 Y3.87 E45.32217
G1 X-11.06 Y4.59 E45.38123
G1 X-10.71 Y4.94 E45.41224
G1 X-10.56 Y5.02 E45.42256
G1 X-10.45 Y5.04 E45.42956
G1 X-9.86 Y5.04 E45.46623
G1 X-9.30 Y4.97 E45.50180
G1 X-8.74 Y4.77 E45.53882
G1 X-8.22 Y4.41 E45.57806
G1 X-8.03 Y4.19 E45.59658
G1 X-7.93 Y4.04 E45.60730
G1 X-7.53 Y3.01 E45.67627
G1 X-7.39 Y2.51 E45.70855
G1 X-7.37 Y1.97 E45.74227
G0 F9000 X-7.19 Y1.68
;TYPE:FILL
G1 F1620 X-6.77 Y0.83 E45.79432
G1 X-7.50 Y0.71 E45.83149
G1 X-7.55 Y-0.08 E45.86066
G1 X-8.27 Y-0.21 E45.87995
G1 X-8.34 Y-0.57 E45.90268
G0 F9000 X-9.37 Y-1.24
G1 F1620 X-10.06 Y-0.55 E45.96340
G0 F9000 X-10.51 Y-0.95
G1 F1620 X-9.37 Y-2.09 E46.06377
G0 F9000 X-9.37 Y-2.93
G1 F1620 X-10.44 Y-1.86 E46.15849
G0 F9000 X-10.45 Y-2.70
G1 F1620 X-9.30 Y-3.85 E46.25947
G0 F9000 X-9.30 Y-4.70
G1 F1620 X-10.45 Y-3.55 E46.36094
G0 F9000 X-10.46 Y-4.39
G1 F1620 X-9.38 Y-5.47 E46.45605
G0 F9000 X-10.23 Y-5.47
G1 F1620 X-10.46 Y-5.24 E46.47660
G1 F2400 E41.97660
G0 F9000 X-10.88 Y-0.57
G1 F2400 E46.47660
G1 F1620 X-12.95 Y1.50 E46.65939
G0 F9000 X-12.30 Y1.69
G1 F1620 X-12.67 Y2.49 E46.72183
G1 X-12.79 Y3.45 E46.77108
G1 X-12.05 Y3.57 E46.81476
G1 X-12.15 Y4.52 E46.85330
G1 X-11.35 Y4.57 E46.88788
G1 X-11.42 Y5.05 E46.91864
G0 F9000 X-10.09 Y5.42
G1 F1620 X-9.61 Y5.37 E46.93382
G1 X-8.85 Y5.03 E46.98545
G0 F9000 X-8.11 Y5.14
G1 F1620 X-6.49 Y3.52 E47.12868
G0 F9000 X-6.37 Y2.55
G1 F1620 X-7.61 Y3.79 E47.23755
G0 F9000 X-7.18 Y2.52
G1 F1620 X-6.36 Y1.69 E47.31031
G1 F2400 E42.81031
G0 F9000 X-12.22 Y-0.08
G1 F2400 E47.31031
G1 F1620 X-12.41 Y0.11 E47.32712
G0 F9000 X-3.65 Y-1.43
;TYPE:WALL-OUTER
G1 F1620 X-4.65 Y-5.66 E47.59852
G1 X0.97 Y-5.70 E47.94932
G1 X2.60 Y-5.68 E48.05104
G1 X2.74 Y-5.66 E48.05988
G1 X2.73 Y-5.58 E48.06519
G1 X2.76 Y-5.29 E48.08333
G1 X2.75 Y-5.15 E48.09184
G1 X2.32 Y-3.84 E48.17831
G1 X0.83 Y2.02 E48.55519
G1 X0.71 Y2.79 E48.60394
G1 X0.68 Y3.10 E48.62298
G1 X0.64 Y5.69 E48.78483
G1 X-2.49 Y5.69 E48.97965
G1 X-2.51 Y3.65 E49.10707
G1 X-2.58 Y2.91 E49.15317
G1 X-2.77 Y1.88 E49.21899
G1 X-3.65 Y-1.43 E49.43199
G0 F9000 X-3.39 Y-1.28
;TYPE:FILL
G1 F1620 X0.82 Y-5.48 E49.80298
G0 F9000 X1.66 Y-5.48
G1 F1620 X-3.21 Y-0.61 E50.23266
G0 F9000 X-3.03 Y0.06
G1 F1620 X2.50 Y-5.47 E50.72091
G0 F9000 X2.29 Y-4.41
G1 F1620 X-2.85 Y0.73 E51.17444
G0 F9000 X-2.68 Y1.40
G1 F1620 X1.95 Y-3.22 E51.58234
G0 F9000 X1.66 Y-2.08
G1 F1620 X-2.52 Y2.09 E51.95038
G0 F9000 X-2.38 Y2.81
