;Generated with Cura_SteamEngine 13.12
M140 S100.000000
M109 T0 S230.000000
T0
M190 S100.000000

M136 (enable build)
M73 P0
G162 X Y F2000(home XY axes maximum)
G161 Z F900(home Z axis minimum)
G92 X0 Y0 Z-5 A0 B0 (set Z to -5)
G1 Z0.0 F9000(move Z to '0')
G161 Z F100(home Z axis minimum)
M132 X Y Z A B (Recall stored home offsets for XYZAB axis)
G92 X152 Y72 Z0 A0 B0
G1 X-100 Y-74 Z40 F9000 (move to waiting position)
G130 X20 Y20 A20 B20 (Lower stepper Vrefs while heating)
M135 T0
M104 S220 T0
M133 T0
G130 X127 Y127 A127 B127 (Set Stepper motor Vref to defaults)
; Sliced ?filename? at: Sat 21-06-2014 17:33:14
; Basic settings: Layer height: 0.25 Walls: 0.6 Fill: 30
; Print time: #P_TIME#
; Filament used: #F_AMNT#m #F_WGHT#g
; Filament cost: #F_COST#
M73 P0;
; -- end of START GCODE --

;Layer count: 12
;LAYER:0
M107
G0 F3600 X-0.55 Y3.40 Z0.30
;TYPE:SKIRT
G1 F2400 E0.00000
G1 F1200 X-1.29 Y3.27 E0.05593
G1 X-2.47 Y2.97 E0.14692
G1 X-3.24 Y2.69 E0.20841
G1 X-3.98 Y2.32 E0.27069
G1 X-5.09 Y3.19 E0.37612
G1 X-6.28 Y3.76 E0.47479
G1 X-7.42 Y3.88 E0.56019
G1 X-8.09 Y3.87 E0.61026
G1 X-8.48 Y3.93 E0.63973
G1 X-10.20 Y3.97 E0.76863
G1 X-10.97 Y3.96 E0.82611
G1 X-11.74 Y3.97 E0.88388
G1 X-13.52 Y3.92 E1.01699
G1 X-13.98 Y3.84 E1.05250
G1 X-14.41 Y3.81 E1.08428
G1 X-15.51 Y3.64 E1.16805
G1 X-15.52 Y3.99 E1.19380
G1 X-25.75 Y3.99 E1.95989
G1 X-25.76 Y3.07 E2.02904
G1 X-25.96 Y3.18 E2.04603
G1 X-26.70 Y3.52 E2.10733
G1 X-27.45 Y3.77 E2.16630
G1 X-28.21 Y3.94 E2.22467
G1 X-29.07 Y4.01 E2.28881
G1 X-29.93 Y3.97 E2.35356
G1 X-30.66 Y3.84 E2.40925
G1 X-31.84 Y3.54 E2.50010
G1 X-32.61 Y3.27 E2.56156
G1 X-33.47 Y2.84 E2.63365
G1 X-34.52 Y2.02 E2.73245
G1 X-35.35 Y1.00 E2.83100
G1 X-35.93 Y-0.11 E2.92476
G1 X-36.29 Y-1.17 E3.00859
G1 X-36.49 Y-2.23 E3.08957
G1 X-36.54 Y-3.33 E3.17225
G1 X-36.43 Y-4.39 E3.25136
G1 X-36.20 Y-5.43 E3.33174
G1 X-35.74 Y-6.62 E3.42667
G1 X-34.92 Y-7.85 E3.53797
G1 X-33.97 Y-8.64 E3.63036
G1 X-33.98 Y-10.52 E3.77098
G1 X-33.97 Y-10.86 E3.79695
G1 X-33.87 Y-12.03 E3.88437
G1 X-34.38 Y-12.43 E3.93262
G1 X-35.21 Y-13.44 E4.03101
G1 X-35.79 Y-14.55 E4.12476
G1 X-36.16 Y-15.61 E4.20859
G1 X-36.36 Y-16.68 E4.28958
G1 X-36.40 Y-17.78 E4.37225
G1 X-36.30 Y-18.83 E4.45136
G1 X-36.06 Y-19.88 E4.53174
G1 X-35.61 Y-21.07 E4.62668
G1 X-34.78 Y-22.30 E4.73797
G1 X-33.83 Y-23.09 E4.83037
G1 X-33.84 Y-24.97 E4.97099
G1 X-33.83 Y-25.31 E4.99688
G1 X-33.52 Y-29.03 E5.27603
G1 X-24.24 Y-29.03 E5.97073
G1 X-24.24 Y-29.01 E5.97215
G1 X-18.59 Y-29.05 E6.39461
G1 X-16.67 Y-29.03 E6.53837
G1 X-15.14 Y-28.79 E6.65443
G1 X-13.59 Y-28.94 E6.77104
G1 X-11.41 Y-29.04 E6.93449
G1 X-10.51 Y-29.06 E7.00133
G1 X-8.90 Y-29.05 E7.12220
G1 X-8.04 Y-29.06 E7.18649
G1 X-6.63 Y-29.01 E7.29207
G1 X-4.86 Y-28.20 E7.43778
G1 X-4.52 Y-27.85 E7.47398
G1 X-4.40 Y-29.26 E7.57988
G1 X4.88 Y-29.26 E8.27450
G1 X4.88 Y-29.25 E8.27592
G1 X10.53 Y-29.28 E8.69837
G1 X12.45 Y-29.27 E8.84213
G1 X13.97 Y-29.03 E8.95774
G1 X15.53 Y-29.18 E9.07493
G1 X17.71 Y-29.28 E9.23816
G1 X18.60 Y-29.30 E9.30508
G1 X20.22 Y-29.28 E9.42594
G1 X21.08 Y-29.29 E9.49046
G1 X22.49 Y-29.24 E9.59597
G1 X24.26 Y-28.44 E9.74138
G1 X25.65 Y-27.01 E9.89024
G1 X26.33 Y-25.17 E10.03736
G1 X26.35 Y-20.03 E10.42216
G1 X26.28 Y-19.77 E10.44223
G1 X26.29 Y-19.53 E10.46035
G1 X26.28 Y-19.18 E10.48618
G1 X26.29 Y-18.36 E10.54762
G1 X26.27 Y-17.56 E10.60789
G1 X26.27 Y-16.97 E10.65189
G1 X26.41 Y-15.43 E10.76753
G1 X26.19 Y-14.04 E10.87316
G1 X25.68 Y-13.00 E10.95985
G1 X25.77 Y-12.91 E10.96969
G1 X26.45 Y-11.06 E11.11680
G1 X26.47 Y-5.92 E11.50183
G1 X26.39 Y-5.66 E11.52175
G1 X26.41 Y-5.41 E11.54033
G1 X26.40 Y-5.07 E11.56638
G1 X26.41 Y-4.26 E11.62693
G1 X26.39 Y-3.45 E11.68734
G1 X26.39 Y-2.86 E11.73135
G1 X26.53 Y-1.32 E11.84705
G1 X26.31 Y0.07 E11.95269
G1 X25.54 Y1.63 E12.08285
G1 X24.28 Y2.62 E12.20239
G1 X23.09 Y3.19 E12.30140
G1 X21.95 Y3.30 E12.38677
G1 X21.29 Y3.29 E12.43662
G1 X20.90 Y3.35 E12.46609
G1 X19.17 Y3.39 E12.59506
G1 X18.41 Y3.39 E12.65239
G1 X17.64 Y3.39 E12.71009
G1 X15.86 Y3.35 E12.84319
G1 X15.39 Y3.26 E12.87870
G1 X14.97 Y3.24 E12.91064
G1 X13.86 Y3.07 E12.99436
G1 X13.85 Y3.41 E13.02026
G1 X3.62 Y3.41 E13.78635
G1 X3.61 Y2.49 E13.85550
G1 X3.41 Y2.61 E13.87272
G1 X2.67 Y2.94 E13.93378
G1 X1.92 Y3.20 E13.99276
G1 X1.16 Y3.37 E14.05144
G1 X0.31 Y3.44 E14.11534
G1 X-0.55 Y3.40 E14.17963
G1 F2400 E9.67963
G0 F3600 X-0.16 Y-0.19
;TYPE:WALL-OUTER
G1 F2400 E14.17963
G1 F1200 X-0.52 Y-0.25 E14.20714
G1 X-1.42 Y-0.48 E14.27689
G1 X-1.83 Y-0.63 E14.30958
G1 X-2.17 Y-0.80 E14.33746
G1 X-2.61 Y-1.14 E14.37946
G1 X-2.95 Y-1.56 E14.42030
G1 X-3.24 Y-2.11 E14.46612
G1 X-3.43 Y-2.66 E14.51026
G1 X-3.53 Y-3.21 E14.55216
G1 X-3.56 Y-3.80 E14.59582
G1 X-3.50 Y-4.39 E14.64027
G1 X-3.37 Y-4.97 E14.68474
G1 X-3.15 Y-5.53 E14.72970
G1 X-2.85 Y-5.99 E14.77081
G1 X-2.43 Y-6.33 E14.81090
G1 X-1.87 Y-6.55 E14.85623
G1 X-1.42 Y-6.61 E14.89021
G1 X-1.24 Y-6.66 E14.90461
G1 X-1.08 Y-6.80 E14.92066
G1 X-0.99 Y-6.98 E14.93526
G1 X-0.98 Y-7.15 E14.94774
G1 X-1.00 Y-11.07 E15.24155
G1 X-1.00 Y-11.26 E15.25555
G1 X-0.97 Y-11.56 E15.27778
G1 X1.38 Y-11.56 E15.45379
G1 X1.38 Y-11.32 E15.47160
G1 X1.38 Y-11.18 E15.48164
G1 X0.58 Y-11.12 E15.54196
G1 X0.58 Y-9.79 E15.64180
G1 X1.35 Y-9.80 E15.69942
G1 X1.38 Y-9.79 E15.70220
G1 X1.39 Y-9.32 E15.73782
G1 X0.51 Y-9.32 E15.80360
G1 X0.51 Y-6.78 E15.99376
G1 X1.42 Y-6.65 E16.06268
G1 X1.65 Y-6.56 E16.08068
G1 X1.94 Y-6.34 E16.10840
G1 X2.27 Y-6.20 E16.13479
G1 X2.35 Y-6.14 E16.14233
G1 X3.04 Y-5.23 E16.22768
G1 X3.36 Y-4.72 E16.27260
G1 X3.51 Y-4.30 E16.30598
G1 X3.54 Y-4.12 E16.32022
G1 X3.55 Y-3.74 E16.34829
G1 X3.41 Y-2.35 E16.45267
G1 X3.34 Y-2.08 E16.47351
G1 X3.23 Y-1.84 E16.49327
G1 X3.09 Y-1.64 E16.51138
G1 X2.95 Y-1.51 E16.52582
G1 X2.12 Y-0.81 E16.60745
G1 X1.74 Y-0.58 E16.64032
G1 X1.35 Y-0.41 E16.67254
G1 X0.96 Y-0.28 E16.70342
G1 X0.61 Y-0.20 E16.73004
G1 X0.25 Y-0.17 E16.75730
G1 X-0.16 Y-0.19 E16.78749
G0 F3600 X-0.19 Y-0.84
G1 F1200 X0.38 Y-0.91 E16.83019
G1 X0.94 Y-1.10 E16.87459
G1 X1.45 Y-1.47 E16.92162
G1 X1.65 Y-1.69 E16.94378
G1 X1.74 Y-1.83 E16.95669
G1 X2.14 Y-2.86 E17.03949
G1 X2.28 Y-3.36 E17.07822
G1 X2.31 Y-3.90 E17.11868
G1 X2.26 Y-4.27 E17.14645
G1 X2.18 Y-4.60 E17.17177
G1 X2.07 Y-4.93 E17.19757
G1 X1.78 Y-5.47 E17.24373
G1 X1.59 Y-5.70 E17.26580
G1 X1.38 Y-5.89 E17.28673
G1 X1.10 Y-6.05 E17.31135
G1 X0.73 Y-6.20 E17.34132
G1 X0.32 Y-6.28 E17.37248
G1 X-0.12 Y-6.27 E17.40527
G1 X-0.52 Y-6.19 E17.43559
G1 X-1.20 Y-5.88 E17.49196
G1 X-1.74 Y-5.41 E17.54514
G1 X-2.13 Y-4.83 E17.59755
G1 X-2.41 Y-4.16 E17.65212
G1 X-2.44 Y-3.99 E17.66526
G1 X-2.46 Y-3.24 E17.72088
G1 X-2.39 Y-2.89 E17.74799
G1 X-2.15 Y-2.25 E17.79877
G1 X-2.00 Y-2.00 E17.82045
G1 X-1.39 Y-1.28 E17.89132
G1 X-1.03 Y-0.94 E17.92853
G1 X-0.89 Y-0.86 E17.94092
G1 X-0.78 Y-0.83 E17.94931
G1 X-0.19 Y-0.84 E17.99332
G0 F3600 X-0.20 Y-0.63
;TYPE:FILL
G1 F1200 X0.28 Y-0.56 E18.01850
G1 X0.97 Y-0.72 E18.04800
G1 X1.71 Y-0.83 E18.08012
G1 X1.80 Y-1.60 E18.11875
G1 X2.68 Y-1.56 E18.16967
G1 X2.32 Y-2.77 E18.24344
G1 X3.23 Y-2.71 E18.32417
G1 X2.51 Y-3.85 E18.42488
G0 F3600 X3.33 Y-3.88
G1 F1200 X2.29 Y-4.93 E18.53568
G0 F3600 X2.61 Y-5.45
G1 F1200 X1.96 Y-6.11 E18.60522
G1 F2400 E14.10522
G0 F3600 X0.30 Y-6.91
G1 F2400 E18.60522
G1 F1200 X-0.77 Y-7.99 E18.71899
G0 F3600 X-0.77 Y-7.13
G1 F1200 X-0.45 Y-6.39 E18.78852
G1 X-1.20 Y-6.29 E18.81569
G1 X-2.01 Y-6.25 E18.85134
G1 X-1.99 Y-5.39 E18.90566
G1 X-2.91 Y-5.46 E18.96778
G1 X-2.56 Y-4.26 E19.03090
G1 X-3.30 Y-4.15 E19.09398
G1 X-2.64 Y-3.07 E19.18850
G0 F3600 X-3.24 Y-2.82
G1 F1200 X-1.17 Y-0.75 E19.40747
G1 F2400 E14.90747
G0 F3600 X0.30 Y-7.76
G1 F2400 E19.40747
G1 F1200 X-0.78 Y-8.84 E19.52172
G0 F3600 X-0.78 Y-9.69
G1 F1200 X0.30 Y-8.61 E19.63660
G0 F3600 X0.30 Y-9.46
G1 F1200 X-0.79 Y-10.55 E19.75201
G0 F3600 X-0.74 Y-11.35
G1 F1200 X0.37 Y-10.24 E19.86912
G0 F3600 X0.37 Y-11.09
G1 F1200 X0.11 Y-11.35 E19.89653
G1 F2400 E15.39653
G0 F3600 X-6.52 Y-9.84
;TYPE:WALL-OUTER
G1 F2400 E19.89653
G1 F1200 X-6.51 Y-5.84 E20.19557
G1 X-6.58 Y-5.58 E20.21599
G1 X-6.59 Y-5.19 E20.24532
G1 X-6.57 Y-4.79 E20.27499
G1 X-6.58 Y-4.49 E20.29737
G1 X-6.57 Y-3.71 E20.35589
G1 X-6.59 Y-2.92 E20.41526
G1 X-6.58 Y-2.12 E20.47520
G1 X-6.47 Y-0.86 E20.56949
G1 X-6.53 Y-0.46 E20.60024
G1 X-6.70 Y-0.13 E20.62768
G1 X-7.01 Y0.12 E20.65710
G1 X-7.28 Y0.24 E20.67943
G1 X-7.57 Y0.28 E20.70140
G1 X-8.33 Y0.26 E20.75873
G1 X-8.80 Y0.33 E20.79365
G1 X-10.23 Y0.37 E20.90070
G1 X-10.97 Y0.36 E20.95608
G1 X-11.70 Y0.37 E21.01131
G1 X-13.15 Y0.33 E21.11941
G1 X-13.55 Y0.26 E21.14999
G1 X-14.37 Y0.18 E21.21172
G1 X-14.60 Y0.05 E21.23155
G1 X-14.91 Y-1.24 E21.33093
G1 X-14.98 Y-1.67 E21.36333
G1 X-15.01 Y-3.04 E21.46590
G1 X-14.95 Y-8.67 E21.88694
G1 X-14.90 Y-9.33 E21.93660
G1 X-14.71 Y-9.94 E21.98470
G1 X-14.41 Y-10.50 E22.03221
G1 X-14.24 Y-10.72 E22.05274
G1 X-14.06 Y-10.85 E22.06902
G1 X-11.42 Y-10.99 E22.26713
G1 X-10.62 Y-11.01 E22.32664
G1 X-9.02 Y-11.00 E22.44698
G1 X-8.22 Y-11.01 E22.50670
G1 X-7.61 Y-10.99 E22.55253
G1 X-7.10 Y-10.76 E22.59423
G1 X-6.71 Y-10.36 E22.63577
G1 X-6.52 Y-9.84 E22.67737
G0 F3600 X-6.73 Y-9.70
;TYPE:FILL
G1 F1200 X-7.81 Y-10.78 E22.79231
G0 F3600 X-8.67 Y-10.79
G1 F1200 X-6.72 Y-8.85 E22.99826
G0 F3600 X-6.72 Y-7.99
G1 F1200 X-9.52 Y-10.79 E23.29422
G0 F3600 X-10.38 Y-10.80
G1 F1200 X-6.72 Y-7.14 E23.68104
G0 F3600 X-6.72 Y-6.29
G1 F1200 X-11.21 Y-10.79 E24.15687
G0 F3600 X-12.02 Y-10.75
G1 F1200 X-6.79 Y-5.52 E24.71032
G0 F3600 X-6.78 Y-4.66
G1 F1200 X-12.82 Y-10.70 E25.34998
G0 F3600 X-13.63 Y-10.66
G1 F1200 X-6.78 Y-3.81 E26.07514
G0 F3600 X-6.79 Y-2.98
G1 F1200 X-14.22 Y-10.40 E26.86090
G0 F3600 X-14.52 Y-9.85
G1 F1200 X-6.79 Y-2.12 E27.67846
G0 F3600 X-6.71 Y-1.20
G1 F1200 X-14.70 Y-9.18 E28.52375
G0 F3600 X-14.75 Y-8.38
G1 F1200 X-6.78 Y-0.42 E29.36639
G0 F3600 X-7.22 Y-0.01
G1 F1200 X-14.76 Y-7.54 E30.16327
G0 F3600 X-14.76 Y-6.70
G1 F1200 X-8.00 Y0.06 E30.87875
G0 F3600 X-8.79 Y0.12
G1 F1200 X-14.77 Y-5.86 E31.51200
G0 F3600 X-14.78 Y-5.02
G1 F1200 X-9.61 Y0.14 E32.05884
G0 F3600 X-10.45 Y0.16
G1 F1200 X-14.79 Y-4.18 E32.51810
G0 F3600 X-14.80 Y-3.34
G1 F1200 X-11.30 Y0.15 E32.88836
G0 F3600 X-12.16 Y0.15
G1 F1200 X-14.79 Y-2.48 E33.16670
G0 F3600 X-14.75 Y-1.60
G1 F1200 X-13.03 Y0.12 E33.34911
G0 F3600 X-14.00 Y0.00
G1 F1200 X-14.52 Y-0.52 E33.40435
G0 F3600 X-13.20 Y-1.21
G1 F2400 E28.90435
G0 F3600 X-19.02 Y-2.21
;TYPE:WALL-OUTER
G1 F2400 E33.40435
G1 F1200 X-19.06 Y0.39 E33.59880
G1 X-22.19 Y0.39 E33.83258
G1 X-22.20 Y-1.56 E33.97822
G1 X-22.29 Y-2.45 E34.04506
G1 X-22.44 Y-3.33 E34.11217
G1 X-24.35 Y-10.96 E34.70098
G1 X-18.73 Y-11.00 E35.12164
G1 X-17.10 Y-10.99 E35.24377
G1 X-16.96 Y-10.97 E35.25438
G1 X-16.97 Y-10.88 E35.26090
G1 X-16.94 Y-10.59 E35.28274
G1 X-16.95 Y-10.47 E35.29152
G1 X-17.43 Y-8.95 E35.41073
G1 X-18.94 Y-2.91 E35.87718
G1 X-19.02 Y-2.21 E35.92984
G0 F3600 X-19.24 Y-1.84
;TYPE:FILL
G1 F1200 X-22.73 Y-5.33 E36.29925
G0 F3600 X-22.44 Y-4.20
G1 F1200 X-19.25 Y-1.00 E36.63760
G0 F3600 X-19.26 Y-0.17
G1 F1200 X-22.19 Y-3.10 E36.94758
G0 F3600 X-22.04 Y-2.10
G1 F1200 X-19.76 Y0.18 E37.18909
G0 F3600 X-20.61 Y0.18
G1 F1200 X-21.99 Y-1.20 E37.33488
G0 F3600 X-21.98 Y-0.34
G1 F1200 X-21.46 Y0.18 E37.39012
G0 F3600 X-21.46 Y-0.01
G0 X-19.37 Y-2.66
G0 X-19.18 Y-2.64
G1 F1200 X-23.01 Y-6.46 E37.79520
G0 F3600 X-23.29 Y-7.59
G1 F1200 X-19.05 Y-3.35 E38.24467
G0 F3600 X-18.88 Y-4.03
G1 F1200 X-23.57 Y-8.73 E38.74193
G0 F3600 X-23.86 Y-9.86
G1 F1200 X-18.70 Y-4.70 E39.28718
G0 F3600 X-18.54 Y-5.38
G1 F1200 X-23.91 Y-10.75 E39.85556
G0 F3600 X-23.06 Y-10.76
G1 F1200 X-18.37 Y-6.06 E40.35271
G0 F3600 X-18.19 Y-6.74
G1 F1200 X-22.22 Y-10.77 E40.77869
G0 F3600 X-21.38 Y-10.77
G1 F1200 X-18.03 Y-7.42 E41.13339
G0 F3600 X-17.85 Y-8.10
G1 F1200 X-20.53 Y-10.78 E41.41702
G0 F3600 X-19.69 Y-10.78
G1 F1200 X-17.69 Y-8.78 E41.62921
G0 F3600 X-17.49 Y-9.43
G1 F1200 X-18.85 Y-10.79 E41.77262
G0 F3600 X-18.00 Y-10.78
G1 F1200 X-17.29 Y-10.08 E41.84728
G0 F3600 X-18.53 Y-9.50
G1 F2400 E37.34728
G0 F3600 X-26.12 Y-4.33
;TYPE:WALL-OUTER
G1 F2400 E41.84728
G1 F1200 X-26.01 Y-4.15 E41.86319
G1 X-25.93 Y-3.94 E41.87969
G1 X-25.87 Y-3.74 E41.89579
G1 X-25.84 Y-3.54 E41.91079
G1 X-25.83 Y-3.17 E41.93879
G1 X-25.92 Y-2.07 E42.02124
G1 X-26.04 Y-1.50 E42.06457
G1 X-26.14 Y-1.27 E42.08376
G1 X-26.28 Y-1.08 E42.10149
G1 X-26.93 Y-0.50 E42.16653
G1 X-27.25 Y-0.24 E42.19733
G1 X-27.64 Y-0.01 E42.23111
G1 X-28.03 Y0.17 E42.26300
G1 X-28.42 Y0.30 E42.29388
G1 X-28.76 Y0.38 E42.32043
G1 X-29.13 Y0.41 E42.34776
G1 X-29.53 Y0.39 E42.37803
G1 X-29.89 Y0.32 E42.40554
G1 X-30.80 Y0.09 E42.47553
G1 X-31.21 Y-0.05 E42.50782
G1 X-31.54 Y-0.22 E42.53553
G1 X-31.99 Y-0.57 E42.57803
G1 X-32.33 Y-0.99 E42.61871
G1 X-32.61 Y-1.53 E42.66447
G1 X-32.80 Y-2.09 E42.70861
G1 X-32.91 Y-2.64 E42.75051
G1 X-32.93 Y-3.22 E42.79417
G1 X-32.87 Y-3.81 E42.83853
G1 X-32.74 Y-4.39 E42.88325
G1 X-32.53 Y-4.95 E42.92804
G1 X-32.22 Y-5.41 E42.96906
G1 X-31.81 Y-5.75 E43.00946
G1 X-31.24 Y-5.97 E43.05463
G1 X-30.79 Y-6.03 E43.08882
G1 X-30.61 Y-6.09 E43.10304
G1 X-30.45 Y-6.23 E43.11884
G1 X-30.37 Y-6.41 E43.13361
G1 X-30.35 Y-6.57 E43.14616
G1 X-30.38 Y-10.50 E43.43990
G1 X-30.37 Y-10.69 E43.45397
G1 X-30.35 Y-10.98 E43.47612
G1 X-28.00 Y-10.98 E43.65221
G1 X-28.00 Y-10.74 E43.66995
G1 X-27.99 Y-10.61 E43.68006
G1 X-28.80 Y-10.55 E43.74038
G1 X-28.80 Y-9.22 E43.84036
G1 X-28.03 Y-9.22 E43.89776
G1 X-27.99 Y-9.22 E43.90076
G1 X-27.98 Y-8.74 E43.93639
G1 X-28.86 Y-8.74 E44.00209
G1 X-28.86 Y-6.20 E44.19232
G1 X-27.95 Y-6.07 E44.26132
G1 X-27.73 Y-5.99 E44.27908
G1 X-27.42 Y-5.76 E44.30761
G1 X-27.25 Y-5.70 E44.32084
G1 X-27.03 Y-5.58 E44.33969
G1 X-26.12 Y-4.33 E44.45538
G0 F3600 X-27.19 Y-4.03
G1 F1200 X-27.31 Y-4.35 E44.48125
G1 X-27.60 Y-4.89 E44.52735
G1 X-27.78 Y-5.12 E44.54947
G1 X-27.99 Y-5.31 E44.57040
G1 X-28.27 Y-5.48 E44.59499
G1 X-28.65 Y-5.63 E44.62498
G1 X-29.06 Y-5.70 E44.65620
G1 X-29.49 Y-5.69 E44.68891
G1 X-29.89 Y-5.61 E44.71929
G1 X-30.58 Y-5.30 E44.77562
G1 X-31.12 Y-4.84 E44.82876
G1 X-31.51 Y-4.26 E44.88121
G1 X-31.79 Y-3.59 E44.93579
G1 X-31.82 Y-3.41 E44.94900
G1 X-31.83 Y-2.67 E45.00446
G1 X-31.77 Y-2.31 E45.03163
G1 X-31.54 Y-1.71 E45.07999
G1 X-31.38 Y-1.44 E45.10361
G1 X-30.76 Y-0.71 E45.17517
G1 X-30.41 Y-0.36 E45.21217
G1 X-30.26 Y-0.28 E45.22456
G1 X-30.15 Y-0.26 E45.23296
G1 X-29.56 Y-0.26 E45.27696
G1 X-29.00 Y-0.34 E45.31981
G1 X-28.43 Y-0.53 E45.36423
G1 X-27.92 Y-0.89 E45.41114
G1 X-27.73 Y-1.11 E45.43329
G1 X-27.63 Y-1.26 E45.44633
G1 X-27.23 Y-2.29 E45.52905
G1 X-27.09 Y-2.79 E45.56779
G1 X-27.07 Y-3.33 E45.60818
G1 X-27.11 Y-3.70 E45.63602
G1 X-27.19 Y-4.03 E45.66126
G0 F3600 X-26.88 Y-3.55
;TYPE:FILL
G1 F1200 X-26.11 Y-2.35 E45.74720
G1 X-26.99 Y-2.39 E45.82621
G1 X-26.57 Y-1.12 E45.90395
G1 X-27.48 Y-1.18 E45.96163
G1 X-27.50 Y-0.35 E46.00264
G1 X-28.37 Y-0.37 E46.03753
G1 X-28.73 Y0.12 E46.06802
G1 X-29.35 Y-0.08 E46.11732
G1 F2400 E41.61732
G0 F3600 X-31.31 Y-0.34
G1 F2400 E46.11732
G1 F1200 X-32.24 Y-1.26 E46.21479
G0 F3600 X-31.72 Y-1.59
G1 F1200 X-32.68 Y-2.55 E46.31639
G0 F3600 X-32.04 Y-2.77
G1 F1200 X-32.35 Y-3.50 E46.38594
G1 X-32.47 Y-4.47 E46.44703
G1 X-31.60 Y-4.45 E46.51063
G1 X-31.77 Y-5.47 E46.57176
G1 X-30.81 Y-5.35 E46.62116
G1 X-30.56 Y-5.95 E46.65058
G1 X-29.98 Y-5.80 E46.69535
G0 F3600 X-29.24 Y-5.91
G1 F1200 X-30.14 Y-6.81 E46.79049
G0 F3600 X-30.15 Y-7.66
G1 F1200 X-29.07 Y-6.58 E46.90468
G0 F3600 X-29.07 Y-7.43
G1 F1200 X-30.15 Y-8.52 E47.01941
G0 F3600 X-30.16 Y-9.37
G1 F1200 X-29.07 Y-8.28 E47.13466
G0 F3600 X-29.00 Y-9.06
G1 F1200 X-30.16 Y-10.22 E47.25737
G0 F3600 X-29.86 Y-10.77
G1 F1200 X-29.00 Y-9.91 E47.34818
G1 F2400 E42.84818
G0 F3600 X-28.40 Y-5.91
G1 F2400 E47.34818
G1 F1200 X-28.12 Y-5.63 E47.37781
G0 F3600 X-27.33 Y-4.85
G1 F1200 X-26.05 Y-3.57 E47.51370
G1 F2400 E43.01370
G0 F3600 X-28.28 Y-14.15
;TYPE:WALL-OUTER
G1 F2400 E47.51370
G1 F1200 X-28.63 Y-14.07 E47.54024
G1 X-28.99 Y-14.04 E47.56766
G1 X-29.39 Y-14.06 E47.59770
G1 X-30.66 Y-14.36 E47.69507
G1 X-31.07 Y-14.50 E47.72775
G1 X-31.41 Y-14.67 E47.75563
G1 X-31.85 Y-15.01 E47.79764
