;Generated with Cura_SteamEngine 13.12
M140 S100.000000
M109 T0 S230.000000
T0
M190 S100.000000

M136 (enable build)
M73 P0
G162 X Y F2000(home XY axes maximum)
G161 Z F900(home Z axis minimum)
G92 X0 Y0 Z-5 A0 B0 (set Z to -5)
G1 Z0.0 F9000(move Z to '0')
G161 Z F100(home Z axis minimum)
M132 X Y Z A B (Recall stored home offsets for XYZAB axis)
G92 X152 Y72 Z0 A0 B0
G1 X-100 Y-74 Z40 F9000 (move to waiting position)
G130 X20 Y20 A20 B20 (Lower stepper Vrefs while heating)
M135 T0
M104 S220 T0
M133 T0
G130 X127 Y127 A127 B127 (Set Stepper motor Vref to defaults)
; Sliced ?filename? at: Sat 21-06-2014 16:02:11
; Basic settings: Layer height: 0.25 Walls: 0.6 Fill: 30
; Print time: #P_TIME#
; Filament used: #F_AMNT#m #F_WGHT#g
; Filament cost: #F_COST#
M73 P0;
; -- end of START GCODE --

;Layer count: 16
;LAYER:0
M107
G0 F3600 X0.97 Y-9.30 Z0.30
;TYPE:SKIRT
G1 F2400 E0.00000
G1 F1200 X2.89 Y-9.28 E0.14339
G1 X4.44 Y-9.04 E0.26076
G1 X5.99 Y-9.19 E0.37708
G1 X9.02 Y-9.31 E0.60445
G1 X10.67 Y-9.30 E0.72786
G1 X11.52 Y-9.31 E0.79185
G1 X12.93 Y-9.26 E0.89721
G1 X14.70 Y-8.45 E1.04299
G1 X16.10 Y-7.03 E1.19190
G1 X16.78 Y-5.19 E1.33883
G1 X16.78 Y-4.31 E1.40446
G1 X17.37 Y-4.31 E1.44839
G1 X17.37 Y3.89 E2.06204
G1 X16.80 Y3.89 E2.10477
G1 X16.85 Y4.59 E2.15713
G1 X16.64 Y5.95 E2.25997
G1 X15.86 Y7.52 E2.39116
G1 X14.58 Y8.51 E2.51227
G1 X13.42 Y9.06 E2.60857
G1 X12.28 Y9.18 E2.69411
G1 X11.62 Y9.17 E2.74366
G1 X11.23 Y9.23 E2.77336
G1 X9.52 Y9.27 E2.90152
G1 X8.75 Y9.27 E2.95899
G1 X7.98 Y9.27 E3.01669
G1 X6.19 Y9.23 E3.15024
G1 X5.72 Y9.14 E3.18615
G1 X5.31 Y9.12 E3.21703
G1 X4.19 Y8.95 E3.30186
G1 X4.18 Y9.29 E3.32760
G1 X-6.05 Y9.29 E4.09369
G1 X-6.06 Y8.37 E4.16284
G1 X-6.24 Y8.48 E4.17873
G1 X-6.99 Y8.82 E4.24009
G1 X-7.74 Y9.07 E4.29918
G1 X-8.51 Y9.24 E4.35818
G1 X-9.36 Y9.32 E4.42240
G1 X-10.22 Y9.27 E4.48631
G1 X-10.95 Y9.15 E4.54222
G1 X-12.13 Y8.85 E4.63344
G1 X-12.93 Y8.56 E4.69638
G1 X-13.83 Y8.10 E4.77242
G1 X-14.85 Y7.29 E4.86961
G1 X-15.65 Y6.31 E4.96455
G1 X-16.22 Y5.21 E5.05711
G1 X-16.59 Y4.15 E5.14103
G1 X-16.79 Y3.07 E5.22324
G1 X-16.84 Y1.97 E5.30591
G1 X-16.73 Y0.92 E5.38488
G1 X-16.50 Y-0.13 E5.46522
G1 X-16.04 Y-1.32 E5.56049
G1 X-15.22 Y-2.55 E5.67166
G1 X-14.26 Y-3.34 E5.76396
G1 X-14.28 Y-5.22 E5.90533
G1 X-14.27 Y-5.57 E5.93108
G1 X-13.96 Y-9.28 E6.20966
G1 X-4.67 Y-9.28 E6.90526
G1 X-4.67 Y-9.26 E6.90653
G1 X0.97 Y-9.30 E7.32853
G0 F3600 X0.97 Y-9.90
G1 F1200 X2.94 Y-9.88 E7.47559
G1 X4.45 Y-9.65 E7.59047
G1 X5.94 Y-9.79 E7.70249
G1 X9.01 Y-9.91 E7.93226
G1 X10.67 Y-9.90 E8.05619
G1 X11.53 Y-9.91 E8.12085
G1 X13.07 Y-9.85 E8.23617
G1 X15.06 Y-8.95 E8.39927
G1 X16.61 Y-7.36 E8.56613
G1 X17.38 Y-5.30 E8.73060
G1 X17.38 Y-4.91 E8.75941
G1 X17.97 Y-4.91 E8.80349
G1 X17.97 Y4.49 E9.50694
G1 X17.44 Y4.49 E9.54646
G1 X17.45 Y4.61 E9.55569
G1 X17.22 Y6.13 E9.67057
G1 X16.34 Y7.91 E9.81896
G1 X14.90 Y9.02 E9.95522
G1 X13.58 Y9.65 E10.06404
G1 X12.31 Y9.78 E10.16012
G1 X11.66 Y9.77 E10.20847
G1 X11.28 Y9.83 E10.23719
G1 X9.52 Y9.87 E10.36916
G1 X8.75 Y9.86 E10.42693
G1 X7.97 Y9.87 E10.48501
G1 X6.13 Y9.82 E10.62283
G1 X5.65 Y9.74 E10.65949
G1 X5.25 Y9.71 E10.68963
G1 X4.78 Y9.64 E10.72511
G1 X4.77 Y9.89 E10.74375
G1 X-6.65 Y9.89 E11.59859
G1 X-6.66 Y9.32 E11.64118
G1 X-6.77 Y9.38 E11.65072
G1 X-7.58 Y9.65 E11.71431
G1 X-8.42 Y9.84 E11.77876
G1 X-9.35 Y9.92 E11.84906
G1 X-10.28 Y9.87 E11.91881
G1 X-11.08 Y9.73 E11.97921
G1 X-12.31 Y9.42 E12.07414
G1 X-13.16 Y9.12 E12.14221
G1 X-14.16 Y8.60 E12.22572
G1 X-15.27 Y7.72 E12.33218
G1 X-16.15 Y6.64 E12.43648
G1 X-16.77 Y5.45 E12.53697
G1 X-17.17 Y4.31 E12.62747
G1 X-17.39 Y3.14 E12.71631
G1 X-17.44 Y1.95 E12.80542
G1 X-17.33 Y0.82 E12.89017
G1 X-17.08 Y-0.30 E12.97650
G1 X-16.58 Y-1.60 E13.08009
G1 X-15.67 Y-2.96 E13.20302
G1 X-14.87 Y-3.62 E13.28060
G1 X-14.88 Y-5.23 E13.40109
G1 X-14.87 Y-5.60 E13.42885
G1 X-14.52 Y-9.88 E13.75017
G1 X-4.06 Y-9.88 E14.53235
G1 X-4.06 Y-9.86 E14.53340
G1 X0.97 Y-9.90 E14.91020
G1 F2400 E10.41020
G0 F3600 X0.97 Y-5.70
;TYPE:WALL-OUTER
G1 F2400 E14.91020
G1 F1200 X2.60 Y-5.68 E15.03226
G1 X2.74 Y-5.66 E15.04286
G1 X2.73 Y-5.58 E15.04924
G1 X2.76 Y-5.28 E15.07138
G1 X2.75 Y-5.17 E15.08007
G1 X2.67 Y-4.87 E15.10328
G1 X2.47 Y-4.34 E15.14549
G1 X0.83 Y2.03 E15.63818
G1 X0.71 Y2.74 E15.69150
G1 X0.68 Y3.10 E15.71863
G1 X0.64 Y5.69 E15.91285
G1 X-2.48 Y5.69 E16.14648
G1 X-2.50 Y3.76 E16.29115
G1 X-2.59 Y2.87 E16.35799
G1 X-2.74 Y1.99 E16.42516
G1 X-3.69 Y-1.60 E16.70303
G1 X-4.65 Y-5.66 E17.01502
G1 X0.97 Y-5.70 E17.43597
G0 F3600 X0.88 Y-5.48
;TYPE:FILL
G1 F1200 X2.21 Y-4.15 E17.57673
G0 F3600 X2.42 Y-4.79
G1 F1200 X1.73 Y-5.48 E17.64918
G0 F3600 X1.73 Y-5.29
G0 X0.04 Y-5.29
G0 X0.04 Y-5.48
G1 F1200 X2.04 Y-3.48 E17.86074
G0 F3600 X1.86 Y-2.81
G1 F1200 X-0.81 Y-5.47 E18.14305
G0 F3600 X-1.65 Y-5.47
G1 F1200 X1.69 Y-2.13 E18.49605
G0 F3600 X1.51 Y-1.46
G1 F1200 X-2.49 Y-5.46 E18.91975
G0 F3600 X-3.33 Y-5.46
G1 F1200 X1.34 Y-0.78 E19.41431
G0 F3600 X1.16 Y-0.11
G1 F1200 X-4.18 Y-5.45 E19.97957
G0 F3600 X-4.19 Y-4.61
G1 F1200 X0.99 Y0.56 E20.52768
G0 F3600 X0.81 Y1.24
G1 F1200 X-3.92 Y-3.50 E21.02927
G0 F3600 X-3.66 Y-2.39
G1 F1200 X0.64 Y1.91 E21.48441
G0 F3600 X0.51 Y2.64
G1 F1200 X-3.38 Y-1.26 E21.89668
G0 F3600 X-3.08 Y-0.11
G1 F1200 X0.46 Y3.43 E22.27133
G0 F3600 X0.45 Y4.27
G1 F1200 X-2.77 Y1.04 E22.61243
G0 F3600 X-2.50 Y2.17
G1 F1200 X0.44 Y5.11 E22.92300
G0 F3600 X-0.03 Y5.48
G1 F1200 X-2.35 Y3.17 E23.16768
G0 F3600 X-2.29 Y4.07
G1 F1200 X-0.88 Y5.48 E23.31638
G0 F3600 X-1.73 Y5.48
G1 F1200 X-2.28 Y4.93 E23.37443
G0 F3600 X-0.99 Y4.19
G1 F2400 E18.87443
G0 F3600 X4.72 Y3.63
;TYPE:WALL-OUTER
G1 F2400 E23.37443
G1 F1200 X4.69 Y2.26 E23.47707
G1 X4.74 Y-3.36 E23.89804
G1 X4.80 Y-4.03 E23.94777
G1 X4.99 Y-4.64 E23.99563
G1 X5.29 Y-5.20 E24.04352
G1 X5.46 Y-5.41 E24.06394
G1 X5.64 Y-5.54 E24.08012
G1 X6.23 Y-5.60 E24.12485
G1 X9.08 Y-5.71 E24.33822
G1 X10.68 Y-5.70 E24.45818
G1 X11.48 Y-5.71 E24.51783
G1 X12.09 Y-5.68 E24.56366
G1 X12.60 Y-5.45 E24.60542
G1 X12.99 Y-5.06 E24.64696
G1 X13.18 Y-4.53 E24.68857
G1 X13.19 Y-0.54 E24.98761
G1 X13.12 Y-0.28 E25.00810
G1 X13.11 Y0.11 E25.03721
G1 X13.13 Y0.50 E25.06650
G1 X13.12 Y0.81 E25.08933
G1 X13.13 Y1.59 E25.14778
G1 X13.11 Y2.38 E25.20722
G1 X13.12 Y3.19 E25.26731
G1 X13.20 Y3.97 E25.32652
G1 X13.23 Y4.43 E25.36110
G1 X13.16 Y4.84 E25.39216
G1 X13.00 Y5.18 E25.41980
G1 X12.68 Y5.43 E25.45026
G1 X12.42 Y5.55 E25.47142
G1 X12.13 Y5.58 E25.49339
G1 X11.37 Y5.56 E25.55072
G1 X10.90 Y5.64 E25.58580
G1 X9.49 Y5.67 E25.69187
G1 X8.75 Y5.66 E25.74718
G1 X8.01 Y5.67 E25.80241
G1 X6.56 Y5.63 E25.91066
G1 X6.15 Y5.56 E25.94200
G1 X5.33 Y5.48 E26.00373
G1 X5.10 Y5.35 E26.02355
G1 X4.79 Y4.06 E26.12280
G1 X4.72 Y3.63 E26.15535
G0 F3600 X4.94 Y3.67
;TYPE:FILL
G1 F1200 X6.70 Y5.43 E26.34151
G0 F3600 X7.57 Y5.45
G1 F1200 X4.91 Y2.79 E26.62318
G0 F3600 X4.90 Y1.93
G1 F1200 X8.43 Y5.46 E26.99667
G0 F3600 X9.28 Y5.46
G1 F1200 X4.91 Y1.09 E27.45905
G0 F3600 X4.92 Y0.25
G1 F1200 X10.11 Y5.45 E28.00886
G0 F3600 X10.93 Y5.42
G1 F1200 X4.93 Y-0.59 E28.64476
G0 F3600 X4.93 Y-1.43
G1 F1200 X11.72 Y5.36 E29.36331
G0 F3600 X12.49 Y5.28
G1 F1200 X4.94 Y-2.27 E30.16230
G0 F3600 X4.95 Y-3.11
G1 F1200 X12.92 Y4.86 E31.00584
G0 F3600 X12.99 Y4.08
G1 F1200 X5.00 Y-3.91 E31.85155
G0 F3600 X5.19 Y-4.57
G1 F1200 X12.90 Y3.15 E32.66800
G0 F3600 X12.90 Y2.30
G1 F1200 X5.49 Y-5.11 E33.45254
G0 F3600 X6.08 Y-5.37
G1 F1200 X12.92 Y1.47 E34.17628
G0 F3600 X12.92 Y0.61
G1 F1200 X6.89 Y-5.41 E34.81408
G0 F3600 X7.71 Y-5.45
G1 F1200 X12.90 Y-0.25 E35.36431
G0 F3600 X12.98 Y-1.02
G1 F1200 X8.52 Y-5.48 E35.83601
G0 F3600 X9.35 Y-5.50
G1 F1200 X12.98 Y-1.87 E36.21976
G0 F3600 X12.98 Y-2.72
G1 F1200 X10.21 Y-5.49 E36.51271
G0 F3600 X11.06 Y-5.49
G1 F1200 X12.97 Y-3.57 E36.71559
G0 F3600 X12.97 Y-4.42
G1 F1200 X11.91 Y-5.48 E36.82740
G0 F3600 X11.91 Y-5.29
G0 X5.35 Y4.70
G0 X5.17 Y4.74
G1 F1200 X5.73 Y5.31 E36.88720
G0 F3600 X5.74 Y5.13
G0 X6.30 Y3.92
G1 F2400 E32.38720
G0 F3600 X-6.14 Y2.51
;TYPE:WALL-OUTER
G1 F2400 E36.88720
G1 F1200 X-6.26 Y3.53 E36.96361
G1 X-6.33 Y3.79 E36.98383
G1 X-6.44 Y4.03 E37.00359
G1 X-6.58 Y4.23 E37.02191
G1 X-7.58 Y5.08 E37.11981
G1 X-7.93 Y5.29 E37.15047
G1 X-8.31 Y5.46 E37.18225
G1 X-8.71 Y5.60 E37.21354
G1 X-9.06 Y5.68 E37.24063
G1 X-9.43 Y5.71 E37.26796
G1 X-9.82 Y5.69 E37.29726
G1 X-10.20 Y5.62 E37.32605
G1 X-11.09 Y5.40 E37.39488
G1 X-11.50 Y5.25 E37.42740
G1 X-11.86 Y5.07 E37.45782
G1 X-12.30 Y4.71 E37.50011
G1 X-12.63 Y4.31 E37.53877
G1 X-12.91 Y3.78 E37.58372
G1 X-13.10 Y3.22 E37.62812
G1 X-13.21 Y2.66 E37.67057
G1 X-13.23 Y2.08 E37.71423
G1 X-13.17 Y1.49 E37.75875
G1 X-13.04 Y0.91 E37.80321
G1 X-12.83 Y0.35 E37.84808
G1 X-12.52 Y-0.11 E37.88897
G1 X-12.11 Y-0.45 E37.92942
G1 X-11.54 Y-0.67 E37.97466
G1 X-11.09 Y-0.73 E38.00870
G1 X-10.91 Y-0.78 E38.02272
G1 X-10.75 Y-0.93 E38.03901
G1 X-10.67 Y-1.11 E38.05372
G1 X-10.65 Y-1.27 E38.06607
G1 X-10.68 Y-5.20 E38.35987
G1 X-10.65 Y-5.68 E38.39608
G1 X-8.29 Y-5.68 E38.57224
G1 X-8.30 Y-5.44 E38.58998
G1 X-8.29 Y-5.31 E38.60009
G1 X-9.09 Y-5.25 E38.66034
G1 X-9.09 Y-3.91 E38.76032
G1 X-8.33 Y-3.92 E38.81764
G1 X-8.29 Y-3.92 E38.82072
G1 X-8.28 Y-3.44 E38.85634
G1 X-9.16 Y-3.44 E38.92205
G1 X-9.16 Y-0.90 E39.11228
G1 X-8.25 Y-0.77 E39.18112
G1 X-8.02 Y-0.69 E39.19919
G1 X-7.72 Y-0.46 E39.22765
G1 X-7.55 Y-0.40 E39.24072
G1 X-7.41 Y-0.33 E39.25257
G1 X-7.32 Y-0.26 E39.26107
G1 X-6.42 Y0.96 E39.37488
G1 X-6.32 Y1.15 E39.39123
G1 X-6.23 Y1.36 E39.40756
G1 X-6.16 Y1.57 E39.42408
G1 X-6.14 Y1.76 E39.43885
G1 X-6.12 Y2.13 E39.46662
G1 X-6.14 Y2.51 E39.49516
G0 F3600 X-7.39 Y2.51
G1 F1200 X-7.37 Y1.97 E39.53555
G1 X-7.41 Y1.61 E39.56300
G1 X-7.49 Y1.28 E39.58825
G1 X-7.60 Y0.96 E39.61355
G1 X-7.75 Y0.65 E39.63900
G1 X-7.90 Y0.40 E39.66088
G1 X-8.07 Y0.19 E39.68169
G1 X-8.30 Y-0.01 E39.70455
G1 X-8.55 Y-0.17 E39.72642
G1 X-8.94 Y-0.33 E39.75832
G1 X-9.35 Y-0.40 E39.78946
G1 X-9.79 Y-0.39 E39.82179
G1 X-10.19 Y-0.31 E39.85264
G1 X-10.88 Y0.00 E39.90898
G1 X-11.42 Y0.46 E39.96216
G1 X-11.81 Y1.04 E40.01465
G1 X-12.09 Y1.72 E40.06962
G1 X-12.12 Y1.89 E40.08238
G1 X-12.13 Y2.63 E40.13784
G1 X-12.07 Y2.99 E40.16509
G1 X-11.83 Y3.61 E40.21497
G1 X-11.68 Y3.87 E40.23752
G1 X-11.06 Y4.59 E40.30839
G1 X-10.71 Y4.94 E40.34559
G1 X-10.56 Y5.02 E40.35799
G1 X-10.45 Y5.04 E40.36638
G1 X-9.86 Y5.04 E40.41038
G1 X-9.30 Y4.97 E40.45307
G1 X-8.74 Y4.77 E40.49750
G1 X-8.22 Y4.41 E40.54459
G1 X-8.03 Y4.19 E40.56680
G1 X-7.93 Y4.04 E40.57967
G1 X-7.53 Y3.01 E40.66243
G1 X-7.39 Y2.51 E40.70117
G0 F3600 X-7.19 Y2.57
;TYPE:FILL
G1 F1200 X-6.55 Y3.64 E40.77996
G1 X-7.50 Y3.53 E40.85798
G1 X-7.31 Y4.57 E40.91562
G1 X-8.15 Y4.58 E40.95601
G1 X-8.34 Y5.23 E40.99137
G1 X-9.15 Y5.28 E41.02196
G1 X-9.63 Y5.22 E41.05829
G1 F2400 E36.55829
G0 F3600 X-11.57 Y4.98
G1 F2400 E41.05829
G1 F1200 X-12.56 Y3.98 E41.16381
G0 F3600 X-12.03 Y3.66
G1 F1200 X-12.98 Y2.71 E41.26409
G0 F3600 X-12.34 Y2.51
G1 F1200 X-12.64 Y1.78 E41.33315
G1 X-12.76 Y0.81 E41.39416
G1 X-11.90 Y0.83 E41.45772
G1 X-12.05 Y-0.17 E41.51825
G1 X-11.09 Y-0.06 E41.56706
G1 X-10.84 Y-0.66 E41.59593
G1 X-10.26 Y-0.51 E41.64088
G0 F3600 X-9.52 Y-0.61
G1 F1200 X-10.44 Y-1.53 E41.73867
G0 F3600 X-10.45 Y-2.39
G1 F1200 X-9.37 Y-1.31 E41.85276
G0 F3600 X-9.37 Y-2.16
G1 F1200 X-10.45 Y-3.24 E41.96748
G0 F3600 X-10.46 Y-4.09
G1 F1200 X-9.37 Y-3.01 E42.08273
G0 F3600 X-9.30 Y-3.79
G1 F1200 X-10.46 Y-4.95 E42.20561
G0 F3600 X-10.13 Y-5.47
G1 F1200 X-9.30 Y-4.64 E42.29371
G1 F2400 E37.79371
G0 F3600 X-8.68 Y-0.62
G1 F2400 E42.29371
G1 F1200 X-8.36 Y-0.30 E42.32768
G0 F3600 X-7.64 Y0.42
G1 F1200 X-6.36 Y1.71 E42.46379
G0 F3600 X-7.18 Y1.73
G1 F1200 X-6.36 Y2.55 E42.55142
;LAYER:1
M106 S255
G0 F9000 X-6.12 Y2.11 Z0.55
;TYPE:WALL-OUTER
G1 F1620 X-6.22 Y3.25 E42.62286
G1 X-6.33 Y3.79 E42.65696
G1 X-6.43 Y4.01 E42.67235
G1 X-6.59 Y4.24 E42.69000
G1 X-7.56 Y5.06 E42.76883
G1 X-7.91 Y5.28 E42.79471
G1 X-8.29 Y5.46 E42.82091
G1 X-8.75 Y5.61 E42.85093
G1 X-9.06 Y5.68 E42.87100
G1 X-9.43 Y5.71 E42.89410
G1 X-9.84 Y5.69 E42.91958
G1 X-11.12 Y5.38 E43.00185
G1 X-11.48 Y5.26 E43.02560
G1 X-11.84 Y5.08 E43.05025
G1 X-12.28 Y4.73 E43.08562
G1 X-12.63 Y4.31 E43.11957
G1 X-12.90 Y3.81 E43.15537
G1 X-13.09 Y3.25 E43.19199
G1 X-13.21 Y2.66 E43.22940
G1 X-13.23 Y2.08 E43.26578
G1 X-13.17 Y1.49 E43.30288
G1 X-13.04 Y0.91 E43.33994
G1 X-12.83 Y0.35 E43.37732
G1 X-12.52 Y-0.11 E43.41140
G1 X-12.11 Y-0.45 E43.44511
G1 X-11.55 Y-0.67 E43.48233
G1 X-11.09 Y-0.73 E43.51135
G1 X-10.91 Y-0.78 E43.52284
G1 X-10.75 Y-0.93 E43.53641
G1 X-10.67 Y-1.11 E43.54867
G1 X-10.65 Y-1.27 E43.55896
G1 X-10.68 Y-5.20 E43.80380
G1 X-10.65 Y-5.68 E43.83397
G1 X-8.29 Y-5.68 E43.98077
G1 X-8.30 Y-5.44 E43.99555
G1 X-8.29 Y-5.31 E44.00398
G1 X-9.09 Y-5.25 E44.05419
G1 X-9.09 Y-3.91 E44.13750
G1 X-8.33 Y-3.92 E44.18527
G1 X-8.29 Y-3.92 E44.18784
G1 X-8.28 Y-3.44 E44.21752
G1 X-9.16 Y-3.44 E44.27228
G1 X-9.16 Y-0.89 E44.43130
G1 X-8.52 Y-0.82 E44.47126
G1 X-8.26 Y-0.77 E44.48817
G1 X-8.02 Y-0.69 E44.50370
G1 X-7.72 Y-0.46 E44.52742
G1 X-7.55 Y-0.40 E44.53831
G1 X-7.41 Y-0.33 E44.54818
G1 X-7.32 Y-0.26 E44.55527
G1 X-6.63 Y0.65 E44.62674
G1 X-6.31 Y1.16 E44.66395
G1 X-6.23 Y1.36 E44.67736
G1 X-6.16 Y1.57 E44.69113
G1 X-6.14 Y1.76 E44.70344
G1 X-6.12 Y2.11 E44.72521
G0 F9000 X-7.37 Y1.98
G1 F1620 X-7.41 Y1.62 E44.74776
G1 X-7.61 Y0.94 E44.79145
G1 X-7.76 Y0.64 E44.81273
G1 X-7.89 Y0.41 E44.82903
G1 X-8.10 Y0.16 E44.84926
G1 X-8.32 Y-0.03 E44.86744
G1 X-8.55 Y-0.17 E44.88421
G1 X-8.94 Y-0.33 E44.91080
G1 X-9.36 Y-0.40 E44.93686
G1 X-9.82 Y-0.38 E44.96570
G1 X-10.19 Y-0.31 E44.98937
G1 X-10.88 Y0.00 E45.03632
G1 X-11.42 Y0.46 E45.08064
G1 X-11.81 Y1.04 E45.12438
G1 X-12.09 Y1.72 E45.16982
G1 X-12.12 Y1.89 E45.18077
G1 X-12.13 Y2.63 E45.22705
G1 X-12.07 Y2.99 E45.24975
G1 X-11.83 Y3.61 E45.29132
G1 X-11.68 Y3.87 E45.31011
G1 X-11.06 Y4.59 E45.36917
G1 X-10.71 Y4.94 E45.40017
G1 X-10.56 Y5.02 E45.41050
G1 X-10.45 Y5.04 E45.41750
G1 X-9.86 Y5.04 E45.45417
G1 X-9.30 Y4.97 E45.48974
G1 X-8.74 Y4.77 E45.52676
G1 X-8.22 Y4.41 E45.56600
G1 X-8.03 Y4.19 E45.58452
G1 X-7.93 Y4.04 E45.59524
G1 X-7.53 Y3.01 E45.66420
G1 X-7.39 Y2.51 E45.69649
G1 X-7.37 Y1.98 E45.73008
G0 F9000 X-7.19 Y1.67
;TYPE:FILL
G1 F1620 X-6.77 Y0.83 E45.78179
G1 X-7.50 Y0.72 E45.81947
G1 X-7.55 Y-0.08 E45.84830
G1 X-8.27 Y-0.21 E45.86752
G1 X-8.33 Y-0.57 E45.89043
G0 F9000 X-9.37 Y-1.24
G1 F1620 X-10.06 Y-0.55 E45.95098
G0 F9000 X-10.51 Y-0.95
G1 F1620 X-9.37 Y-2.09 E46.05135
G0 F9000 X-9.37 Y-2.93
G1 F1620 X-10.44 Y-1.86 E46.14607
G0 F9000 X-10.45 Y-2.70
G1 F1620 X-9.30 Y-3.85 E46.24705
G0 F9000 X-9.30 Y-4.70
G1 F1620 X-10.45 Y-3.55 E46.34852
G0 F9000 X-10.46 Y-4.39
G1 F1620 X-9.38 Y-5.47 E46.44363
G0 F9000 X-10.23 Y-5.47
G1 F1620 X-10.46 Y-5.24 E46.46418
G1 F2400 E41.96418
G0 F9000 X-10.88 Y-0.57
G1 F2400 E46.46418
G1 F1620 X-12.95 Y1.50 E46.64697
G0 F9000 X-12.30 Y1.69
G1 F1620 X-12.67 Y2.49 E46.70960
G1 X-12.79 Y3.45 E46.75865
G1 X-12.05 Y3.57 E46.80233
G1 X-12.15 Y4.52 E46.84087
G1 X-11.35 Y4.57 E46.87544
G1 X-11.42 Y5.05 E46.90620
G0 F9000 X-10.08 Y5.41
G1 F1620 X-9.61 Y5.37 E46.92070
G1 X-8.85 Y5.03 E46.97233
G0 F9000 X-8.11 Y5.14
G1 F1620 X-6.49 Y3.52 E47.11582
G0 F9000 X-6.37 Y2.55
G1 F1620 X-7.61 Y3.79 E47.22483
G0 F9000 X-7.18 Y2.52
G1 F1620 X-6.36 Y1.69 E47.29750
G1 F2400 E42.79750
G0 F9000 X-12.22 Y-0.08
G1 F2400 E47.29750
G1 F1620 X-12.41 Y0.11 E47.31430
G0 F9000 X-4.65 Y-5.66
;TYPE:WALL-OUTER
G1 F1620 X0.97 Y-5.70 E47.66485
G1 X2.60 Y-5.68 E47.76657
G1 X2.74 Y-5.66 E47.77541
G1 X2.73 Y-5.58 E47.78072
G1 X2.76 Y-5.29 E47.79892
G1 X2.75 Y-5.16 E47.80699
G1 X2.32 Y-3.84 E47.89386
G1 X0.75 Y2.42 E48.29580
G1 X0.68 Y3.09 E48.33829
G1 X0.64 Y5.69 E48.50033
G1 X-2.48 Y5.69 E48.69509
G1 X-2.51 Y3.69 E48.82019
G1 X-2.60 Y2.80 E48.87593
G1 X-2.76 Y1.92 E48.93179
G1 X-4.65 Y-5.66 E49.41873
G0 F9000 X-4.20 Y-4.71
;TYPE:FILL
G1 F1620 X-3.45 Y-5.46 E49.48435
G0 F9000 X-2.60 Y-5.46
G1 F1620 X-4.03 Y-4.03 E49.61029
G0 F9000 X-3.86 Y-3.35
G1 F1620 X-1.75 Y-5.47 E49.79669
G0 F9000 X-0.89 Y-5.47
G1 F1620 X-3.69 Y-2.67 E50.04350
G0 F9000 X-3.52 Y-2.00
G1 F1620 X-0.04 Y-5.48 E50.35064
G0 F9000 X0.82 Y-5.48
