;Generated with Cura_SteamEngine 13.12
M140 S100.000000
M109 T0 S230.000000
T0
M190 S100.000000

M136 (enable build)
M73 P0
G162 X Y F2000(home XY axes maximum)
G161 Z F900(home Z axis minimum)
G92 X0 Y0 Z-5 A0 B0 (set Z to -5)
G1 Z0.0 F9000(move Z to '0')
G161 Z F100(home Z axis minimum)
M132 X Y Z A B (Recall stored home offsets for XYZAB axis)
G92 X152 Y72 Z0 A0 B0
G1 X-100 Y-74 Z40 F9000 (move to waiting position)
G130 X20 Y20 A20 B20 (Lower stepper Vrefs while heating)
M135 T0
M104 S220 T0
M133 T0
G130 X127 Y127 A127 B127 (Set Stepper motor Vref to defaults)
; Sliced ?filename? at: Sat 21-06-2014 16:19:52
; Basic settings: Layer height: 0.25 Walls: 0.6 Fill: 30
; Print time: #P_TIME#
; Filament used: #F_AMNT#m #F_WGHT#g
; Filament cost: #F_COST#
M73 P0;
; -- end of START GCODE --

;Layer count: 12
;LAYER:0
M107
G0 F3600 X-29.30 Y-3.34 Z0.30
;TYPE:SKIRT
G1 F2400 E0.00000
G1 F1200 X-29.31 Y-5.22 E0.14069
G1 X-29.30 Y-5.56 E0.16636
G1 X-29.17 Y-7.16 E0.28689
G1 X-29.85 Y-7.69 E0.35124
G1 X-30.68 Y-8.71 E0.44990
G1 X-31.26 Y-9.82 E0.54372
G1 X-31.62 Y-10.88 E0.62745
G1 X-31.83 Y-11.95 E0.70837
G1 X-31.87 Y-13.05 E0.79119
G1 X-31.76 Y-14.10 E0.87001
G1 X-31.53 Y-15.15 E0.95035
G1 X-31.08 Y-16.34 E1.04562
G1 X-30.25 Y-17.57 E1.15695
G1 X-29.30 Y-18.36 E1.24920
G1 X-29.31 Y-20.24 E1.38989
G1 X-29.30 Y-20.58 E1.41556
G1 X-29.17 Y-22.18 E1.53616
G1 X-29.85 Y-22.71 E1.60051
G1 X-30.68 Y-23.73 E1.69901
G1 X-31.26 Y-24.84 E1.79293
G1 X-31.62 Y-25.90 E1.87666
G1 X-31.83 Y-26.97 E1.95758
G1 X-31.87 Y-28.07 E2.04040
G1 X-31.76 Y-29.12 E2.11922
G1 X-31.53 Y-30.17 E2.19949
G1 X-31.08 Y-31.36 E2.29480
G1 X-30.25 Y-32.60 E2.40634
G1 X-29.30 Y-33.38 E2.49843
G1 X-29.31 Y-35.26 E2.63913
G1 X-29.30 Y-35.60 E2.66480
G1 X-28.99 Y-39.32 E2.94413
G1 X-19.70 Y-39.32 E3.63935
G1 X-19.70 Y-39.30 E3.64077
G1 X-14.06 Y-39.34 E4.06323
G1 X-12.14 Y-39.32 E4.20699
G1 X-10.60 Y-39.08 E4.32343
G1 X-9.06 Y-39.23 E4.43959
G1 X-6.88 Y-39.33 E4.60290
G1 X-5.98 Y-39.35 E4.66982
G1 X-4.36 Y-39.34 E4.79113
G1 X-3.51 Y-39.35 E4.85519
G1 X-2.10 Y-39.30 E4.96055
G1 X-0.33 Y-38.49 E5.10624
G1 X0.90 Y-37.24 E5.23695
G1 X1.07 Y-39.32 E5.39283
G1 X10.36 Y-39.32 E6.08850
G1 X10.36 Y-39.30 E6.08985
G1 X16.00 Y-39.34 E6.51185
G1 X17.92 Y-39.32 E6.65554
G1 X19.46 Y-39.08 E6.77198
G1 X21.00 Y-39.23 E6.88822
G1 X23.18 Y-39.33 E7.05152
G1 X24.08 Y-39.35 E7.11844
G1 X25.70 Y-39.34 E7.23975
G1 X26.56 Y-39.35 E7.30382
G1 X27.96 Y-39.30 E7.40918
G1 X29.74 Y-38.49 E7.55486
G1 X31.13 Y-37.07 E7.70377
G1 X31.81 Y-35.23 E7.85091
G1 X31.82 Y-30.08 E8.23594
G1 X31.75 Y-29.83 E8.25563
G1 X31.76 Y-29.58 E8.27443
G1 X31.75 Y-29.23 E8.30048
G1 X31.76 Y-28.42 E8.36103
G1 X31.74 Y-27.61 E8.42129
G1 X31.75 Y-27.04 E8.46409
G1 X31.82 Y-26.37 E8.51487
G1 X31.88 Y-25.45 E8.58366
G1 X31.67 Y-24.09 E8.68649
G1 X30.90 Y-22.53 E8.81658
G1 X30.76 Y-22.42 E8.82990
G1 X31.13 Y-22.05 E8.86949
G1 X31.81 Y-20.21 E9.01642
G1 X31.82 Y-15.06 E9.40152
G1 X31.75 Y-14.81 E9.42121
G1 X31.76 Y-14.56 E9.44001
G1 X31.75 Y-14.21 E9.46606
G1 X31.76 Y-13.40 E9.52660
G1 X31.74 Y-12.60 E9.58687
G1 X31.75 Y-12.02 E9.62967
G1 X31.82 Y-11.35 E9.68052
G1 X31.88 Y-10.43 E9.74924
G1 X31.67 Y-9.07 E9.85207
G1 X30.90 Y-7.51 E9.98216
G1 X30.76 Y-7.41 E9.99548
G1 X31.13 Y-7.03 E10.03507
G1 X31.81 Y-5.19 E10.18200
G1 X31.82 Y-0.04 E10.56710
G1 X31.75 Y0.21 E10.58678
G1 X31.76 Y0.46 E10.60551
G1 X31.75 Y0.81 E10.63156
G1 X31.76 Y1.62 E10.69211
G1 X31.74 Y2.42 E10.75245
G1 X31.75 Y3.00 E10.79518
G1 X31.82 Y3.67 E10.84603
G1 X31.88 Y4.59 E10.91474
G1 X31.67 Y5.95 E11.01757
G1 X30.90 Y7.50 E11.14766
G1 X30.76 Y7.61 E11.16099
G1 X31.13 Y7.99 E11.20057
G1 X31.81 Y9.83 E11.34750
G1 X31.82 Y14.98 E11.73260
G1 X31.75 Y15.23 E11.75229
G1 X31.76 Y15.48 E11.77109
G1 X31.75 Y15.83 E11.79714
G1 X31.76 Y16.64 E11.85769
G1 X31.74 Y17.44 E11.91802
G1 X31.75 Y18.02 E11.96075
G1 X31.82 Y18.69 E12.01161
G1 X31.88 Y19.61 E12.08032
G1 X31.67 Y20.97 E12.18315
G1 X30.90 Y22.52 E12.31324
G1 X30.76 Y22.63 E12.32656
G1 X31.13 Y23.01 E12.36615
G1 X31.81 Y24.85 E12.51308
G1 X31.82 Y30.00 E12.89818
G1 X31.75 Y30.25 E12.91787
G1 X31.76 Y30.50 E12.93667
G1 X31.75 Y30.85 E12.96272
G1 X31.76 Y31.66 E13.02334
G1 X31.74 Y32.47 E13.08360
G1 X31.75 Y33.04 E13.12641
G1 X31.82 Y33.71 E13.17711
G1 X31.88 Y34.63 E13.24590
G1 X31.67 Y35.99 E13.34873
G1 X30.90 Y37.54 E13.47882
G1 X29.64 Y38.53 E13.59863
G1 X28.45 Y39.10 E13.69737
G1 X27.31 Y39.22 E13.78277
G1 X26.64 Y39.21 E13.83292
G1 X26.25 Y39.27 E13.86238
G1 X24.53 Y39.31 E13.99121
G1 X23.77 Y39.31 E14.04861
G1 X22.99 Y39.31 E14.10646
G1 X21.22 Y39.26 E14.23949
G1 X20.75 Y39.18 E14.27500
G1 X20.33 Y39.15 E14.30679
G1 X19.22 Y38.99 E14.39056
G1 X19.21 Y39.33 E14.41631
G1 X8.97 Y39.33 E15.18254
G1 X8.97 Y38.41 E15.25162
G1 X8.77 Y38.53 E15.26857
G1 X8.03 Y38.86 E15.32973
G1 X7.28 Y39.11 E15.38887
G1 X6.52 Y39.28 E15.44715
G1 X5.66 Y39.36 E15.51130
G1 X4.80 Y39.31 E15.57604
G1 X4.07 Y39.18 E15.63174
G1 X2.89 Y38.88 E15.72258
G1 X2.12 Y38.61 E15.78414
G1 X1.25 Y38.18 E15.85633
G1 X0.64 Y37.70 E15.91455
G1 X-0.42 Y38.53 E16.01570
G1 X-1.61 Y39.10 E16.11438
G1 X-2.75 Y39.22 E16.19978
G1 X-3.42 Y39.21 E16.24992
G1 X-3.81 Y39.27 E16.27946
G1 X-5.53 Y39.31 E16.40829
G1 X-6.30 Y39.31 E16.46569
G1 X-7.07 Y39.31 E16.52347
G1 X-8.85 Y39.26 E16.65657
G1 X-9.31 Y39.18 E16.69208
G1 X-9.74 Y39.15 E16.72387
G1 X-10.84 Y38.99 E16.80764
G1 X-10.85 Y39.33 E16.83339
G1 X-21.08 Y39.33 E17.59948
G1 X-21.09 Y38.41 E17.66863
G1 X-21.29 Y38.53 E17.68562
G1 X-22.03 Y38.86 E17.74692
G1 X-22.78 Y39.11 E17.80589
G1 X-23.54 Y39.28 E17.86426
G1 X-24.40 Y39.36 E17.92840
G1 X-25.26 Y39.31 E17.99322
G1 X-25.99 Y39.18 E18.04891
G1 X-27.17 Y38.88 E18.13983
G1 X-27.94 Y38.61 E18.20125
G1 X-28.81 Y38.18 E18.27334
G1 X-29.85 Y37.36 E18.37223
G1 X-30.68 Y36.35 E18.47062
G1 X-31.26 Y35.24 E18.56438
G1 X-31.62 Y34.18 E18.64820
G1 X-31.83 Y33.11 E18.72919
G1 X-31.87 Y32.01 E18.81187
G1 X-31.76 Y30.96 E18.89083
G1 X-31.53 Y29.91 E18.97117
G1 X-31.08 Y28.72 E19.06644
G1 X-30.25 Y27.49 E19.17778
G1 X-29.30 Y26.70 E19.27002
G1 X-29.31 Y24.82 E19.41064
G1 X-29.30 Y24.48 E19.43631
G1 X-29.17 Y22.88 E19.55690
G1 X-29.85 Y22.34 E19.62135
G1 X-30.68 Y21.33 E19.71974
G1 X-31.26 Y20.22 E19.81360
G1 X-31.62 Y19.15 E19.89747
G1 X-31.83 Y18.09 E19.97831
G1 X-31.87 Y16.99 E20.06099
G1 X-31.76 Y15.94 E20.13995
G1 X-31.53 Y14.89 E20.22029
G1 X-31.08 Y13.70 E20.31556
G1 X-30.25 Y12.47 E20.42689
G1 X-29.30 Y11.68 E20.51914
G1 X-29.31 Y9.80 E20.65983
G1 X-29.30 Y9.46 E20.68550
G1 X-29.17 Y7.86 E20.80603
G1 X-29.85 Y7.33 E20.87038
G1 X-30.68 Y6.30 E20.96904
G1 X-31.26 Y5.19 E21.06286
G1 X-31.62 Y4.14 E21.14659
G1 X-31.83 Y3.07 E21.22751
G1 X-31.87 Y1.97 E21.31018
G1 X-31.76 Y0.92 E21.38915
G1 X-31.53 Y-0.13 E21.46949
G1 X-31.08 Y-1.32 E21.56490
G1 X-30.25 Y-2.55 E21.67615
G1 X-29.30 Y-3.34 E21.76829
G1 F2400 E17.26829
G0 F3600 X-10.28 Y-3.36
;TYPE:WALL-OUTER
G1 F2400 E21.76829
G1 F1200 X-10.23 Y-4.03 E21.81818
G1 X-10.04 Y-4.64 E21.86626
G1 X-9.74 Y-5.20 E21.91374
G1 X-9.57 Y-5.41 E21.93432
G1 X-9.39 Y-5.54 E21.95050
G1 X-6.75 Y-5.69 E22.14861
G1 X-5.95 Y-5.71 E22.20820
G1 X-4.35 Y-5.70 E22.32854
G1 X-3.55 Y-5.71 E22.38818
G1 X-2.94 Y-5.68 E22.43401
G1 X-2.43 Y-5.45 E22.47578
G1 X-2.04 Y-5.06 E22.51732
G1 X-1.85 Y-4.53 E22.55892
G1 X-1.84 Y-0.54 E22.85797
G1 X-1.91 Y-0.28 E22.87845
G1 X-1.92 Y0.11 E22.90756
G1 X-1.90 Y0.51 E22.93730
G1 X-1.91 Y0.81 E22.95968
G1 X-1.90 Y1.59 E23.01813
G1 X-1.92 Y2.38 E23.07757
G1 X-1.91 Y3.19 E23.13767
G1 X-1.83 Y3.97 E23.19687
G1 X-1.80 Y4.43 E23.23146
G1 X-1.87 Y4.84 E23.26251
G1 X-2.03 Y5.18 E23.29015
G1 X-2.34 Y5.42 E23.31947
G1 X-2.61 Y5.55 E23.34179
G1 X-2.90 Y5.58 E23.36377
G1 X-3.66 Y5.56 E23.42110
G1 X-4.13 Y5.64 E23.45618
G1 X-5.56 Y5.67 E23.56315
G1 X-6.30 Y5.66 E23.61846
G1 X-7.03 Y5.67 E23.67369
G1 X-8.48 Y5.63 E23.78164
G1 X-8.88 Y5.56 E23.81238
G1 X-9.70 Y5.48 E23.87411
G1 X-9.93 Y5.35 E23.89393
G1 X-10.24 Y4.06 E23.99354
G1 X-10.31 Y3.63 E24.02572
G1 X-10.34 Y2.26 E24.12836
G1 X-10.28 Y-3.36 E24.54918
G0 F3600 X-10.05 Y-3.68
;TYPE:FILL
G1 F1200 X-2.02 Y4.35 E25.39875
G0 F3600 X-2.19 Y5.02
G1 F1200 X-10.08 Y-2.87 E26.23393
G0 F3600 X-10.09 Y-2.03
G1 F1200 X-2.71 Y5.35 E27.01429
G0 F3600 X-3.55 Y5.36
G1 F1200 X-10.10 Y-1.19 E27.70671
G0 F3600 X-10.10 Y-0.35
G1 F1200 X-4.33 Y5.43 E28.31816
G0 F3600 X-5.15 Y5.45
G1 F1200 X-10.11 Y0.49 E28.84304
G0 F3600 X-10.12 Y1.33
G1 F1200 X-6.00 Y5.46 E29.27970
G0 F3600 X-6.84 Y5.46
G1 F1200 X-10.13 Y2.17 E29.62758
G0 F3600 X-10.11 Y3.04
G1 F1200 X-7.71 Y5.44 E29.88190
G0 F3600 X-8.60 Y5.40
G1 F1200 X-10.04 Y3.96 E30.03408
G0 F3600 X-9.78 Y5.06
G1 F1200 X-9.57 Y5.28 E30.05694
G0 F3600 X-9.54 Y5.10
G0 X-2.29 Y3.43
G0 X-2.10 Y3.41
G1 F1200 X-9.90 Y-4.38 E30.88212
G0 F3600 X-9.63 Y-4.96
G1 F1200 X-2.13 Y2.54 E31.67592
G0 F3600 X-2.11 Y1.71
G1 F1200 X-9.16 Y-5.34 E32.42242
G0 F3600 X-8.36 Y-5.39
G1 F1200 X-2.12 Y0.85 E33.08319
G0 F3600 X-2.12 Y-0.00
G1 F1200 X-7.56 Y-5.43 E33.65802
G0 F3600 X-6.75 Y-5.48
G1 F1200 X-2.05 Y-0.77 E34.15602
G0 F3600 X-2.05 Y-1.63
G1 F1200 X-5.92 Y-5.50 E34.56591
G0 F3600 X-5.07 Y-5.49
G1 F1200 X-2.05 Y-2.48 E34.88500
G0 F3600 X-2.05 Y-3.33
G1 F1200 X-4.21 Y-5.49 E35.11360
G0 F3600 X-3.37 Y-5.49
G1 F1200 X-2.06 Y-4.18 E35.25218
G0 F3600 X-3.35 Y-4.18
G1 F2400 E30.75218
G0 F3600 X2.51 Y-0.11
;TYPE:WALL-OUTER
G1 F2400 E35.25218
G1 F1200 X2.92 Y-0.45 E35.29264
G1 X3.49 Y-0.67 E35.33780
G1 X3.94 Y-0.73 E35.37193
G1 X4.12 Y-0.78 E35.38595
G1 X4.28 Y-0.93 E35.40223
G1 X4.36 Y-1.11 E35.41711
G1 X4.38 Y-1.27 E35.42936
G1 X4.35 Y-5.20 E35.72310
G1 X4.38 Y-5.68 E35.75931
G1 X6.74 Y-5.68 E35.93547
G1 X6.73 Y-5.44 E35.95320
G1 X6.74 Y-5.31 E35.96331
G1 X5.94 Y-5.25 E36.02356
G1 X5.94 Y-3.91 E36.12354
G1 X6.70 Y-3.92 E36.18087
G1 X6.74 Y-3.92 E36.18387
G1 X6.75 Y-3.44 E36.21950
G1 X5.87 Y-3.44 E36.28520
G1 X5.87 Y-0.89 E36.47603
G1 X6.51 Y-0.82 E36.52398
G1 X6.77 Y-0.77 E36.54427
G1 X7.01 Y-0.69 E36.56291
G1 X7.31 Y-0.46 E36.59137
G1 X7.47 Y-0.40 E36.60411
G1 X7.70 Y-0.27 E36.62377
G1 X8.40 Y0.65 E36.71055
G1 X8.72 Y1.16 E36.75520
G1 X8.80 Y1.36 E36.77130
G1 X8.86 Y1.57 E36.78782
G1 X8.90 Y1.76 E36.80259
G1 X8.90 Y2.13 E36.83058
G1 X8.81 Y3.23 E36.91295
G1 X8.69 Y3.80 E36.95636
G1 X8.59 Y4.03 E36.97572
G1 X8.45 Y4.23 E36.99361
G1 X8.31 Y4.37 E37.00806
G1 X7.47 Y5.06 E37.08964
G1 X7.10 Y5.29 E37.12261
G1 X6.70 Y5.47 E37.15480
G1 X6.31 Y5.60 E37.18575
G1 X5.97 Y5.68 E37.21229
G1 X5.60 Y5.71 E37.23963
G1 X5.20 Y5.69 E37.26990
G1 X4.84 Y5.62 E37.29719
G1 X3.93 Y5.39 E37.36758
G1 X3.53 Y5.25 E37.39946
G1 X3.19 Y5.08 E37.42754
G1 X2.75 Y4.73 E37.46987
G1 X2.40 Y4.31 E37.51055
G1 X2.12 Y3.77 E37.55634
G1 X1.93 Y3.21 E37.60048
G1 X1.82 Y2.66 E37.64230
G1 X1.80 Y2.08 E37.68596
G1 X1.86 Y1.49 E37.73049
G1 X1.99 Y0.91 E37.77495
G1 X2.20 Y0.35 E37.81981
G1 X2.51 Y-0.11 E37.86070
G0 F3600 X3.61 Y0.46
G1 F1200 X3.22 Y1.04 E37.91315
G1 X2.94 Y1.72 E37.96780
G1 X2.91 Y1.89 E37.98100
G1 X2.90 Y2.63 E38.03639
G1 X2.96 Y2.99 E38.06364
G1 X3.20 Y3.62 E38.11438
G1 X3.35 Y3.87 E38.13555
G1 X3.97 Y4.59 E38.20712
G1 X4.32 Y4.94 E38.24411
G1 X4.47 Y5.02 E38.25644
G1 X4.58 Y5.04 E38.26484
G1 X5.17 Y5.04 E38.30892
G1 X5.73 Y4.97 E38.35161
G1 X6.29 Y4.77 E38.39603
G1 X6.81 Y4.41 E38.44312
G1 X7.00 Y4.19 E38.46534
G1 X7.10 Y4.04 E38.47820
G1 X7.50 Y3.01 E38.56093
G1 X7.64 Y2.51 E38.59967
G1 X7.66 Y1.98 E38.63999
G1 X7.61 Y1.60 E38.66851
G1 X7.43 Y0.96 E38.71783
G1 X7.28 Y0.65 E38.74378
G1 X7.13 Y0.40 E38.76584
G1 X6.95 Y0.18 E38.78722
G1 X6.74 Y-0.01 E38.80815
G1 X6.46 Y-0.18 E38.83284
G1 X6.09 Y-0.33 E38.86273
G1 X5.68 Y-0.40 E38.89394
G1 X5.24 Y-0.39 E38.92673
G1 X4.84 Y-0.31 E38.95712
G1 X4.15 Y0.00 E39.01339
G1 X3.61 Y0.46 E39.06657
G0 F3600 X3.39 Y0.42
;TYPE:FILL
G1 F1200 X2.65 Y0.11 E39.12339
G1 X2.92 Y1.22 E39.18538
G1 X2.13 Y1.28 E39.24780
G1 X2.36 Y2.36 E39.31508
G1 X2.84 Y3.27 E39.39228
G0 F3600 X2.26 Y3.53
G1 F1200 X3.88 Y5.15 E39.56331
G0 F3600 X4.85 Y5.28
G1 F1200 X5.32 Y5.32 E39.58067
G1 X6.09 Y5.24 E39.61030
G1 X6.85 Y5.16 E39.64099
G1 X7.01 Y4.46 E39.67743
G1 X7.86 Y4.47 E39.72120
G1 X7.59 Y3.35 E39.78676
G1 X8.54 Y3.45 E39.86632
G1 X7.85 Y2.34 E39.96387
G0 F3600 X8.68 Y2.32
G1 F1200 X7.78 Y1.41 E40.05912
G0 F3600 X8.57 Y1.36
G1 F1200 X6.62 Y-0.59 E40.26528
G0 F3600 X5.66 Y-0.70
G1 F1200 X4.58 Y-1.78 E40.37916
G0 F3600 X4.53 Y-0.98
G1 F1200 X4.66 Y-0.43 E40.42482
G1 X3.96 Y-0.28 E40.45042
G1 X3.40 Y-0.41 E40.49353
G1 F2400 E35.99353
G0 F3600 X4.58 Y-2.63
G1 F2400 E40.49353
G1 F1200 X5.66 Y-1.55 E40.60793
G0 F3600 X5.66 Y-2.40
G1 F1200 X4.57 Y-3.49 E40.72287
G0 F3600 X4.57 Y-4.34
G1 F1200 X5.66 Y-3.25 E40.83833
G0 F3600 X5.72 Y-4.03
G1 F1200 X4.56 Y-5.19 E40.96131
G0 F3600 X5.14 Y-5.47
G1 F1200 X5.72 Y-4.88 E41.02333
G1 F2400 E36.52333
G0 F3600 X6.74 Y9.34
;TYPE:WALL-OUTER
G1 F2400 E41.02333
G1 F1200 X6.73 Y9.58 E41.04106
G1 X6.74 Y9.71 E41.05117
G1 X5.94 Y9.77 E41.11142
G1 X5.94 Y11.11 E41.21140
G1 X6.70 Y11.10 E41.26873
G1 X6.74 Y11.10 E41.27173
G1 X6.75 Y11.58 E41.30735
G1 X5.87 Y11.58 E41.37306
G1 X5.87 Y14.12 E41.56329
G1 X6.78 Y14.25 E41.63236
G1 X7.01 Y14.33 E41.65012
G1 X7.31 Y14.56 E41.67865
G1 X7.47 Y14.62 E41.69138
G1 X7.70 Y14.74 E41.71104
G1 X8.40 Y15.67 E41.79788
G1 X8.72 Y16.18 E41.84254
G1 X8.80 Y16.38 E41.85863
G1 X8.86 Y16.59 E41.87515
G1 X8.90 Y16.78 E41.88992
G1 X8.90 Y17.16 E41.91792
G1 X8.81 Y18.25 E42.00029
G1 X8.69 Y18.82 E42.04369
G1 X8.59 Y19.05 E42.06288
G1 X8.45 Y19.25 E42.08057
G1 X7.80 Y19.83 E42.14620
G1 X7.48 Y20.08 E42.17629
G1 X7.09 Y20.31 E42.21027
G1 X6.71 Y20.49 E42.24175
G1 X6.31 Y20.62 E42.27308
G1 X5.97 Y20.70 E42.29962
G1 X5.60 Y20.73 E42.32696
G1 X5.20 Y20.71 E42.35723
G1 X4.84 Y20.65 E42.38474
G1 X3.93 Y20.41 E42.45442
G1 X3.52 Y20.27 E42.48720
G1 X3.19 Y20.10 E42.51498
G1 X2.75 Y19.76 E42.55699
G1 X2.40 Y19.33 E42.59793
G1 X2.12 Y18.79 E42.64365
G1 X1.93 Y18.23 E42.68786
G1 X1.82 Y17.68 E42.72969
G1 X1.80 Y17.10 E42.77335
G1 X1.86 Y16.51 E42.81787
G1 X1.99 Y15.93 E42.86234
G1 X2.20 Y15.37 E42.90720
G1 X2.51 Y14.91 E42.94821
G1 X2.92 Y14.57 E42.98862
G1 X3.49 Y14.35 E43.03379
G1 X3.94 Y14.29 E43.06797
G1 X4.12 Y14.24 E43.08211
G1 X4.28 Y14.10 E43.09812
G1 X4.36 Y13.91 E43.11296
G1 X4.38 Y13.75 E43.12537
G1 X4.35 Y9.82 E43.41910
G1 X4.38 Y9.34 E43.45531
G1 X6.74 Y9.34 E43.63147
G0 F3600 X5.54 Y9.65
G0 X5.56 Y14.22
G0 X5.67 Y14.62
G1 F1200 X5.24 Y14.63 E43.66419
G1 X4.84 Y14.71 E43.69457
G1 X4.15 Y15.02 E43.75090
G1 X3.61 Y15.48 E43.80403
G1 X3.22 Y16.06 E43.85648
G1 X2.94 Y16.74 E43.91113
G1 X2.91 Y16.91 E43.92433
G1 X2.90 Y17.65 E43.97972
G1 X2.96 Y18.01 E44.00689
G1 X3.19 Y18.61 E44.05525
G1 X3.35 Y18.89 E44.07886
G1 X3.97 Y19.61 E44.15048
G1 X4.32 Y19.96 E44.18747
G1 X4.47 Y20.04 E44.19980
G1 X4.58 Y20.06 E44.20820
G1 X5.17 Y20.06 E44.25228
G1 X5.73 Y19.99 E44.29496
G1 X6.29 Y19.79 E44.33939
G1 X6.81 Y19.43 E44.38642
G1 X7.01 Y19.21 E44.40868
G1 X7.10 Y19.06 E44.42163
G1 X7.50 Y18.03 E44.50429
G1 X7.64 Y17.53 E44.54303
G1 X7.66 Y17.00 E44.58334
G1 X7.61 Y16.62 E44.61187
G1 X7.43 Y15.98 E44.66119
G1 X7.28 Y15.67 E44.68714
G1 X7.13 Y15.42 E44.70907
G1 X6.95 Y15.20 E44.73052
G1 X6.74 Y15.01 E44.75150
G1 X6.46 Y14.84 E44.77615
G1 X6.09 Y14.69 E44.80607
G1 X5.67 Y14.62 E44.83737
G0 F3600 X5.50 Y14.41
;TYPE:FILL
G1 F1200 X4.59 Y13.49 E44.93426
G0 F3600 X4.46 Y14.21
G1 F1200 X4.47 Y14.65 E44.96602
G1 X3.79 Y14.82 E44.99500
G1 X2.97 Y14.85 E45.04416
G1 X3.13 Y15.86 E45.10489
G1 X2.26 Y15.84 E45.16856
G1 X2.38 Y16.81 E45.22958
G1 X2.69 Y17.54 E45.28892
G0 F3600 X2.05 Y17.75
G1 F1200 X2.99 Y18.69 E45.38882
G0 F3600 X2.47 Y19.02
G1 F1200 X3.45 Y20.00 E45.49206
G1 F2400 E40.99206
G0 F3600 X5.39 Y20.24
G1 F2400 E45.49206
G1 F1200 X5.87 Y20.30 E45.52070
G1 X6.51 Y20.09 E45.55138
G1 X7.24 Y19.97 E45.58654
G1 X7.25 Y19.13 E45.62775
G1 X8.17 Y19.20 E45.68590
G1 X7.74 Y17.92 E45.76390
G1 X8.62 Y17.95 E45.84272
G1 X7.84 Y16.75 E45.94967
G0 F3600 X8.68 Y16.74
G1 F1200 X7.40 Y15.46 E46.08513
G0 F3600 X6.65 Y14.72
G1 F1200 X6.34 Y14.40 E46.11868
G0 F3600 X5.66 Y13.72
G1 F1200 X4.58 Y12.64 E46.23298
G0 F3600 X4.57 Y11.79
G1 F1200 X5.66 Y12.87 E46.34776
G0 F3600 X5.66 Y12.02
G1 F1200 X4.57 Y10.93 E46.46312
G0 F3600 X4.57 Y10.08
