;Generated with Cura_SteamEngine 13.12
M140 S100.000000
M109 T0 S230.000000
T0
M190 S100.000000

M136 (enable build)
M73 P0
G162 X Y F2000(home XY axes maximum)
G161 Z F900(home Z axis minimum)
G92 X0 Y0 Z-5 A0 B0 (set Z to -5)
G1 Z0.0 F9000(move Z to '0')
G161 Z F100(home Z axis minimum)
M132 X Y Z A B (Recall stored home offsets for XYZAB axis)
G92 X152 Y72 Z0 A0 B0
G1 X-100 Y-74 Z40 F9000 (move to waiting position)
G130 X20 Y20 A20 B20 (Lower stepper Vrefs while heating)
M135 T0
M104 S220 T0
M133 T0
G130 X127 Y127 A127 B127 (Set Stepper motor Vref to defaults)
; Sliced ?filename? at: Tue 24-06-2014 17:59:33
; Basic settings: Layer height: 0.25 Walls: 0.6 Fill: 30
; Print time: #P_TIME#
; Filament used: #F_AMNT#m #F_WGHT#g
; Filament cost: #F_COST#
M73 P0;
; -- end of START GCODE --

;Layer count: 100
;LAYER:0
M107
G0 F3600 X5.10 Y13.38 Z0.30
;TYPE:SKIRT
G1 F2400 E0.00000
G1 F1200 X5.10 Y14.90 E0.11345
G1 X-5.60 Y14.90 E0.91419
G1 X-5.60 Y13.30 E1.03392
G1 X-13.30 Y13.30 E1.61016
G1 X-13.30 Y5.70 E2.17890
G1 X-14.60 Y5.70 E2.27619
G1 X-14.60 Y2.96 E2.48146
G1 X-14.80 Y2.76 E2.50263
G1 X-14.80 Y-3.16 E2.94521
G1 X-14.60 Y-3.36 E2.96637
G1 X-14.60 Y-5.90 E3.15668
G1 X-13.30 Y-5.90 E3.25397
G1 X-13.30 Y-13.30 E3.80775
G1 X-6.00 Y-13.30 E4.35404
G1 X-6.00 Y-13.38 E4.36033
G1 X-2.05 Y-14.70 E4.67197
G1 X4.83 Y-14.70 E5.18692
G1 X4.86 Y-14.50 E5.20200
G1 X5.70 Y-14.50 E5.26509
G1 X5.70 Y-13.30 E5.35489
G1 X13.30 Y-13.30 E5.92364
G1 X13.30 Y-5.90 E6.47742
G1 X14.30 Y-5.90 E6.55225
G1 X14.30 Y-4.38 E6.66570
G1 X14.90 Y-4.18 E6.71303
G1 X14.90 Y4.18 E7.33926
G1 X14.30 Y4.38 E7.38659
G1 X14.30 Y5.70 E7.48507
G1 X13.30 Y5.70 E7.55990
G1 X13.30 Y13.30 E8.12865
G1 X5.35 Y13.30 E8.72344
G1 X5.10 Y13.38 E8.74332
G0 F3600 X5.70 Y13.90
G1 F1200 X5.70 Y15.50 E8.86306
G1 X-6.20 Y15.50 E9.75360
G1 X-6.20 Y13.90 E9.87334
G1 X-13.90 Y13.90 E10.44957
G1 X-13.90 Y6.30 E11.01832
G1 X-15.20 Y6.30 E11.11560
G1 X-15.20 Y3.20 E11.34722
G1 X-15.40 Y3.01 E11.36838
G1 X-15.40 Y-3.40 E11.84808
G1 X-15.20 Y-3.61 E11.86924
G1 X-15.20 Y-6.50 E12.08589
G1 X-13.90 Y-6.50 E12.18318
G1 X-13.90 Y-13.90 E12.73696
G1 X-6.35 Y-13.90 E13.30189
G1 X-2.15 Y-15.30 E13.63356
G1 X5.36 Y-15.30 E14.19542
G1 X5.39 Y-15.10 E14.21050
G1 X6.30 Y-15.10 E14.27883
G1 X6.30 Y-13.90 E14.36863
G1 X13.90 Y-13.90 E14.93738
G1 X13.90 Y-6.50 E15.49116
G1 X14.90 Y-6.50 E15.56599
G1 X14.90 Y-4.82 E15.69202
G1 X15.50 Y-4.62 E15.73935
G1 X15.50 Y4.62 E16.43023
G1 X14.90 Y4.82 E16.47756
G1 X14.90 Y6.30 E16.58861
G1 X13.90 Y6.30 E16.66345
G1 X13.90 Y13.90 E17.23220
G1 X5.70 Y13.90 E17.84585
G1 F2400 E13.34585
G0 F3600 X9.70 Y9.70
;TYPE:WALL-OUTER
G1 F2400 E17.84585
G1 F1200 X-9.70 Y9.70 E19.29765
G1 X-9.70 Y-9.70 E20.74946
G1 X9.70 Y-9.70 E22.20126
G1 X9.70 Y9.70 E23.65307
G0 F3600 X9.06 Y9.49
;TYPE:FILL
G1 F1200 X-9.49 Y-9.06 E25.61669
G0 F3600 X-9.06 Y-9.49
G1 F1200 X9.49 Y9.06 E27.58032
G0 F3600 X9.49 Y8.22
G1 F1200 X-8.22 Y-9.49 E29.45410
G0 F3600 X-7.37 Y-9.49
G1 F1200 X9.49 Y7.37 E31.23812
G0 F3600 X9.49 Y6.52
G1 F1200 X-6.52 Y-9.49 E32.93230
G0 F3600 X-5.67 Y-9.49
G1 F1200 X9.49 Y5.67 E34.53662
G0 F3600 X9.49 Y4.82
G1 F1200 X-4.82 Y-9.49 E36.05120
G0 F3600 X-3.97 Y-9.49
G1 F1200 X9.49 Y3.97 E37.47593
G0 F3600 X9.49 Y3.12
G1 F1200 X-3.12 Y-9.49 E38.81091
G0 F3600 X-2.28 Y-9.49
G1 F1200 X9.49 Y2.28 E40.05603
G0 F3600 X9.49 Y1.43
G1 F1200 X-1.43 Y-9.49 E41.21141
G0 F3600 X-0.58 Y-9.49
G1 F1200 X9.49 Y0.58 E42.27694
G0 F3600 X9.49 Y-0.27
G1 F1200 X0.27 Y-9.49 E43.25283
G0 F3600 X1.12 Y-9.49
G1 F1200 X9.49 Y-1.12 E44.13886
G0 F3600 X9.49 Y-1.97
G1 F1200 X1.97 Y-9.49 E44.93515
G0 F3600 X2.81 Y-9.49
G1 F1200 X9.49 Y-2.81 E45.64159
G0 F3600 X9.49 Y-3.66
G1 F1200 X3.66 Y-9.49 E46.25827
G0 F3600 X4.51 Y-9.49
G1 F1200 X9.49 Y-4.51 E46.78511
G0 F3600 X9.49 Y-5.36
G1 F1200 X5.36 Y-9.49 E47.22220
G0 F3600 X6.21 Y-9.49
G1 F1200 X9.49 Y-6.21 E47.56944
G0 F3600 X9.49 Y-7.06
G1 F1200 X7.06 Y-9.49 E47.82693
G0 F3600 X7.91 Y-9.49
G1 F1200 X9.49 Y-7.91 E47.99457
G0 F3600 X9.49 Y-8.75
G1 F1200 X8.75 Y-9.49 E48.07247
G0 F3600 X8.75 Y-9.30
G0 X-9.30 Y-8.22
G0 X-9.49 Y-8.22
G1 F1200 X8.22 Y9.49 E49.94624
G0 F3600 X7.37 Y9.49
G1 F1200 X-9.49 Y-7.37 E51.73027
G0 F3600 X-9.49 Y-6.52
G1 F1200 X6.52 Y9.49 E53.42445
G0 F3600 X5.67 Y9.49
G1 F1200 X-9.49 Y-5.67 E55.02877
G0 F3600 X-9.49 Y-4.82
G1 F1200 X4.82 Y9.49 E56.54335
G0 F3600 X3.97 Y9.49
G1 F1200 X-9.49 Y-3.97 E57.96807
G0 F3600 X-9.49 Y-3.12
G1 F1200 X3.12 Y9.49 E59.30305
G0 F3600 X2.28 Y9.49
G1 F1200 X-9.49 Y-2.28 E60.54818
G0 F3600 X-9.49 Y-1.43
G1 F1200 X1.43 Y9.49 E61.70356
G0 F3600 X0.58 Y9.49
G1 F1200 X-9.49 Y-0.58 E62.76909
G0 F3600 X-9.49 Y0.27
G1 F1200 X-0.27 Y9.49 E63.74497
G0 F3600 X-1.12 Y9.49
G1 F1200 X-9.49 Y1.12 E64.63101
G0 F3600 X-9.49 Y1.97
G1 F1200 X-1.97 Y9.49 E65.42730
G0 F3600 X-2.81 Y9.49
G1 F1200 X-9.49 Y2.81 E66.13373
G0 F3600 X-9.49 Y3.66
G1 F1200 X-3.66 Y9.49 E66.75042
G0 F3600 X-4.51 Y9.49
G1 F1200 X-9.49 Y4.51 E67.27726
G0 F3600 X-9.49 Y5.36
G1 F1200 X-5.36 Y9.49 E67.71435
G0 F3600 X-6.21 Y9.49
G1 F1200 X-9.49 Y6.21 E68.06159
G0 F3600 X-9.49 Y7.06
G1 F1200 X-7.06 Y9.49 E68.31908
G0 F3600 X-7.91 Y9.49
G1 F1200 X-9.49 Y7.91 E68.48672
G0 F3600 X-9.49 Y8.75
G1 F1200 X-8.75 Y9.49 E68.56461
G0 F3600 X-8.20 Y8.20
;LAYER:1
M106 S255
G0 F9000 X-9.39 Y9.30 Z0.55
G0 X-9.70 Y9.70
;TYPE:WALL-OUTER
G1 F1620 X-9.70 Y-9.70 E69.77445
G1 X9.70 Y-9.70 E70.98429
G1 X9.70 Y9.70 E72.19412
G1 X-9.70 Y9.70 E73.40396
G0 F9000 X-9.06 Y9.49
;TYPE:FILL
G1 F1620 X9.49 Y-9.06 E75.04032
G0 F9000 X9.06 Y-9.49
G1 F1620 X-9.49 Y9.06 E76.67667
G0 F9000 X-9.49 Y8.22
G1 F1620 X8.22 Y-9.49 E78.23815
G0 F9000 X7.37 Y-9.49
G1 F1620 X-9.49 Y7.37 E79.72484
G0 F9000 X-9.49 Y6.52
G1 F1620 X6.52 Y-9.49 E81.13666
G0 F9000 X5.67 Y-9.49
G1 F1620 X-9.49 Y5.67 E82.47359
G0 F9000 X-9.49 Y4.82
G1 F1620 X4.82 Y-9.49 E83.73574
G0 F9000 X3.97 Y-9.49
G1 F1620 X-9.49 Y3.97 E84.92301
G0 F9000 X-9.49 Y3.12
G1 F1620 X3.12 Y-9.49 E86.03550
G0 F9000 X2.28 Y-9.49
G1 F1620 X-9.49 Y2.28 E87.07310
G0 F9000 X-9.49 Y1.43
G1 F1620 X1.43 Y-9.49 E88.03592
G0 F9000 X0.58 Y-9.49
G1 F1620 X-9.49 Y0.58 E88.92386
G0 F9000 X-9.49 Y-0.27
G1 F1620 X-0.27 Y-9.49 E89.73710
G0 F9000 X-1.12 Y-9.49
G1 F1620 X-9.49 Y-1.12 E90.47546
G0 F9000 X-9.49 Y-1.97
G1 F1620 X-1.97 Y-9.49 E91.13903
G0 F9000 X-2.81 Y-9.49
G1 F1620 X-9.49 Y-2.81 E91.72773
G0 F9000 X-9.49 Y-3.66
G1 F1620 X-3.66 Y-9.49 E92.24164
G0 F9000 X-4.51 Y-9.49
G1 F1620 X-9.49 Y-4.51 E92.68067
G0 F9000 X-9.49 Y-5.36
G1 F1620 X-5.36 Y-9.49 E93.04491
G0 F9000 X-6.21 Y-9.49
G1 F1620 X-9.49 Y-6.21 E93.33427
G0 F9000 X-9.49 Y-7.06
G1 F1620 X-7.06 Y-9.49 E93.54885
G0 F9000 X-7.91 Y-9.49
G1 F1620 X-9.49 Y-7.91 E93.68855
G0 F9000 X-9.49 Y-8.75
G1 F1620 X-8.75 Y-9.49 E93.75346
G0 F9000 X-8.75 Y-9.30
G0 X9.30 Y-8.22
G0 X9.49 Y-8.22
G1 F1620 X-8.22 Y9.49 E95.31494
G0 F9000 X-7.37 Y9.49
G1 F1620 X9.49 Y-7.37 E96.80163
G0 F9000 X9.49 Y-6.52
G1 F1620 X-6.52 Y9.49 E98.21345
G0 F9000 X-5.67 Y9.49
G1 F1620 X9.49 Y-5.67 E99.55038
G0 F9000 X9.49 Y-4.82
G1 F1620 X-4.82 Y9.49 E100.81253
G0 F9000 X-3.97 Y9.49
G1 F1620 X9.49 Y-3.97 E101.99980
G0 F9000 X9.49 Y-3.12
G1 F1620 X-3.12 Y9.49 E103.11228
G0 F9000 X-2.28 Y9.49
G1 F1620 X9.49 Y-2.28 E104.14989
G0 F9000 X9.49 Y-1.43
G1 F1620 X-1.43 Y9.49 E105.11271
G0 F9000 X-0.58 Y9.49
G1 F1620 X9.49 Y-0.58 E106.00065
G0 F9000 X9.49 Y0.27
G1 F1620 X0.27 Y9.49 E106.81388
G0 F9000 X1.12 Y9.49
G1 F1620 X9.49 Y1.12 E107.55225
G0 F9000 X9.49 Y1.97
G1 F1620 X1.97 Y9.49 E108.21582
G0 F9000 X2.81 Y9.49
G1 F1620 X9.49 Y2.81 E108.80452
G0 F9000 X9.49 Y3.66
G1 F1620 X3.66 Y9.49 E109.31842
G0 F9000 X4.51 Y9.49
G1 F1620 X9.49 Y4.51 E109.75746
G0 F9000 X9.49 Y5.36
G1 F1620 X5.36 Y9.49 E110.12170
G0 F9000 X6.21 Y9.49
G1 F1620 X9.49 Y6.21 E110.41106
G0 F9000 X9.49 Y7.06
G1 F1620 X7.06 Y9.49 E110.62564
G0 F9000 X7.91 Y9.49
G1 F1620 X9.49 Y7.91 E110.76534
G0 F9000 X9.49 Y8.75
G1 F1620 X8.75 Y9.49 E110.83025
G0 F9000 X8.20 Y8.20
;LAYER:2
G0 X9.30 Y9.39 Z0.80
G0 X9.70 Y9.70
;TYPE:WALL-OUTER
G1 F2100 X-9.70 Y9.70 E112.04009
G1 X-9.70 Y-9.70 E113.24993
G1 X9.70 Y-9.70 E114.45976
G1 X9.70 Y9.70 E115.66960
G0 F9000 X9.06 Y9.49
;TYPE:FILL
G1 F2100 X-9.49 Y-9.06 E117.30596
G0 F9000 X-9.06 Y-9.49
G1 F2100 X9.49 Y9.06 E118.94231
G0 F9000 X9.49 Y8.22
G1 F2100 X-8.22 Y-9.49 E120.50379
G0 F9000 X-7.37 Y-9.49
G1 F2100 X9.49 Y7.37 E121.99048
G0 F9000 X9.49 Y6.52
G1 F2100 X-6.52 Y-9.49 E123.40230
G0 F9000 X-5.67 Y-9.49
G1 F2100 X9.49 Y5.67 E124.73923
G0 F9000 X9.49 Y4.82
G1 F2100 X-4.82 Y-9.49 E126.00138
G0 F9000 X-3.97 Y-9.49
G1 F2100 X9.49 Y3.97 E127.18865
G0 F9000 X9.49 Y3.12
G1 F2100 X-3.12 Y-9.49 E128.30113
G0 F9000 X-2.28 Y-9.49
G1 F2100 X9.49 Y2.28 E129.33874
G0 F9000 X9.49 Y1.43
G1 F2100 X-1.43 Y-9.49 E130.30156
G0 F9000 X-0.58 Y-9.49
G1 F2100 X9.49 Y0.58 E131.18950
G0 F9000 X9.49 Y-0.27
G1 F2100 X0.27 Y-9.49 E132.00273
G0 F9000 X1.12 Y-9.49
G1 F2100 X9.49 Y-1.12 E132.74110
G0 F9000 X9.49 Y-1.97
G1 F2100 X1.97 Y-9.49 E133.40467
G0 F9000 X2.81 Y-9.49
G1 F2100 X9.49 Y-2.81 E133.99337
G0 F9000 X9.49 Y-3.66
G1 F2100 X3.66 Y-9.49 E134.50727
G0 F9000 X4.51 Y-9.49
G1 F2100 X9.49 Y-4.51 E134.94631
G0 F9000 X9.49 Y-5.36
G1 F2100 X5.36 Y-9.49 E135.31055
G0 F9000 X6.21 Y-9.49
G1 F2100 X9.49 Y-6.21 E135.59991
G0 F9000 X9.49 Y-7.06
G1 F2100 X7.06 Y-9.49 E135.81449
G0 F9000 X7.91 Y-9.49
G1 F2100 X9.49 Y-7.91 E135.95419
G0 F9000 X9.49 Y-8.75
G1 F2100 X8.75 Y-9.49 E136.01910
G0 F9000 X8.75 Y-9.30
G0 X-9.30 Y-8.22
G0 X-9.49 Y-8.22
G1 F2100 X8.22 Y9.49 E137.58058
G0 F9000 X7.37 Y9.49
G1 F2100 X-9.49 Y-7.37 E139.06727
G0 F9000 X-9.49 Y-6.52
G1 F2100 X6.52 Y9.49 E140.47908
G0 F9000 X5.67 Y9.49
G1 F2100 X-9.49 Y-5.67 E141.81602
G0 F9000 X-9.49 Y-4.82
G1 F2100 X4.82 Y9.49 E143.07817
G0 F9000 X3.97 Y9.49
G1 F2100 X-9.49 Y-3.97 E144.26544
G0 F9000 X-9.49 Y-3.12
G1 F2100 X3.12 Y9.49 E145.37792
G0 F9000 X2.28 Y9.49
G1 F2100 X-9.49 Y-2.28 E146.41553
G0 F9000 X-9.49 Y-1.43
G1 F2100 X1.43 Y9.49 E147.37834
G0 F9000 X0.58 Y9.49
G1 F2100 X-9.49 Y-0.58 E148.26628
G0 F9000 X-9.49 Y0.27
G1 F2100 X-0.27 Y9.49 E149.07952
G0 F9000 X-1.12 Y9.49
G1 F2100 X-9.49 Y1.12 E149.81789
G0 F9000 X-9.49 Y1.97
G1 F2100 X-1.97 Y9.49 E150.48146
G0 F9000 X-2.81 Y9.49
G1 F2100 X-9.49 Y2.81 E151.07016
G0 F9000 X-9.49 Y3.66
G1 F2100 X-3.66 Y9.49 E151.58406
G0 F9000 X-4.51 Y9.49
G1 F2100 X-9.49 Y4.51 E152.02309
G0 F9000 X-9.49 Y5.36
G1 F2100 X-5.36 Y9.49 E152.38734
G0 F9000 X-6.21 Y9.49
G1 F2100 X-9.49 Y6.21 E152.67670
G0 F9000 X-9.49 Y7.06
G1 F2100 X-7.06 Y9.49 E152.89128
G0 F9000 X-7.91 Y9.49
G1 F2100 X-9.49 Y7.91 E153.03098
G0 F9000 X-9.49 Y8.75
G1 F2100 X-8.75 Y9.49 E153.09589
G0 F9000 X-8.20 Y8.20
;LAYER:3
G0 X-9.39 Y9.30 Z1.05
G0 X-9.70 Y9.70
;TYPE:WALL-OUTER
G1 F2520 X-9.70 Y-9.70 E154.30573
G1 X9.70 Y-9.70 E155.51556
G1 X9.70 Y9.70 E156.72540
G1 X-9.70 Y9.70 E157.93524
G0 F9000 X-9.06 Y9.49
;TYPE:FILL
G1 F2520 X9.49 Y-9.06 E159.57159
G0 F9000 X9.06 Y-9.49
G1 F2520 X-9.49 Y9.06 E161.20795
G0 F9000 X-9.49 Y8.22
G1 F2520 X8.22 Y-9.49 E162.76943
G0 F9000 X7.37 Y-9.49
G1 F2520 X-9.49 Y7.37 E164.25612
G0 F9000 X-9.49 Y6.52
G1 F2520 X6.52 Y-9.49 E165.66793
G0 F9000 X5.67 Y-9.49
G1 F2520 X-9.49 Y5.67 E167.00487
G0 F9000 X-9.49 Y4.82
G1 F2520 X4.82 Y-9.49 E168.26702
G0 F9000 X3.97 Y-9.49
G1 F2520 X-9.49 Y3.97 E169.45429
G0 F9000 X-9.49 Y3.12
G1 F2520 X3.12 Y-9.49 E170.56677
G0 F9000 X2.28 Y-9.49
G1 F2520 X-9.49 Y2.28 E171.60438
G0 F9000 X-9.49 Y1.43
G1 F2520 X1.43 Y-9.49 E172.56719
G0 F9000 X0.58 Y-9.49
G1 F2520 X-9.49 Y0.58 E173.45513
G0 F9000 X-9.49 Y-0.27
G1 F2520 X-0.27 Y-9.49 E174.26837
G0 F9000 X-1.12 Y-9.49
G1 F2520 X-9.49 Y-1.12 E175.00674
G0 F9000 X-9.49 Y-1.97
G1 F2520 X-1.97 Y-9.49 E175.67031
G0 F9000 X-2.81 Y-9.49
G1 F2520 X-9.49 Y-2.81 E176.25901
G0 F9000 X-9.49 Y-3.66
G1 F2520 X-3.66 Y-9.49 E176.77291
G0 F9000 X-4.51 Y-9.49
G1 F2520 X-9.49 Y-4.51 E177.21194
G0 F9000 X-9.49 Y-5.36
G1 F2520 X-5.36 Y-9.49 E177.57619
G0 F9000 X-6.21 Y-9.49
G1 F2520 X-9.49 Y-6.21 E177.86555
G0 F9000 X-9.49 Y-7.06
G1 F2520 X-7.06 Y-9.49 E178.08013
G0 F9000 X-7.91 Y-9.49
G1 F2520 X-9.49 Y-7.91 E178.21983
G0 F9000 X-9.49 Y-8.75
G1 F2520 X-8.75 Y-9.49 E178.28474
G0 F9000 X-8.75 Y-9.30
G0 X9.30 Y-8.22
G0 X9.49 Y-8.22
G1 F2520 X-8.22 Y9.49 E179.84622
G0 F9000 X-7.37 Y9.49
G1 F2520 X9.49 Y-7.37 E181.33291
G0 F9000 X9.49 Y-6.52
G1 F2520 X-6.52 Y9.49 E182.74472
G0 F9000 X-5.67 Y9.49
G1 F2520 X9.49 Y-5.67 E184.08166
G0 F9000 X9.49 Y-4.82
G1 F2520 X-4.82 Y9.49 E185.34381
G0 F9000 X-3.97 Y9.49
G1 F2520 X9.49 Y-3.97 E186.53108
G0 F9000 X9.49 Y-3.12
G1 F2520 X-3.12 Y9.49 E187.64356
G0 F9000 X-2.28 Y9.49
G1 F2520 X9.49 Y-2.28 E188.68117
G0 F9000 X9.49 Y-1.43
G1 F2520 X-1.43 Y9.49 E189.64398
G0 F9000 X-0.58 Y9.49
G1 F2520 X9.49 Y-0.58 E190.53192
G0 F9000 X9.49 Y0.27
G1 F2520 X0.27 Y9.49 E191.34516
G0 F9000 X1.12 Y9.49
G1 F2520 X9.49 Y1.12 E192.08352
G0 F9000 X9.49 Y1.97
G1 F2520 X1.97 Y9.49 E192.74710
G0 F9000 X2.81 Y9.49
G1 F2520 X9.49 Y2.81 E193.33579
G0 F9000 X9.49 Y3.66
G1 F2520 X3.66 Y9.49 E193.84970
G0 F9000 X4.51 Y9.49
G1 F2520 X9.49 Y4.51 E194.28873
G0 F9000 X9.49 Y5.36
G1 F2520 X5.36 Y9.49 E194.65297
G0 F9000 X6.21 Y9.49
G1 F2520 X9.49 Y6.21 E194.94234
G0 F9000 X9.49 Y7.06
G1 F2520 X7.06 Y9.49 E195.15692
G0 F9000 X7.91 Y9.49
G1 F2520 X9.49 Y7.91 E195.29662
G0 F9000 X9.49 Y8.75
G1 F2520 X8.75 Y9.49 E195.36153
G0 F9000 X8.20 Y8.20
;LAYER:4
G0 X9.30 Y9.39 Z1.30
G0 X9.70 Y9.70
;TYPE:WALL-OUTER
G1 F3000 X-9.70 Y9.70 E196.57137
G1 X-9.70 Y-9.70 E197.78120
G1 X9.70 Y-9.70 E198.99104
G1 X9.70 Y9.70 E200.20088
G0 F9000 X9.06 Y9.49
;TYPE:FILL
G1 F3000 X-9.49 Y-9.06 E201.83723
G0 F9000 X-9.06 Y-9.49
G1 F3000 X9.49 Y9.06 E203.47359
G0 F9000 X9.49 Y8.22
G1 F3000 X-8.22 Y-9.49 E205.03507
G0 F9000 X-7.37 Y-9.49
G1 F3000 X9.49 Y7.37 E206.52176
G0 F9000 X9.49 Y6.52
G1 F3000 X-6.52 Y-9.49 E207.93357
G0 F9000 X-5.67 Y-9.49
G1 F3000 X9.49 Y5.67 E209.27051
G0 F9000 X9.49 Y4.82
G1 F3000 X-4.82 Y-9.49 E210.53266
G0 F9000 X-3.97 Y-9.49
G1 F3000 X9.49 Y3.97 E211.71993
G0 F9000 X9.49 Y3.12
G1 F3000 X-3.12 Y-9.49 E212.83241
G0 F9000 X-2.28 Y-9.49
G1 F3000 X9.49 Y2.28 E213.87002
G0 F9000 X9.49 Y1.43
G1 F3000 X-1.43 Y-9.49 E214.83283
G0 F9000 X-0.58 Y-9.49
G1 F3000 X9.49 Y0.58 E215.72077
G0 F9000 X9.49 Y-0.27
G1 F3000 X0.27 Y-9.49 E216.53401
G0 F9000 X1.12 Y-9.49
G1 F3000 X9.49 Y-1.12 E217.27237
G0 F9000 X9.49 Y-1.97
G1 F3000 X1.97 Y-9.49 E217.93595
G0 F9000 X2.81 Y-9.49
G1 F3000 X9.49 Y-2.81 E218.52464
G0 F9000 X9.49 Y-3.66
G1 F3000 X3.66 Y-9.49 E219.03855
G0 F9000 X4.51 Y-9.49
G1 F3000 X9.49 Y-4.51 E219.47758
G0 F9000 X9.49 Y-5.36
G1 F3000 X5.36 Y-9.49 E219.84183
G0 F9000 X6.21 Y-9.49
G1 F3000 X9.49 Y-6.21 E220.13119
G0 F9000 X9.49 Y-7.06
G1 F3000 X7.06 Y-9.49 E220.34577
G0 F9000 X7.91 Y-9.49
G1 F3000 X9.49 Y-7.91 E220.48547
G0 F9000 X9.49 Y-8.75
G1 F3000 X8.75 Y-9.49 E220.55038
G0 F9000 X8.75 Y-9.30
G0 X-9.30 Y-8.22
G0 X-9.49 Y-8.22
G1 F3000 X8.22 Y9.49 E222.11186
G0 F9000 X7.37 Y9.49
G1 F3000 X-9.49 Y-7.37 E223.59855
G0 F9000 X-9.49 Y-6.52
G1 F3000 X6.52 Y9.49 E225.01036
G0 F9000 X5.67 Y9.49
G1 F3000 X-9.49 Y-5.67 E226.34730
G0 F9000 X-9.49 Y-4.82
G1 F3000 X4.82 Y9.49 E227.60945
G0 F9000 X3.97 Y9.49
G1 F3000 X-9.49 Y-3.97 E228.79672
G0 F9000 X-9.49 Y-3.12
G1 F3000 X3.12 Y9.49 E229.90920
G0 F9000 X2.28 Y9.49
G1 F3000 X-9.49 Y-2.28 E230.94680
G0 F9000 X-9.49 Y-1.43
G1 F3000 X1.43 Y9.49 E231.90962
G0 F9000 X0.58 Y9.49
G1 F3000 X-9.49 Y-0.58 E232.79756
G0 F9000 X-9.49 Y0.27
G1 F3000 X-0.27 Y9.49 E233.61080
G0 F9000 X-1.12 Y9.49
G1 F3000 X-9.49 Y1.12 E234.34916
G0 F9000 X-9.49 Y1.97
G1 F3000 X-1.97 Y9.49 E235.01274
G0 F9000 X-2.81 Y9.49
G1 F3000 X-9.49 Y2.81 E235.60143
G0 F9000 X-9.49 Y3.66
G1 F3000 X-3.66 Y9.49 E236.11534
G0 F9000 X-4.51 Y9.49
G1 F3000 X-9.49 Y4.51 E236.55437
G0 F9000 X-9.49 Y5.36
G1 F3000 X-5.36 Y9.49 E236.91861
G0 F9000 X-6.21 Y9.49
G1 F3000 X-9.49 Y6.21 E237.20798
G0 F9000 X-9.49 Y7.06
G1 F3000 X-7.06 Y9.49 E237.42256
G0 F9000 X-7.91 Y9.49
G1 F3000 X-9.49 Y7.91 E237.56226
G0 F9000 X-9.49 Y8.75
G1 F3000 X-8.75 Y9.49 E237.62717
G0 F9000 X-8.20 Y8.20
;LAYER:5
G0 X-9.39 Y9.30 Z1.55
G0 X-9.70 Y9.70
;TYPE:WALL-OUTER
G1 F3000 X-9.70 Y-9.70 E238.83700
G1 X9.70 Y-9.70 E240.04684
G1 X9.70 Y9.70 E241.25668
