;Generated with Cura_SteamEngine 13.12
M140 S100.000000
M109 T0 S230.000000
T0
M190 S100.000000

M136 (enable build)
M73 P0
G162 X Y F2000(home XY axes maximum)
G161 Z F900(home Z axis minimum)
G92 X0 Y0 Z-5 A0 B0 (set Z to -5)
G1 Z0.0 F9000(move Z to '0')
G161 Z F100(home Z axis minimum)
M132 X Y Z A B (Recall stored home offsets for XYZAB axis)
G92 X152 Y72 Z0 A0 B0
G1 X-100 Y-74 Z40 F9000 (move to waiting position)
G130 X20 Y20 A20 B20 (Lower stepper Vrefs while heating)
M135 T0
M104 S220 T0
M133 T0
G130 X127 Y127 A127 B127 (Set Stepper motor Vref to defaults)
; Sliced ?filename? at: Tue 24-06-2014 18:35:51
; Basic settings: Layer height: 0.25 Walls: 0.6 Fill: 30
; Print time: #P_TIME#
; Filament used: #F_AMNT#m #F_WGHT#g
; Filament cost: #F_COST#
M73 P0;
; -- end of START GCODE --

;Layer count: 100
;LAYER:0
M107
G0 F3600 X-14.50 Y4.32 Z0.30
;TYPE:SKIRT
G1 F2400 E0.00000
G1 F1200 X-15.30 Y4.12 E0.06171
G1 X-15.30 Y-4.72 E0.72385
G1 X-14.50 Y-4.92 E0.78556
G1 X-14.50 Y-11.40 E1.27020
G1 X-13.30 Y-11.40 E1.36000
G1 X-13.30 Y-13.30 E1.50219
G1 X-11.50 Y-13.30 E1.63689
G1 X-11.50 Y-14.40 E1.71921
G1 X-5.30 Y-14.40 E2.18319
G1 X-5.30 Y-15.20 E2.24306
G1 X5.18 Y-15.20 E3.02770
G1 X5.20 Y-15.00 E3.04269
G1 X5.40 Y-15.00 E3.05796
G1 X5.40 Y-14.40 E3.10286
G1 X11.20 Y-14.40 E3.53691
G1 X11.20 Y-13.30 E3.61923
G1 X13.30 Y-13.30 E3.77638
G1 X13.30 Y-11.40 E3.91857
G1 X14.40 Y-11.40 E4.00089
G1 X14.40 Y-4.68 E4.50385
G1 X15.40 Y-4.48 E4.58017
G1 X15.40 Y4.68 E5.26551
G1 X14.40 Y4.88 E5.34183
G1 X14.40 Y11.20 E5.81486
G1 X13.30 Y11.20 E5.89718
G1 X13.30 Y13.30 E6.05434
G1 X11.20 Y13.30 E6.21149
G1 X11.20 Y14.40 E6.29381
G1 X5.00 Y14.40 E6.75779
G1 X5.00 Y15.40 E6.83262
G1 X-5.70 Y15.40 E7.63336
G1 X-5.70 Y14.40 E7.70820
G1 X-11.50 Y14.40 E8.14224
G1 X-11.50 Y13.30 E8.22456
G1 X-13.30 Y13.30 E8.35926
G1 X-13.30 Y11.20 E8.51642
G1 X-14.50 Y11.20 E8.60622
G1 X-14.50 Y4.32 E9.12079
G0 F3600 X-15.10 Y4.79
G1 F1200 X-15.90 Y4.59 E9.18250
G1 X-15.90 Y-5.19 E9.91469
G1 X-15.10 Y-5.39 E9.97640
G1 X-15.10 Y-12.00 E10.47091
G1 X-13.90 Y-12.00 E10.56071
G1 X-13.90 Y-13.90 E10.70290
G1 X-12.10 Y-13.90 E10.83760
G1 X-12.10 Y-15.00 E10.91992
G1 X-5.90 Y-15.00 E11.38390
G1 X-5.90 Y-15.80 E11.44377
G1 X5.75 Y-15.80 E12.31583
G1 X5.76 Y-15.60 E12.33081
G1 X6.00 Y-15.60 E12.34848
G1 X6.00 Y-15.00 E12.39338
G1 X11.80 Y-15.00 E12.82742
G1 X11.80 Y-13.90 E12.90974
G1 X13.90 Y-13.90 E13.06689
G1 X13.90 Y-12.00 E13.20908
G1 X15.00 Y-12.00 E13.29140
G1 X15.00 Y-5.17 E13.80245
G1 X16.00 Y-4.97 E13.87877
G1 X16.00 Y5.17 E14.63775
G1 X15.00 Y5.37 E14.71407
G1 X15.00 Y11.80 E15.19518
G1 X13.90 Y11.80 E15.27750
G1 X13.90 Y13.90 E15.43465
G1 X11.80 Y13.90 E15.59181
G1 X11.80 Y15.00 E15.67413
G1 X5.60 Y15.00 E16.13811
G1 X5.60 Y16.00 E16.21294
G1 X-6.30 Y16.00 E17.10348
G1 X-6.30 Y15.00 E17.17832
G1 X-12.10 Y15.00 E17.61236
G1 X-12.10 Y13.90 E17.69468
G1 X-13.90 Y13.90 E17.82938
G1 X-13.90 Y11.80 E17.98654
G1 X-15.10 Y11.80 E18.07634
G1 X-15.10 Y4.79 E18.60079
G1 F2400 E14.10079
G0 F3600 X-9.70 Y9.70
;TYPE:WALL-OUTER
G1 F2400 E18.60079
G1 F1200 X-9.70 Y-9.70 E20.05259
G1 X9.70 Y-9.70 E21.50440
G1 X9.70 Y9.70 E22.95620
G1 X-9.70 Y9.70 E24.40801
G0 F3600 X-9.49 Y8.75
;TYPE:FILL
G1 F1200 X-8.75 Y9.49 E24.48590
G0 F3600 X-7.91 Y9.49
G1 F1200 X-9.49 Y7.91 E24.65354
G0 F3600 X-9.49 Y7.06
G1 F1200 X-7.06 Y9.49 E24.91103
G0 F3600 X-6.21 Y9.49
G1 F1200 X-9.49 Y6.21 E25.25827
G0 F3600 X-9.49 Y5.36
G1 F1200 X-5.36 Y9.49 E25.69536
G0 F3600 X-4.51 Y9.49
G1 F1200 X-9.49 Y4.51 E26.22220
G0 F3600 X-9.49 Y3.66
G1 F1200 X-3.66 Y9.49 E26.83889
G0 F3600 X-2.81 Y9.49
G1 F1200 X-9.49 Y2.81 E27.54532
G0 F3600 X-9.49 Y1.97
G1 F1200 X-1.97 Y9.49 E28.34161
G0 F3600 X-1.12 Y9.49
G1 F1200 X-9.49 Y1.12 E29.22765
G0 F3600 X-9.49 Y0.27
G1 F1200 X-0.27 Y9.49 E30.20353
G0 F3600 X0.58 Y9.49
G1 F1200 X-9.49 Y-0.58 E31.26906
G0 F3600 X-9.49 Y-1.43
G1 F1200 X1.43 Y9.49 E32.42444
G0 F3600 X2.28 Y9.49
G1 F1200 X-9.49 Y-2.28 E33.66957
G0 F3600 X-9.49 Y-3.12
G1 F1200 X3.12 Y9.49 E35.00455
G0 F3600 X3.97 Y9.49
G1 F1200 X-9.49 Y-3.97 E36.42927
G0 F3600 X-9.49 Y-4.82
G1 F1200 X4.82 Y9.49 E37.94385
G0 F3600 X5.67 Y9.49
G1 F1200 X-9.49 Y-5.67 E39.54817
G0 F3600 X-9.49 Y-6.52
G1 F1200 X6.52 Y9.49 E41.24235
G0 F3600 X7.37 Y9.49
G1 F1200 X-9.49 Y-7.37 E43.02638
G0 F3600 X-9.49 Y-8.22
G1 F1200 X8.22 Y9.49 E44.90015
G0 F3600 X9.06 Y9.49
G1 F1200 X-9.49 Y-9.06 E46.86378
G0 F3600 X-9.06 Y-9.49
G1 F1200 X9.49 Y9.06 E48.82741
G0 F3600 X9.49 Y8.22
G1 F1200 X-8.22 Y-9.49 E50.70118
G0 F3600 X-7.37 Y-9.49
G1 F1200 X9.49 Y7.37 E52.48521
G0 F3600 X9.49 Y6.52
G1 F1200 X-6.52 Y-9.49 E54.17939
G0 F3600 X-5.67 Y-9.49
G1 F1200 X9.49 Y5.67 E55.78371
G0 F3600 X9.49 Y4.82
G1 F1200 X-4.82 Y-9.49 E57.29829
G0 F3600 X-3.97 Y-9.49
G1 F1200 X9.49 Y3.97 E58.72301
G0 F3600 X9.49 Y3.12
G1 F1200 X-3.12 Y-9.49 E60.05799
G0 F3600 X-2.28 Y-9.49
G1 F1200 X9.49 Y2.28 E61.30312
G0 F3600 X9.49 Y1.43
G1 F1200 X-1.43 Y-9.49 E62.45850
G0 F3600 X-0.58 Y-9.49
G1 F1200 X9.49 Y0.58 E63.52403
G0 F3600 X9.49 Y-0.27
G1 F1200 X0.27 Y-9.49 E64.49991
G0 F3600 X1.12 Y-9.49
G1 F1200 X9.49 Y-1.12 E65.38595
G0 F3600 X9.49 Y-1.97
G1 F1200 X1.97 Y-9.49 E66.18224
G0 F3600 X2.81 Y-9.49
G1 F1200 X9.49 Y-2.81 E66.88867
G0 F3600 X9.49 Y-3.66
G1 F1200 X3.66 Y-9.49 E67.50536
G0 F3600 X4.51 Y-9.49
G1 F1200 X9.49 Y-4.51 E68.03220
G0 F3600 X9.49 Y-5.36
G1 F1200 X5.36 Y-9.49 E68.46929
G0 F3600 X6.21 Y-9.49
G1 F1200 X9.49 Y-6.21 E68.81653
G0 F3600 X9.49 Y-7.06
G1 F1200 X7.06 Y-9.49 E69.07402
G0 F3600 X7.91 Y-9.49
G1 F1200 X9.49 Y-7.91 E69.24166
G0 F3600 X9.49 Y-8.75
G1 F1200 X8.75 Y-9.49 E69.31955
G0 F3600 X8.20 Y-8.20
;LAYER:1
M106 S255
G0 F9000 X9.30 Y-9.39 Z0.55
G0 X9.70 Y-9.70
;TYPE:WALL-OUTER
G1 F1620 X9.70 Y9.70 E70.52939
G1 X-9.70 Y9.70 E71.73923
G1 X-9.70 Y-9.70 E72.94907
G1 X9.70 Y-9.70 E74.15890
G0 F9000 X9.49 Y-9.06
;TYPE:FILL
G1 F1620 X-9.06 Y9.49 E75.79526
G0 F9000 X-9.49 Y9.06
G1 F1620 X9.06 Y-9.49 E77.43161
G0 F9000 X8.22 Y-9.49
G1 F1620 X-9.49 Y8.22 E78.99309
G0 F9000 X-9.49 Y7.37
G1 F1620 X7.37 Y-9.49 E80.47978
G0 F9000 X6.52 Y-9.49
G1 F1620 X-9.49 Y6.52 E81.89160
G0 F9000 X-9.49 Y5.67
G1 F1620 X5.67 Y-9.49 E83.22853
G0 F9000 X4.82 Y-9.49
G1 F1620 X-9.49 Y4.82 E84.49068
G0 F9000 X-9.49 Y3.97
G1 F1620 X3.97 Y-9.49 E85.67795
G0 F9000 X3.12 Y-9.49
G1 F1620 X-9.49 Y3.12 E86.79044
G0 F9000 X-9.49 Y2.28
G1 F1620 X2.28 Y-9.49 E87.82804
G0 F9000 X1.43 Y-9.49
G1 F1620 X-9.49 Y1.43 E88.79086
G0 F9000 X-9.49 Y0.58
G1 F1620 X0.58 Y-9.49 E89.67880
G0 F9000 X-0.27 Y-9.49
G1 F1620 X-9.49 Y-0.27 E90.49204
G0 F9000 X-9.49 Y-1.12
G1 F1620 X-1.12 Y-9.49 E91.23040
G0 F9000 X-1.97 Y-9.49
G1 F1620 X-9.49 Y-1.97 E91.89397
G0 F9000 X-9.49 Y-2.81
G1 F1620 X-2.81 Y-9.49 E92.48267
G0 F9000 X-3.66 Y-9.49
G1 F1620 X-9.49 Y-3.66 E92.99658
G0 F9000 X-9.49 Y-4.51
G1 F1620 X-4.51 Y-9.49 E93.43561
G0 F9000 X-5.36 Y-9.49
G1 F1620 X-9.49 Y-5.36 E93.79985
G0 F9000 X-9.49 Y-6.21
G1 F1620 X-6.21 Y-9.49 E94.08922
G0 F9000 X-7.06 Y-9.49
G1 F1620 X-9.49 Y-7.06 E94.30379
G0 F9000 X-9.49 Y-7.91
G1 F1620 X-7.91 Y-9.49 E94.44349
G0 F9000 X-8.75 Y-9.49
G1 F1620 X-9.49 Y-8.75 E94.50840
G0 F9000 X-9.30 Y-8.75
G0 X-8.22 Y9.30
G0 X-8.22 Y9.49
G1 F1620 X9.49 Y-8.22 E96.06988
G0 F9000 X9.49 Y-7.37
G1 F1620 X-7.37 Y9.49 E97.55657
G0 F9000 X-6.52 Y9.49
G1 F1620 X9.49 Y-6.52 E98.96839
G0 F9000 X9.49 Y-5.67
G1 F1620 X-5.67 Y9.49 E100.30532
G0 F9000 X-4.82 Y9.49
G1 F1620 X9.49 Y-4.82 E101.56747
G0 F9000 X9.49 Y-3.97
G1 F1620 X-3.97 Y9.49 E102.75474
G0 F9000 X-3.12 Y9.49
G1 F1620 X9.49 Y-3.12 E103.86722
G0 F9000 X9.49 Y-2.28
G1 F1620 X-2.28 Y9.49 E104.90483
G0 F9000 X-1.43 Y9.49
G1 F1620 X9.49 Y-1.43 E105.86765
G0 F9000 X9.49 Y-0.58
G1 F1620 X-0.58 Y9.49 E106.75559
G0 F9000 X0.27 Y9.49
G1 F1620 X9.49 Y0.27 E107.56883
G0 F9000 X9.49 Y1.12
G1 F1620 X1.12 Y9.49 E108.30719
G0 F9000 X1.97 Y9.49
G1 F1620 X9.49 Y1.97 E108.97076
G0 F9000 X9.49 Y2.81
G1 F1620 X2.81 Y9.49 E109.55946
G0 F9000 X3.66 Y9.49
G1 F1620 X9.49 Y3.66 E110.07337
G0 F9000 X9.49 Y4.51
G1 F1620 X4.51 Y9.49 E110.51240
G0 F9000 X5.36 Y9.49
G1 F1620 X9.49 Y5.36 E110.87664
G0 F9000 X9.49 Y6.21
G1 F1620 X6.21 Y9.49 E111.16600
G0 F9000 X7.06 Y9.49
G1 F1620 X9.49 Y7.06 E111.38058
G0 F9000 X9.49 Y7.91
G1 F1620 X7.91 Y9.49 E111.52028
G0 F9000 X8.75 Y9.49
G1 F1620 X9.49 Y8.75 E111.58519
G0 F9000 X8.20 Y8.20
;LAYER:2
G0 X9.30 Y9.39 Z0.80
G0 X9.70 Y9.70
;TYPE:WALL-OUTER
G1 F2100 X-9.70 Y9.70 E112.79503
G1 X-9.70 Y-9.70 E114.00487
G1 X9.70 Y-9.70 E115.21470
G1 X9.70 Y9.70 E116.42454
G0 F9000 X9.06 Y9.49
;TYPE:FILL
G1 F2100 X-9.49 Y-9.06 E118.06090
G0 F9000 X-9.06 Y-9.49
G1 F2100 X9.49 Y9.06 E119.69725
G0 F9000 X9.49 Y8.22
G1 F2100 X-8.22 Y-9.49 E121.25873
G0 F9000 X-7.37 Y-9.49
G1 F2100 X9.49 Y7.37 E122.74542
G0 F9000 X9.49 Y6.52
G1 F2100 X-6.52 Y-9.49 E124.15724
G0 F9000 X-5.67 Y-9.49
G1 F2100 X9.49 Y5.67 E125.49417
G0 F9000 X9.49 Y4.82
G1 F2100 X-4.82 Y-9.49 E126.75632
G0 F9000 X-3.97 Y-9.49
G1 F2100 X9.49 Y3.97 E127.94359
G0 F9000 X9.49 Y3.12
G1 F2100 X-3.12 Y-9.49 E129.05607
G0 F9000 X-2.28 Y-9.49
G1 F2100 X9.49 Y2.28 E130.09368
G0 F9000 X9.49 Y1.43
G1 F2100 X-1.43 Y-9.49 E131.05650
G0 F9000 X-0.58 Y-9.49
G1 F2100 X9.49 Y0.58 E131.94444
G0 F9000 X9.49 Y-0.27
G1 F2100 X0.27 Y-9.49 E132.75768
G0 F9000 X1.12 Y-9.49
G1 F2100 X9.49 Y-1.12 E133.49604
G0 F9000 X9.49 Y-1.97
G1 F2100 X1.97 Y-9.49 E134.15961
G0 F9000 X2.81 Y-9.49
G1 F2100 X9.49 Y-2.81 E134.74831
G0 F9000 X9.49 Y-3.66
G1 F2100 X3.66 Y-9.49 E135.26222
G0 F9000 X4.51 Y-9.49
G1 F2100 X9.49 Y-4.51 E135.70125
G0 F9000 X9.49 Y-5.36
G1 F2100 X5.36 Y-9.49 E136.06549
G0 F9000 X6.21 Y-9.49
G1 F2100 X9.49 Y-6.21 E136.35485
G0 F9000 X9.49 Y-7.06
G1 F2100 X7.06 Y-9.49 E136.56943
G0 F9000 X7.91 Y-9.49
G1 F2100 X9.49 Y-7.91 E136.70913
G0 F9000 X9.49 Y-8.75
G1 F2100 X8.75 Y-9.49 E136.77404
G0 F9000 X8.75 Y-9.30
G0 X-9.30 Y-8.22
G0 X-9.49 Y-8.22
G1 F2100 X8.22 Y9.49 E138.33552
G0 F9000 X7.37 Y9.49
G1 F2100 X-9.49 Y-7.37 E139.82221
G0 F9000 X-9.49 Y-6.52
G1 F2100 X6.52 Y9.49 E141.23402
G0 F9000 X5.67 Y9.49
G1 F2100 X-9.49 Y-5.67 E142.57096
G0 F9000 X-9.49 Y-4.82
G1 F2100 X4.82 Y9.49 E143.83311
G0 F9000 X3.97 Y9.49
G1 F2100 X-9.49 Y-3.97 E145.02038
G0 F9000 X-9.49 Y-3.12
G1 F2100 X3.12 Y9.49 E146.13286
G0 F9000 X2.28 Y9.49
G1 F2100 X-9.49 Y-2.28 E147.17047
G0 F9000 X-9.49 Y-1.43
G1 F2100 X1.43 Y9.49 E148.13328
G0 F9000 X0.58 Y9.49
G1 F2100 X-9.49 Y-0.58 E149.02122
G0 F9000 X-9.49 Y0.27
G1 F2100 X-0.27 Y9.49 E149.83446
G0 F9000 X-1.12 Y9.49
G1 F2100 X-9.49 Y1.12 E150.57283
G0 F9000 X-9.49 Y1.97
G1 F2100 X-1.97 Y9.49 E151.23640
G0 F9000 X-2.81 Y9.49
G1 F2100 X-9.49 Y2.81 E151.82510
G0 F9000 X-9.49 Y3.66
G1 F2100 X-3.66 Y9.49 E152.33900
G0 F9000 X-4.51 Y9.49
G1 F2100 X-9.49 Y4.51 E152.77804
G0 F9000 X-9.49 Y5.36
G1 F2100 X-5.36 Y9.49 E153.14228
G0 F9000 X-6.21 Y9.49
G1 F2100 X-9.49 Y6.21 E153.43164
G0 F9000 X-9.49 Y7.06
G1 F2100 X-7.06 Y9.49 E153.64622
G0 F9000 X-7.91 Y9.49
G1 F2100 X-9.49 Y7.91 E153.78592
G0 F9000 X-9.49 Y8.75
G1 F2100 X-8.75 Y9.49 E153.85083
G0 F9000 X-8.20 Y8.20
;LAYER:3
G0 X-9.39 Y9.30 Z1.05
G0 X-9.70 Y9.70
;TYPE:WALL-OUTER
G1 F2520 X-9.70 Y-9.70 E155.06067
G1 X9.70 Y-9.70 E156.27050
G1 X9.70 Y9.70 E157.48034
G1 X-9.70 Y9.70 E158.69018
G0 F9000 X-9.06 Y9.49
;TYPE:FILL
G1 F2520 X9.49 Y-9.06 E160.32654
G0 F9000 X9.06 Y-9.49
G1 F2520 X-9.49 Y9.06 E161.96289
G0 F9000 X-9.49 Y8.22
G1 F2520 X8.22 Y-9.49 E163.52437
G0 F9000 X7.37 Y-9.49
G1 F2520 X-9.49 Y7.37 E165.01106
G0 F9000 X-9.49 Y6.52
G1 F2520 X6.52 Y-9.49 E166.42288
G0 F9000 X5.67 Y-9.49
G1 F2520 X-9.49 Y5.67 E167.75981
G0 F9000 X-9.49 Y4.82
G1 F2520 X4.82 Y-9.49 E169.02196
G0 F9000 X3.97 Y-9.49
G1 F2520 X-9.49 Y3.97 E170.20923
G0 F9000 X-9.49 Y3.12
G1 F2520 X3.12 Y-9.49 E171.32171
G0 F9000 X2.28 Y-9.49
G1 F2520 X-9.49 Y2.28 E172.35932
G0 F9000 X-9.49 Y1.43
G1 F2520 X1.43 Y-9.49 E173.32214
G0 F9000 X0.58 Y-9.49
G1 F2520 X-9.49 Y0.58 E174.21007
G0 F9000 X-9.49 Y-0.27
G1 F2520 X-0.27 Y-9.49 E175.02331
G0 F9000 X-1.12 Y-9.49
G1 F2520 X-9.49 Y-1.12 E175.76168
G0 F9000 X-9.49 Y-1.97
G1 F2520 X-1.97 Y-9.49 E176.42525
G0 F9000 X-2.81 Y-9.49
G1 F2520 X-9.49 Y-2.81 E177.01395
G0 F9000 X-9.49 Y-3.66
G1 F2520 X-3.66 Y-9.49 E177.52785
G0 F9000 X-4.51 Y-9.49
G1 F2520 X-9.49 Y-4.51 E177.96689
G0 F9000 X-9.49 Y-5.36
G1 F2520 X-5.36 Y-9.49 E178.33113
G0 F9000 X-6.21 Y-9.49
G1 F2520 X-9.49 Y-6.21 E178.62049
G0 F9000 X-9.49 Y-7.06
G1 F2520 X-7.06 Y-9.49 E178.83507
G0 F9000 X-7.91 Y-9.49
G1 F2520 X-9.49 Y-7.91 E178.97477
G0 F9000 X-9.49 Y-8.75
G1 F2520 X-8.75 Y-9.49 E179.03968
G0 F9000 X-8.75 Y-9.30
G0 X9.30 Y-8.22
G0 X9.49 Y-8.22
G1 F2520 X-8.22 Y9.49 E180.60116
G0 F9000 X-7.37 Y9.49
G1 F2520 X9.49 Y-7.37 E182.08785
G0 F9000 X9.49 Y-6.52
G1 F2520 X-6.52 Y9.49 E183.49966
G0 F9000 X-5.67 Y9.49
G1 F2520 X9.49 Y-5.67 E184.83660
G0 F9000 X9.49 Y-4.82
G1 F2520 X-4.82 Y9.49 E186.09875
G0 F9000 X-3.97 Y9.49
G1 F2520 X9.49 Y-3.97 E187.28602
G0 F9000 X9.49 Y-3.12
G1 F2520 X-3.12 Y9.49 E188.39850
G0 F9000 X-2.28 Y9.49
G1 F2520 X9.49 Y-2.28 E189.43611
G0 F9000 X9.49 Y-1.43
G1 F2520 X-1.43 Y9.49 E190.39892
G0 F9000 X-0.58 Y9.49
G1 F2520 X9.49 Y-0.58 E191.28686
G0 F9000 X9.49 Y0.27
G1 F2520 X0.27 Y9.49 E192.10010
G0 F9000 X1.12 Y9.49
G1 F2520 X9.49 Y1.12 E192.83846
G0 F9000 X9.49 Y1.97
G1 F2520 X1.97 Y9.49 E193.50204
G0 F9000 X2.81 Y9.49
G1 F2520 X9.49 Y2.81 E194.09073
G0 F9000 X9.49 Y3.66
G1 F2520 X3.66 Y9.49 E194.60464
G0 F9000 X4.51 Y9.49
G1 F2520 X9.49 Y4.51 E195.04367
G0 F9000 X9.49 Y5.36
G1 F2520 X5.36 Y9.49 E195.40792
G0 F9000 X6.21 Y9.49
G1 F2520 X9.49 Y6.21 E195.69728
G0 F9000 X9.49 Y7.06
G1 F2520 X7.06 Y9.49 E195.91186
G0 F9000 X7.91 Y9.49
G1 F2520 X9.49 Y7.91 E196.05156
G0 F9000 X9.49 Y8.75
G1 F2520 X8.75 Y9.49 E196.11647
G0 F9000 X8.20 Y8.20
;LAYER:4
G0 X9.30 Y9.39 Z1.30
G0 X9.70 Y9.70
;TYPE:WALL-OUTER
G1 F3000 X-9.70 Y9.70 E197.32631
G1 X-9.70 Y-9.70 E198.53614
G1 X9.70 Y-9.70 E199.74598
G1 X9.70 Y9.70 E200.95582
G0 F9000 X9.06 Y9.49
;TYPE:FILL
G1 F3000 X-9.49 Y-9.06 E202.59217
G0 F9000 X-9.06 Y-9.49
G1 F3000 X9.49 Y9.06 E204.22853
G0 F9000 X9.49 Y8.22
G1 F3000 X-8.22 Y-9.49 E205.79001
G0 F9000 X-7.37 Y-9.49
G1 F3000 X9.49 Y7.37 E207.27670
G0 F9000 X9.49 Y6.52
G1 F3000 X-6.52 Y-9.49 E208.68851
G0 F9000 X-5.67 Y-9.49
G1 F3000 X9.49 Y5.67 E210.02545
G0 F9000 X9.49 Y4.82
G1 F3000 X-4.82 Y-9.49 E211.28760
G0 F9000 X-3.97 Y-9.49
G1 F3000 X9.49 Y3.97 E212.47487
G0 F9000 X9.49 Y3.12
G1 F3000 X-3.12 Y-9.49 E213.58735
G0 F9000 X-2.28 Y-9.49
G1 F3000 X9.49 Y2.28 E214.62496
G0 F9000 X9.49 Y1.43
G1 F3000 X-1.43 Y-9.49 E215.58777
G0 F9000 X-0.58 Y-9.49
G1 F3000 X9.49 Y0.58 E216.47571
G0 F9000 X9.49 Y-0.27
G1 F3000 X0.27 Y-9.49 E217.28895
G0 F9000 X1.12 Y-9.49
G1 F3000 X9.49 Y-1.12 E218.02731
G0 F9000 X9.49 Y-1.97
G1 F3000 X1.97 Y-9.49 E218.69089
G0 F9000 X2.81 Y-9.49
G1 F3000 X9.49 Y-2.81 E219.27958
G0 F9000 X9.49 Y-3.66
G1 F3000 X3.66 Y-9.49 E219.79349
G0 F9000 X4.51 Y-9.49
G1 F3000 X9.49 Y-4.51 E220.23252
G0 F9000 X9.49 Y-5.36
G1 F3000 X5.36 Y-9.49 E220.59677
G0 F9000 X6.21 Y-9.49
G1 F3000 X9.49 Y-6.21 E220.88613
G0 F9000 X9.49 Y-7.06
G1 F3000 X7.06 Y-9.49 E221.10071
G0 F9000 X7.91 Y-9.49
G1 F3000 X9.49 Y-7.91 E221.24041
G0 F9000 X9.49 Y-8.75
G1 F3000 X8.75 Y-9.49 E221.30532
G0 F9000 X8.75 Y-9.30
G0 X-9.30 Y-8.22
G0 X-9.49 Y-8.22
G1 F3000 X8.22 Y9.49 E222.86680
G0 F9000 X7.37 Y9.49
G1 F3000 X-9.49 Y-7.37 E224.35349
G0 F9000 X-9.49 Y-6.52
G1 F3000 X6.52 Y9.49 E225.76530
G0 F9000 X5.67 Y9.49
G1 F3000 X-9.49 Y-5.67 E227.10224
G0 F9000 X-9.49 Y-4.82
G1 F3000 X4.82 Y9.49 E228.36439
G0 F9000 X3.97 Y9.49
G1 F3000 X-9.49 Y-3.97 E229.55166
G0 F9000 X-9.49 Y-3.12
G1 F3000 X3.12 Y9.49 E230.66414
G0 F9000 X2.28 Y9.49
G1 F3000 X-9.49 Y-2.28 E231.70175
G0 F9000 X-9.49 Y-1.43
G1 F3000 X1.43 Y9.49 E232.66456
G0 F9000 X0.58 Y9.49
G1 F3000 X-9.49 Y-0.58 E233.55250
G0 F9000 X-9.49 Y0.27
G1 F3000 X-0.27 Y9.49 E234.36574
G0 F9000 X-1.12 Y9.49
G1 F3000 X-9.49 Y1.12 E235.10410
G0 F9000 X-9.49 Y1.97
G1 F3000 X-1.97 Y9.49 E235.76768
G0 F9000 X-2.81 Y9.49
G1 F3000 X-9.49 Y2.81 E236.35637
G0 F9000 X-9.49 Y3.66
G1 F3000 X-3.66 Y9.49 E236.87028
G0 F9000 X-4.51 Y9.49
G1 F3000 X-9.49 Y4.51 E237.30931
G0 F9000 X-9.49 Y5.36
G1 F3000 X-5.36 Y9.49 E237.67355
G0 F9000 X-6.21 Y9.49
