;Generated with Cura_SteamEngine 13.12
M140 S100.000000
M109 T0 S230.000000
T0
M190 S100.000000

M136 (enable build)
M73 P0
G162 X Y F2000(home XY axes maximum)
G161 Z F900(home Z axis minimum)
G92 X0 Y0 Z-5 A0 B0 (set Z to -5)
G1 Z0.0 F9000(move Z to '0')
G161 Z F100(home Z axis minimum)
M132 X Y Z A B (Recall stored home offsets for XYZAB axis)
G92 X152 Y72 Z0 A0 B0
G1 X-100 Y-74 Z40 F9000 (move to waiting position)
G130 X20 Y20 A20 B20 (Lower stepper Vrefs while heating)
M135 T0
M104 S220 T0
M133 T0
G130 X127 Y127 A127 B127 (Set Stepper motor Vref to defaults)
; Sliced ?filename? at: Sat 21-06-2014 14:49:36
; Basic settings: Layer height: 0.25 Walls: 0.6 Fill: 30
; Print time: #P_TIME#
; Filament used: #F_AMNT#m #F_WGHT#g
; Filament cost: #F_COST#
M73 P0;
; -- end of START GCODE --

;Layer count: 100
;LAYER:0
M107
G0 F3600 X-13.30 Y1.30 Z0.30
;TYPE:SKIRT
G1 F2400 E0.00000
G1 F1200 X-14.80 Y1.30 E0.11225
G1 X-14.80 Y-10.30 E0.98034
G1 X-13.30 Y-10.30 E1.09260
G1 X-13.30 Y-13.30 E1.31710
G1 X-10.80 Y-13.30 E1.50419
G1 X-10.80 Y-14.70 E1.60896
G1 X10.10 Y-14.70 E3.17302
G1 X10.10 Y-13.30 E3.27779
G1 X13.30 Y-13.30 E3.51726
G1 X13.30 Y-10.70 E3.71183
G1 X14.90 Y-10.70 E3.83157
G1 X14.90 Y-2.10 E4.47515
G1 X13.30 Y-2.10 E4.59489
G1 X13.30 Y-1.50 E4.63979
G1 X14.90 Y-1.50 E4.75953
G1 X14.90 Y10.10 E5.62761
G1 X13.30 Y10.10 E5.74735
G1 X13.30 Y13.30 E5.98682
G1 X10.50 Y13.30 E6.19636
G1 X10.50 Y14.90 E6.31610
G1 X-10.40 Y14.90 E7.88016
G1 X-10.40 Y13.30 E7.99989
G1 X-13.30 Y13.30 E8.21692
G1 X-13.30 Y10.50 E8.42646
G1 X-14.80 Y10.50 E8.53871
G1 X-14.80 Y1.90 E9.18229
G1 X-13.30 Y1.90 E9.29454
G1 X-13.30 Y1.30 E9.33945
G0 F3600 X-13.90 Y11.10
G1 F1200 X-15.40 Y11.10 E9.45170
G1 X-15.40 Y-10.90 E11.09808
G1 X-13.90 Y-10.90 E11.21033
G1 X-13.90 Y-13.90 E11.43483
G1 X-11.40 Y-13.90 E11.62192
G1 X-11.40 Y-15.30 E11.72669
G1 X10.70 Y-15.30 E13.38055
G1 X10.70 Y-13.90 E13.48532
G1 X13.90 Y-13.90 E13.72479
G1 X13.90 Y-11.30 E13.91937
G1 X15.50 Y-11.30 E14.03910
G1 X15.50 Y10.70 E15.68548
G1 X13.90 Y10.70 E15.80522
G1 X13.90 Y13.90 E16.04469
G1 X11.10 Y13.90 E16.25423
G1 X11.10 Y15.50 E16.37396
G1 X-11.00 Y15.50 E18.02782
G1 X-11.00 Y13.90 E18.14756
G1 X-13.90 Y13.90 E18.36458
G1 X-13.90 Y11.10 E18.57412
G1 F2400 E14.07412
G0 F3600 X-9.70 Y9.70
;TYPE:WALL-OUTER
G1 F2400 E18.57412
G1 F1200 X-9.70 Y-9.70 E20.02593
G1 X9.70 Y-9.70 E21.47773
G1 X9.70 Y9.70 E22.92954
G1 X-9.70 Y9.70 E24.38134
G0 F3600 X-9.49 Y8.75
;TYPE:FILL
G1 F1200 X-8.75 Y9.49 E24.45924
G0 F3600 X-7.91 Y9.49
G1 F1200 X-9.49 Y7.91 E24.62687
G0 F3600 X-9.49 Y7.06
G1 F1200 X-7.06 Y9.49 E24.88437
G0 F3600 X-6.21 Y9.49
G1 F1200 X-9.49 Y6.21 E25.23161
G0 F3600 X-9.49 Y5.36
G1 F1200 X-5.36 Y9.49 E25.66870
G0 F3600 X-4.51 Y9.49
G1 F1200 X-9.49 Y4.51 E26.19553
G0 F3600 X-9.49 Y3.66
G1 F1200 X-3.66 Y9.49 E26.81222
G0 F3600 X-2.81 Y9.49
G1 F1200 X-9.49 Y2.81 E27.51866
G0 F3600 X-9.49 Y1.97
G1 F1200 X-1.97 Y9.49 E28.31495
G0 F3600 X-1.12 Y9.49
G1 F1200 X-9.49 Y1.12 E29.20098
G0 F3600 X-9.49 Y0.27
G1 F1200 X-0.27 Y9.49 E30.17687
G0 F3600 X0.58 Y9.49
G1 F1200 X-9.49 Y-0.58 E31.24240
G0 F3600 X-9.49 Y-1.43
G1 F1200 X1.43 Y9.49 E32.39778
G0 F3600 X2.28 Y9.49
G1 F1200 X-9.49 Y-2.28 E33.64290
G0 F3600 X-9.49 Y-3.12
G1 F1200 X3.12 Y9.49 E34.97788
G0 F3600 X3.97 Y9.49
G1 F1200 X-9.49 Y-3.97 E36.40261
G0 F3600 X-9.49 Y-4.82
G1 F1200 X4.82 Y9.49 E37.91718
G0 F3600 X5.67 Y9.49
G1 F1200 X-9.49 Y-5.67 E39.52151
G0 F3600 X-9.49 Y-6.52
G1 F1200 X6.52 Y9.49 E41.21568
G0 F3600 X7.37 Y9.49
G1 F1200 X-9.49 Y-7.37 E42.99971
G0 F3600 X-9.49 Y-8.22
G1 F1200 X8.22 Y9.49 E44.87349
G0 F3600 X9.06 Y9.49
G1 F1200 X-9.49 Y-9.06 E46.83712
G0 F3600 X-9.06 Y-9.49
G1 F1200 X9.49 Y9.06 E48.80074
G0 F3600 X9.49 Y8.22
G1 F1200 X-8.22 Y-9.49 E50.67452
G0 F3600 X-7.37 Y-9.49
G1 F1200 X9.49 Y7.37 E52.45855
G0 F3600 X9.49 Y6.52
G1 F1200 X-6.52 Y-9.49 E54.15272
G0 F3600 X-5.67 Y-9.49
G1 F1200 X9.49 Y5.67 E55.75705
G0 F3600 X9.49 Y4.82
G1 F1200 X-4.82 Y-9.49 E57.27162
G0 F3600 X-3.97 Y-9.49
G1 F1200 X9.49 Y3.97 E58.69635
G0 F3600 X9.49 Y3.12
G1 F1200 X-3.12 Y-9.49 E60.03133
G0 F3600 X-2.28 Y-9.49
G1 F1200 X9.49 Y2.28 E61.27645
G0 F3600 X9.49 Y1.43
G1 F1200 X-1.43 Y-9.49 E62.43183
G0 F3600 X-0.58 Y-9.49
G1 F1200 X9.49 Y0.58 E63.49736
G0 F3600 X9.49 Y-0.27
G1 F1200 X0.27 Y-9.49 E64.47325
G0 F3600 X1.12 Y-9.49
G1 F1200 X9.49 Y-1.12 E65.35928
G0 F3600 X9.49 Y-1.97
G1 F1200 X1.97 Y-9.49 E66.15557
G0 F3600 X2.81 Y-9.49
G1 F1200 X9.49 Y-2.81 E66.86201
G0 F3600 X9.49 Y-3.66
G1 F1200 X3.66 Y-9.49 E67.47870
G0 F3600 X4.51 Y-9.49
G1 F1200 X9.49 Y-4.51 E68.00553
G0 F3600 X9.49 Y-5.36
G1 F1200 X5.36 Y-9.49 E68.44263
G0 F3600 X6.21 Y-9.49
G1 F1200 X9.49 Y-6.21 E68.78986
G0 F3600 X9.49 Y-7.06
G1 F1200 X7.06 Y-9.49 E69.04736
G0 F3600 X7.91 Y-9.49
G1 F1200 X9.49 Y-7.91 E69.21500
G0 F3600 X9.49 Y-8.75
G1 F1200 X8.75 Y-9.49 E69.29289
G0 F3600 X8.20 Y-8.20
;LAYER:1
M106 S255
G0 F9000 X9.30 Y-9.39 Z0.55
G0 X9.70 Y-9.70
;TYPE:WALL-OUTER
G1 F1620 X9.70 Y9.70 E70.50273
G1 X-9.70 Y9.70 E71.71256
G1 X-9.70 Y-9.70 E72.92240
G1 X9.70 Y-9.70 E74.13224
G0 F9000 X9.49 Y-9.06
;TYPE:FILL
G1 F1620 X-9.06 Y9.49 E75.76859
G0 F9000 X-9.49 Y9.06
G1 F1620 X9.06 Y-9.49 E77.40495
G0 F9000 X8.22 Y-9.49
G1 F1620 X-9.49 Y8.22 E78.96643
G0 F9000 X-9.49 Y7.37
G1 F1620 X7.37 Y-9.49 E80.45312
G0 F9000 X6.52 Y-9.49
G1 F1620 X-9.49 Y6.52 E81.86493
G0 F9000 X-9.49 Y5.67
G1 F1620 X5.67 Y-9.49 E83.20187
G0 F9000 X4.82 Y-9.49
G1 F1620 X-9.49 Y4.82 E84.46402
G0 F9000 X-9.49 Y3.97
G1 F1620 X3.97 Y-9.49 E85.65129
G0 F9000 X3.12 Y-9.49
G1 F1620 X-9.49 Y3.12 E86.76377
G0 F9000 X-9.49 Y2.28
G1 F1620 X2.28 Y-9.49 E87.80138
G0 F9000 X1.43 Y-9.49
G1 F1620 X-9.49 Y1.43 E88.76419
G0 F9000 X-9.49 Y0.58
G1 F1620 X0.58 Y-9.49 E89.65213
G0 F9000 X-0.27 Y-9.49
G1 F1620 X-9.49 Y-0.27 E90.46537
G0 F9000 X-9.49 Y-1.12
G1 F1620 X-1.12 Y-9.49 E91.20373
G0 F9000 X-1.97 Y-9.49
G1 F1620 X-9.49 Y-1.97 E91.86731
G0 F9000 X-9.49 Y-2.81
G1 F1620 X-2.81 Y-9.49 E92.45601
G0 F9000 X-3.66 Y-9.49
G1 F1620 X-9.49 Y-3.66 E92.96991
G0 F9000 X-9.49 Y-4.51
G1 F1620 X-4.51 Y-9.49 E93.40894
G0 F9000 X-5.36 Y-9.49
G1 F1620 X-9.49 Y-5.36 E93.77319
G0 F9000 X-9.49 Y-6.21
G1 F1620 X-6.21 Y-9.49 E94.06255
G0 F9000 X-7.06 Y-9.49
G1 F1620 X-9.49 Y-7.06 E94.27713
G0 F9000 X-9.49 Y-7.91
G1 F1620 X-7.91 Y-9.49 E94.41683
G0 F9000 X-8.75 Y-9.49
G1 F1620 X-9.49 Y-8.75 E94.48174
G0 F9000 X-9.30 Y-8.75
G0 X-8.22 Y9.30
G0 X-8.22 Y9.49
G1 F1620 X9.49 Y-8.22 E96.04322
G0 F9000 X9.49 Y-7.37
G1 F1620 X-7.37 Y9.49 E97.52991
G0 F9000 X-6.52 Y9.49
G1 F1620 X9.49 Y-6.52 E98.94172
G0 F9000 X9.49 Y-5.67
G1 F1620 X-5.67 Y9.49 E100.27866
G0 F9000 X-4.82 Y9.49
G1 F1620 X9.49 Y-4.82 E101.54081
G0 F9000 X9.49 Y-3.97
G1 F1620 X-3.97 Y9.49 E102.72808
G0 F9000 X-3.12 Y9.49
G1 F1620 X9.49 Y-3.12 E103.84056
G0 F9000 X9.49 Y-2.28
G1 F1620 X-2.28 Y9.49 E104.87817
G0 F9000 X-1.43 Y9.49
G1 F1620 X9.49 Y-1.43 E105.84098
G0 F9000 X9.49 Y-0.58
G1 F1620 X-0.58 Y9.49 E106.72892
G0 F9000 X0.27 Y9.49
G1 F1620 X9.49 Y0.27 E107.54216
G0 F9000 X9.49 Y1.12
G1 F1620 X1.12 Y9.49 E108.28052
G0 F9000 X1.97 Y9.49
G1 F1620 X9.49 Y1.97 E108.94410
G0 F9000 X9.49 Y2.81
G1 F1620 X2.81 Y9.49 E109.53279
G0 F9000 X3.66 Y9.49
G1 F1620 X9.49 Y3.66 E110.04670
G0 F9000 X9.49 Y4.51
G1 F1620 X4.51 Y9.49 E110.48573
G0 F9000 X5.36 Y9.49
G1 F1620 X9.49 Y5.36 E110.84997
G0 F9000 X9.49 Y6.21
G1 F1620 X6.21 Y9.49 E111.13934
G0 F9000 X7.06 Y9.49
G1 F1620 X9.49 Y7.06 E111.35392
G0 F9000 X9.49 Y7.91
G1 F1620 X7.91 Y9.49 E111.49362
G0 F9000 X8.75 Y9.49
G1 F1620 X9.49 Y8.75 E111.55853
G0 F9000 X8.20 Y8.20
;LAYER:2
G0 X9.30 Y9.39 Z0.80
G0 X9.70 Y9.70
;TYPE:WALL-OUTER
G1 F2100 X-9.70 Y9.70 E112.76836
G1 X-9.70 Y-9.70 E113.97820
G1 X9.70 Y-9.70 E115.18804
G1 X9.70 Y9.70 E116.39788
G0 F9000 X9.06 Y9.49
;TYPE:FILL
G1 F2100 X-9.49 Y-9.06 E118.03423
G0 F9000 X-9.06 Y-9.49
G1 F2100 X9.49 Y9.06 E119.67059
G0 F9000 X9.49 Y8.22
G1 F2100 X-8.22 Y-9.49 E121.23207
G0 F9000 X-7.37 Y-9.49
G1 F2100 X9.49 Y7.37 E122.71876
G0 F9000 X9.49 Y6.52
G1 F2100 X-6.52 Y-9.49 E124.13057
G0 F9000 X-5.67 Y-9.49
G1 F2100 X9.49 Y5.67 E125.46751
G0 F9000 X9.49 Y4.82
G1 F2100 X-4.82 Y-9.49 E126.72966
G0 F9000 X-3.97 Y-9.49
G1 F2100 X9.49 Y3.97 E127.91693
G0 F9000 X9.49 Y3.12
G1 F2100 X-3.12 Y-9.49 E129.02941
G0 F9000 X-2.28 Y-9.49
G1 F2100 X9.49 Y2.28 E130.06702
G0 F9000 X9.49 Y1.43
G1 F2100 X-1.43 Y-9.49 E131.02983
G0 F9000 X-0.58 Y-9.49
G1 F2100 X9.49 Y0.58 E131.91777
G0 F9000 X9.49 Y-0.27
G1 F2100 X0.27 Y-9.49 E132.73101
G0 F9000 X1.12 Y-9.49
G1 F2100 X9.49 Y-1.12 E133.46937
G0 F9000 X9.49 Y-1.97
G1 F2100 X1.97 Y-9.49 E134.13295
G0 F9000 X2.81 Y-9.49
G1 F2100 X9.49 Y-2.81 E134.72164
G0 F9000 X9.49 Y-3.66
G1 F2100 X3.66 Y-9.49 E135.23555
G0 F9000 X4.51 Y-9.49
G1 F2100 X9.49 Y-4.51 E135.67458
G0 F9000 X9.49 Y-5.36
G1 F2100 X5.36 Y-9.49 E136.03882
G0 F9000 X6.21 Y-9.49
G1 F2100 X9.49 Y-6.21 E136.32819
G0 F9000 X9.49 Y-7.06
G1 F2100 X7.06 Y-9.49 E136.54277
G0 F9000 X7.91 Y-9.49
G1 F2100 X9.49 Y-7.91 E136.68247
G0 F9000 X9.49 Y-8.75
G1 F2100 X8.75 Y-9.49 E136.74738
G0 F9000 X8.75 Y-9.30
G0 X-9.30 Y-8.22
G0 X-9.49 Y-8.22
G1 F2100 X8.22 Y9.49 E138.30886
G0 F9000 X7.37 Y9.49
G1 F2100 X-9.49 Y-7.37 E139.79555
G0 F9000 X-9.49 Y-6.52
G1 F2100 X6.52 Y9.49 E141.20736
G0 F9000 X5.67 Y9.49
G1 F2100 X-9.49 Y-5.67 E142.54430
G0 F9000 X-9.49 Y-4.82
G1 F2100 X4.82 Y9.49 E143.80645
G0 F9000 X3.97 Y9.49
G1 F2100 X-9.49 Y-3.97 E144.99372
G0 F9000 X-9.49 Y-3.12
G1 F2100 X3.12 Y9.49 E146.10620
G0 F9000 X2.28 Y9.49
G1 F2100 X-9.49 Y-2.28 E147.14380
G0 F9000 X-9.49 Y-1.43
G1 F2100 X1.43 Y9.49 E148.10662
G0 F9000 X0.58 Y9.49
G1 F2100 X-9.49 Y-0.58 E148.99456
G0 F9000 X-9.49 Y0.27
G1 F2100 X-0.27 Y9.49 E149.80780
G0 F9000 X-1.12 Y9.49
G1 F2100 X-9.49 Y1.12 E150.54616
G0 F9000 X-9.49 Y1.97
G1 F2100 X-1.97 Y9.49 E151.20974
G0 F9000 X-2.81 Y9.49
G1 F2100 X-9.49 Y2.81 E151.79843
G0 F9000 X-9.49 Y3.66
G1 F2100 X-3.66 Y9.49 E152.31234
G0 F9000 X-4.51 Y9.49
G1 F2100 X-9.49 Y4.51 E152.75137
G0 F9000 X-9.49 Y5.36
G1 F2100 X-5.36 Y9.49 E153.11561
G0 F9000 X-6.21 Y9.49
G1 F2100 X-9.49 Y6.21 E153.40498
G0 F9000 X-9.49 Y7.06
G1 F2100 X-7.06 Y9.49 E153.61956
G0 F9000 X-7.91 Y9.49
G1 F2100 X-9.49 Y7.91 E153.75925
G0 F9000 X-9.49 Y8.75
G1 F2100 X-8.75 Y9.49 E153.82417
G0 F9000 X-8.20 Y8.20
;LAYER:3
G0 X-9.39 Y9.30 Z1.05
G0 X-9.70 Y9.70
;TYPE:WALL-OUTER
G1 F2520 X-9.70 Y-9.70 E155.03400
G1 X9.70 Y-9.70 E156.24384
G1 X9.70 Y9.70 E157.45368
G1 X-9.70 Y9.70 E158.66352
G0 F9000 X-9.06 Y9.49
;TYPE:FILL
G1 F2520 X9.49 Y-9.06 E160.29987
G0 F9000 X9.06 Y-9.49
G1 F2520 X-9.49 Y9.06 E161.93623
G0 F9000 X-9.49 Y8.22
G1 F2520 X8.22 Y-9.49 E163.49771
G0 F9000 X7.37 Y-9.49
G1 F2520 X-9.49 Y7.37 E164.98440
G0 F9000 X-9.49 Y6.52
G1 F2520 X6.52 Y-9.49 E166.39621
G0 F9000 X5.67 Y-9.49
G1 F2520 X-9.49 Y5.67 E167.73315
G0 F9000 X-9.49 Y4.82
G1 F2520 X4.82 Y-9.49 E168.99530
G0 F9000 X3.97 Y-9.49
G1 F2520 X-9.49 Y3.97 E170.18257
G0 F9000 X-9.49 Y3.12
G1 F2520 X3.12 Y-9.49 E171.29505
G0 F9000 X2.28 Y-9.49
G1 F2520 X-9.49 Y2.28 E172.33265
G0 F9000 X-9.49 Y1.43
G1 F2520 X1.43 Y-9.49 E173.29547
G0 F9000 X0.58 Y-9.49
G1 F2520 X-9.49 Y0.58 E174.18341
G0 F9000 X-9.49 Y-0.27
G1 F2520 X-0.27 Y-9.49 E174.99665
G0 F9000 X-1.12 Y-9.49
G1 F2520 X-9.49 Y-1.12 E175.73501
G0 F9000 X-9.49 Y-1.97
G1 F2520 X-1.97 Y-9.49 E176.39859
G0 F9000 X-2.81 Y-9.49
G1 F2520 X-9.49 Y-2.81 E176.98728
G0 F9000 X-9.49 Y-3.66
G1 F2520 X-3.66 Y-9.49 E177.50119
G0 F9000 X-4.51 Y-9.49
G1 F2520 X-9.49 Y-4.51 E177.94022
G0 F9000 X-9.49 Y-5.36
G1 F2520 X-5.36 Y-9.49 E178.30446
G0 F9000 X-6.21 Y-9.49
G1 F2520 X-9.49 Y-6.21 E178.59383
G0 F9000 X-9.49 Y-7.06
G1 F2520 X-7.06 Y-9.49 E178.80841
G0 F9000 X-7.91 Y-9.49
G1 F2520 X-9.49 Y-7.91 E178.94811
G0 F9000 X-9.49 Y-8.75
G1 F2520 X-8.75 Y-9.49 E179.01302
G0 F9000 X-8.75 Y-9.30
G0 X9.30 Y-8.22
G0 X9.49 Y-8.22
G1 F2520 X-8.22 Y9.49 E180.57450
G0 F9000 X-7.37 Y9.49
G1 F2520 X9.49 Y-7.37 E182.06119
G0 F9000 X9.49 Y-6.52
G1 F2520 X-6.52 Y9.49 E183.47300
G0 F9000 X-5.67 Y9.49
G1 F2520 X9.49 Y-5.67 E184.80994
G0 F9000 X9.49 Y-4.82
G1 F2520 X-4.82 Y9.49 E186.07208
G0 F9000 X-3.97 Y9.49
G1 F2520 X9.49 Y-3.97 E187.25935
G0 F9000 X9.49 Y-3.12
G1 F2520 X-3.12 Y9.49 E188.37184
G0 F9000 X-2.28 Y9.49
G1 F2520 X9.49 Y-2.28 E189.40944
G0 F9000 X9.49 Y-1.43
G1 F2520 X-1.43 Y9.49 E190.37226
G0 F9000 X-0.58 Y9.49
G1 F2520 X9.49 Y-0.58 E191.26020
G0 F9000 X9.49 Y0.27
G1 F2520 X0.27 Y9.49 E192.07344
G0 F9000 X1.12 Y9.49
G1 F2520 X9.49 Y1.12 E192.81180
G0 F9000 X9.49 Y1.97
G1 F2520 X1.97 Y9.49 E193.47537
G0 F9000 X2.81 Y9.49
G1 F2520 X9.49 Y2.81 E194.06407
G0 F9000 X9.49 Y3.66
G1 F2520 X3.66 Y9.49 E194.57798
G0 F9000 X4.51 Y9.49
G1 F2520 X9.49 Y4.51 E195.01701
G0 F9000 X9.49 Y5.36
G1 F2520 X5.36 Y9.49 E195.38125
G0 F9000 X6.21 Y9.49
G1 F2520 X9.49 Y6.21 E195.67062
G0 F9000 X9.49 Y7.06
G1 F2520 X7.06 Y9.49 E195.88519
G0 F9000 X7.91 Y9.49
G1 F2520 X9.49 Y7.91 E196.02489
G0 F9000 X9.49 Y8.75
G1 F2520 X8.75 Y9.49 E196.08980
G0 F9000 X8.20 Y8.20
;LAYER:4
G0 X9.30 Y9.39 Z1.30
G0 X9.70 Y9.70
;TYPE:WALL-OUTER
G1 F3000 X-9.70 Y9.70 E197.29964
G1 X-9.70 Y-9.70 E198.50948
G1 X9.70 Y-9.70 E199.71932
G1 X9.70 Y9.70 E200.92915
G0 F9000 X9.06 Y9.49
;TYPE:FILL
G1 F3000 X-9.49 Y-9.06 E202.56551
G0 F9000 X-9.06 Y-9.49
G1 F3000 X9.49 Y9.06 E204.20187
G0 F9000 X9.49 Y8.22
G1 F3000 X-8.22 Y-9.49 E205.76335
G0 F9000 X-7.37 Y-9.49
G1 F3000 X9.49 Y7.37 E207.25004
G0 F9000 X9.49 Y6.52
G1 F3000 X-6.52 Y-9.49 E208.66185
G0 F9000 X-5.67 Y-9.49
G1 F3000 X9.49 Y5.67 E209.99879
G0 F9000 X9.49 Y4.82
G1 F3000 X-4.82 Y-9.49 E211.26093
G0 F9000 X-3.97 Y-9.49
G1 F3000 X9.49 Y3.97 E212.44821
G0 F9000 X9.49 Y3.12
G1 F3000 X-3.12 Y-9.49 E213.56069
G0 F9000 X-2.28 Y-9.49
G1 F3000 X9.49 Y2.28 E214.59829
G0 F9000 X9.49 Y1.43
G1 F3000 X-1.43 Y-9.49 E215.56111
G0 F9000 X-0.58 Y-9.49
G1 F3000 X9.49 Y0.58 E216.44905
G0 F9000 X9.49 Y-0.27
G1 F3000 X0.27 Y-9.49 E217.26229
G0 F9000 X1.12 Y-9.49
G1 F3000 X9.49 Y-1.12 E218.00065
G0 F9000 X9.49 Y-1.97
G1 F3000 X1.97 Y-9.49 E218.66422
G0 F9000 X2.81 Y-9.49
G1 F3000 X9.49 Y-2.81 E219.25292
G0 F9000 X9.49 Y-3.66
G1 F3000 X3.66 Y-9.49 E219.76683
G0 F9000 X4.51 Y-9.49
G1 F3000 X9.49 Y-4.51 E220.20586
G0 F9000 X9.49 Y-5.36
G1 F3000 X5.36 Y-9.49 E220.57010
G0 F9000 X6.21 Y-9.49
G1 F3000 X9.49 Y-6.21 E220.85947
G0 F9000 X9.49 Y-7.06
G1 F3000 X7.06 Y-9.49 E221.07404
G0 F9000 X7.91 Y-9.49
G1 F3000 X9.49 Y-7.91 E221.21374
G0 F9000 X9.49 Y-8.75
G1 F3000 X8.75 Y-9.49 E221.27865
G0 F9000 X8.75 Y-9.30
G0 X-9.30 Y-8.22
G0 X-9.49 Y-8.22
G1 F3000 X8.22 Y9.49 E222.84013
G0 F9000 X7.37 Y9.49
G1 F3000 X-9.49 Y-7.37 E224.32682
G0 F9000 X-9.49 Y-6.52
G1 F3000 X6.52 Y9.49 E225.73864
G0 F9000 X5.67 Y9.49
G1 F3000 X-9.49 Y-5.67 E227.07557
G0 F9000 X-9.49 Y-4.82
G1 F3000 X4.82 Y9.49 E228.33772
G0 F9000 X3.97 Y9.49
G1 F3000 X-9.49 Y-3.97 E229.52499
G0 F9000 X-9.49 Y-3.12
G1 F3000 X3.12 Y9.49 E230.63748
G0 F9000 X2.28 Y9.49
G1 F3000 X-9.49 Y-2.28 E231.67508
G0 F9000 X-9.49 Y-1.43
G1 F3000 X1.43 Y9.49 E232.63790
G0 F9000 X0.58 Y9.49
G1 F3000 X-9.49 Y-0.58 E233.52584
G0 F9000 X-9.49 Y0.27
G1 F3000 X-0.27 Y9.49 E234.33908
G0 F9000 X-1.12 Y9.49
G1 F3000 X-9.49 Y1.12 E235.07744
G0 F9000 X-9.49 Y1.97
G1 F3000 X-1.97 Y9.49 E235.74101
G0 F9000 X-2.81 Y9.49
G1 F3000 X-9.49 Y2.81 E236.32971
G0 F9000 X-9.49 Y3.66
G1 F3000 X-3.66 Y9.49 E236.84362
G0 F9000 X-4.51 Y9.49
G1 F3000 X-9.49 Y4.51 E237.28265
G0 F9000 X-9.49 Y5.36
G1 F3000 X-5.36 Y9.49 E237.64689
G0 F9000 X-6.21 Y9.49
G1 F3000 X-9.49 Y6.21 E237.93626
G0 F9000 X-9.49 Y7.06
G1 F3000 X-7.06 Y9.49 E238.15083
G0 F9000 X-7.91 Y9.49
G1 F3000 X-9.49 Y7.91 E238.29053
G0 F9000 X-9.49 Y8.75
G1 F3000 X-8.75 Y9.49 E238.35544
G0 F9000 X-8.20 Y8.20
;LAYER:5
G0 X-9.39 Y9.30 Z1.55
G0 X-9.70 Y9.70
;TYPE:WALL-OUTER
G1 F3000 X-9.70 Y-9.70 E239.56528
G1 X9.70 Y-9.70 E240.77512
G1 X9.70 Y9.70 E241.98496
G1 X-9.70 Y9.70 E243.19479
G0 F9000 X-9.06 Y9.49
;TYPE:FILL
G1 F3000 X-8.94 Y8.94 E243.22465
G1 X-9.49 Y8.64 E243.25453
G1 X-9.15 Y7.88 E243.30660
G0 F9000 X-9.33 Y7.92
G1 F3000 X7.92 Y-9.33 E244.82760
G0 F9000 X7.88 Y-9.15
G1 F3000 X8.47 Y-9.32 E244.85745
G1 X9.28 Y-9.28 E244.88731
G1 X9.32 Y-8.47 E244.91718
G1 X9.15 Y-7.88 E244.95569
G0 F9000 X9.33 Y-7.92
