;Generated with Cura_SteamEngine 13.12
M140 S100.000000
M109 T0 S230.000000
T0
M190 S100.000000

M136 (enable build)
M73 P0
G162 X Y F2000(home XY axes maximum)
G161 Z F900(home Z axis minimum)
G92 X0 Y0 Z-5 A0 B0 (set Z to -5)
G1 Z0.0 F9000(move Z to '0')
G161 Z F100(home Z axis minimum)
M132 X Y Z A B (Recall stored home offsets for XYZAB axis)
G92 X152 Y72 Z0 A0 B0
G1 X-100 Y-74 Z40 F9000 (move to waiting position)
G130 X20 Y20 A20 B20 (Lower stepper Vrefs while heating)
M135 T0
M104 S220 T0
M133 T0
G130 X127 Y127 A127 B127 (Set Stepper motor Vref to defaults)
; Sliced ?filename? at: Tue 24-06-2014 20:41:44
; Basic settings: Layer height: 0.25 Walls: 0.6 Fill: 30
; Print time: #P_TIME#
; Filament used: #F_AMNT#m #F_WGHT#g
; Filament cost: #F_COST#
M73 P0;
; -- end of START GCODE --

;Layer count: 100
;LAYER:0
M107
G0 F3600 X13.30 Y13.30 Z0.30
;TYPE:SKIRT
G1 F2400 E0.00000
G1 F1200 X-13.30 Y13.30 E1.99062
G1 X-13.30 Y-13.30 E3.98124
G1 X13.30 Y-13.30 E5.97186
G1 X13.30 Y13.30 E7.96248
G0 F3600 X13.90 Y13.90
G1 F1200 X-13.90 Y13.90 E10.04290
G1 X-13.90 Y-13.90 E12.12332
G1 X13.90 Y-13.90 E14.20374
G1 X13.90 Y13.90 E16.28416
G1 F2400 E11.78416
G0 F3600 X9.70 Y9.70
;TYPE:WALL-OUTER
G1 F2400 E16.28416
G1 F1200 X-9.70 Y9.70 E17.73597
G1 X-9.70 Y-9.70 E19.18777
G1 X9.70 Y-9.70 E20.63958
G1 X9.70 Y9.70 E22.09138
G0 F3600 X9.06 Y9.49
;TYPE:FILL
G1 F1200 X-9.49 Y-9.06 E24.05501
G0 F3600 X-9.06 Y-9.49
G1 F1200 X9.49 Y9.06 E26.01864
G0 F3600 X9.49 Y8.22
G1 F1200 X-8.22 Y-9.49 E27.89241
G0 F3600 X-7.37 Y-9.49
G1 F1200 X9.49 Y7.37 E29.67644
G0 F3600 X9.49 Y6.52
G1 F1200 X-6.52 Y-9.49 E31.37062
G0 F3600 X-5.67 Y-9.49
G1 F1200 X9.49 Y5.67 E32.97494
G0 F3600 X9.49 Y4.82
G1 F1200 X-4.82 Y-9.49 E34.48952
G0 F3600 X-3.97 Y-9.49
G1 F1200 X9.49 Y3.97 E35.91424
G0 F3600 X9.49 Y3.12
G1 F1200 X-3.12 Y-9.49 E37.24922
G0 F3600 X-2.28 Y-9.49
G1 F1200 X9.49 Y2.28 E38.49435
G0 F3600 X9.49 Y1.43
G1 F1200 X-1.43 Y-9.49 E39.64973
G0 F3600 X-0.58 Y-9.49
G1 F1200 X9.49 Y0.58 E40.71526
G0 F3600 X9.49 Y-0.27
G1 F1200 X0.27 Y-9.49 E41.69114
G0 F3600 X1.12 Y-9.49
G1 F1200 X9.49 Y-1.12 E42.57718
G0 F3600 X9.49 Y-1.97
G1 F1200 X1.97 Y-9.49 E43.37347
G0 F3600 X2.81 Y-9.49
G1 F1200 X9.49 Y-2.81 E44.07990
G0 F3600 X9.49 Y-3.66
G1 F1200 X3.66 Y-9.49 E44.69659
G0 F3600 X4.51 Y-9.49
G1 F1200 X9.49 Y-4.51 E45.22343
G0 F3600 X9.49 Y-5.36
G1 F1200 X5.36 Y-9.49 E45.66052
G0 F3600 X6.21 Y-9.49
G1 F1200 X9.49 Y-6.21 E46.00776
G0 F3600 X9.49 Y-7.06
G1 F1200 X7.06 Y-9.49 E46.26525
G0 F3600 X7.91 Y-9.49
G1 F1200 X9.49 Y-7.91 E46.43289
G0 F3600 X9.49 Y-8.75
G1 F1200 X8.75 Y-9.49 E46.51078
G0 F3600 X8.75 Y-9.30
G0 X-9.30 Y-8.22
G0 X-9.49 Y-8.22
G1 F1200 X8.22 Y9.49 E48.38456
G0 F3600 X7.37 Y9.49
G1 F1200 X-9.49 Y-7.37 E50.16859
G0 F3600 X-9.49 Y-6.52
G1 F1200 X6.52 Y9.49 E51.86276
G0 F3600 X5.67 Y9.49
G1 F1200 X-9.49 Y-5.67 E53.46709
G0 F3600 X-9.49 Y-4.82
G1 F1200 X4.82 Y9.49 E54.98166
G0 F3600 X3.97 Y9.49
G1 F1200 X-9.49 Y-3.97 E56.40639
G0 F3600 X-9.49 Y-3.12
G1 F1200 X3.12 Y9.49 E57.74137
G0 F3600 X2.28 Y9.49
G1 F1200 X-9.49 Y-2.28 E58.98649
G0 F3600 X-9.49 Y-1.43
G1 F1200 X1.43 Y9.49 E60.14187
G0 F3600 X0.58 Y9.49
G1 F1200 X-9.49 Y-0.58 E61.20740
G0 F3600 X-9.49 Y0.27
G1 F1200 X-0.27 Y9.49 E62.18329
G0 F3600 X-1.12 Y9.49
G1 F1200 X-9.49 Y1.12 E63.06932
G0 F3600 X-9.49 Y1.97
G1 F1200 X-1.97 Y9.49 E63.86561
G0 F3600 X-2.81 Y9.49
G1 F1200 X-9.49 Y2.81 E64.57205
G0 F3600 X-9.49 Y3.66
G1 F1200 X-3.66 Y9.49 E65.18874
G0 F3600 X-4.51 Y9.49
G1 F1200 X-9.49 Y4.51 E65.71557
G0 F3600 X-9.49 Y5.36
G1 F1200 X-5.36 Y9.49 E66.15267
G0 F3600 X-6.21 Y9.49
G1 F1200 X-9.49 Y6.21 E66.49990
G0 F3600 X-9.49 Y7.06
G1 F1200 X-7.06 Y9.49 E66.75740
G0 F3600 X-7.91 Y9.49
G1 F1200 X-9.49 Y7.91 E66.92504
G0 F3600 X-9.49 Y8.75
G1 F1200 X-8.75 Y9.49 E67.00293
G0 F3600 X-8.20 Y8.20
;LAYER:1
M106 S255
G0 F9000 X-9.39 Y9.30 Z0.55
G0 X-9.70 Y9.70
;TYPE:WALL-OUTER
G1 F1620 X-9.70 Y-9.70 E68.21277
G1 X9.70 Y-9.70 E69.42260
G1 X9.70 Y9.70 E70.63244
G1 X-9.70 Y9.70 E71.84228
G0 F9000 X-9.06 Y9.49
;TYPE:FILL
G1 F1620 X9.49 Y-9.06 E73.47863
G0 F9000 X9.06 Y-9.49
G1 F1620 X-9.49 Y9.06 E75.11499
G0 F9000 X-9.49 Y8.22
G1 F1620 X8.22 Y-9.49 E76.67647
G0 F9000 X7.37 Y-9.49
G1 F1620 X-9.49 Y7.37 E78.16316
G0 F9000 X-9.49 Y6.52
G1 F1620 X6.52 Y-9.49 E79.57497
G0 F9000 X5.67 Y-9.49
G1 F1620 X-9.49 Y5.67 E80.91191
G0 F9000 X-9.49 Y4.82
G1 F1620 X4.82 Y-9.49 E82.17406
G0 F9000 X3.97 Y-9.49
G1 F1620 X-9.49 Y3.97 E83.36133
G0 F9000 X-9.49 Y3.12
G1 F1620 X3.12 Y-9.49 E84.47381
G0 F9000 X2.28 Y-9.49
G1 F1620 X-9.49 Y2.28 E85.51142
G0 F9000 X-9.49 Y1.43
G1 F1620 X1.43 Y-9.49 E86.47423
G0 F9000 X0.58 Y-9.49
G1 F1620 X-9.49 Y0.58 E87.36217
G0 F9000 X-9.49 Y-0.27
G1 F1620 X-0.27 Y-9.49 E88.17541
G0 F9000 X-1.12 Y-9.49
G1 F1620 X-9.49 Y-1.12 E88.91377
G0 F9000 X-9.49 Y-1.97
G1 F1620 X-1.97 Y-9.49 E89.57735
G0 F9000 X-2.81 Y-9.49
G1 F1620 X-9.49 Y-2.81 E90.16604
G0 F9000 X-9.49 Y-3.66
G1 F1620 X-3.66 Y-9.49 E90.67995
G0 F9000 X-4.51 Y-9.49
G1 F1620 X-9.49 Y-4.51 E91.11898
G0 F9000 X-9.49 Y-5.36
G1 F1620 X-5.36 Y-9.49 E91.48323
G0 F9000 X-6.21 Y-9.49
G1 F1620 X-9.49 Y-6.21 E91.77259
G0 F9000 X-9.49 Y-7.06
G1 F1620 X-7.06 Y-9.49 E91.98717
G0 F9000 X-7.91 Y-9.49
G1 F1620 X-9.49 Y-7.91 E92.12687
G0 F9000 X-9.49 Y-8.75
G1 F1620 X-8.75 Y-9.49 E92.19178
G0 F9000 X-8.75 Y-9.30
G0 X9.30 Y-8.22
G0 X9.49 Y-8.22
G1 F1620 X-8.22 Y9.49 E93.75326
G0 F9000 X-7.37 Y9.49
G1 F1620 X9.49 Y-7.37 E95.23995
G0 F9000 X9.49 Y-6.52
G1 F1620 X-6.52 Y9.49 E96.65176
G0 F9000 X-5.67 Y9.49
G1 F1620 X9.49 Y-5.67 E97.98870
G0 F9000 X9.49 Y-4.82
G1 F1620 X-4.82 Y9.49 E99.25085
G0 F9000 X-3.97 Y9.49
G1 F1620 X9.49 Y-3.97 E100.43812
G0 F9000 X9.49 Y-3.12
G1 F1620 X-3.12 Y9.49 E101.55060
G0 F9000 X-2.28 Y9.49
G1 F1620 X9.49 Y-2.28 E102.58821
G0 F9000 X9.49 Y-1.43
G1 F1620 X-1.43 Y9.49 E103.55102
G0 F9000 X-0.58 Y9.49
G1 F1620 X9.49 Y-0.58 E104.43896
G0 F9000 X9.49 Y0.27
G1 F1620 X0.27 Y9.49 E105.25220
G0 F9000 X1.12 Y9.49
G1 F1620 X9.49 Y1.12 E105.99056
G0 F9000 X9.49 Y1.97
G1 F1620 X1.97 Y9.49 E106.65414
G0 F9000 X2.81 Y9.49
G1 F1620 X9.49 Y2.81 E107.24283
G0 F9000 X9.49 Y3.66
G1 F1620 X3.66 Y9.49 E107.75674
G0 F9000 X4.51 Y9.49
G1 F1620 X9.49 Y4.51 E108.19577
G0 F9000 X9.49 Y5.36
G1 F1620 X5.36 Y9.49 E108.56001
G0 F9000 X6.21 Y9.49
G1 F1620 X9.49 Y6.21 E108.84938
G0 F9000 X9.49 Y7.06
G1 F1620 X7.06 Y9.49 E109.06396
G0 F9000 X7.91 Y9.49
G1 F1620 X9.49 Y7.91 E109.20366
G0 F9000 X9.49 Y8.75
G1 F1620 X8.75 Y9.49 E109.26857
G0 F9000 X8.20 Y8.20
;LAYER:2
G0 X9.30 Y9.39 Z0.80
G0 X9.70 Y9.70
;TYPE:WALL-OUTER
G1 F2100 X-9.70 Y9.70 E110.47840
G1 X-9.70 Y-9.70 E111.68824
G1 X9.70 Y-9.70 E112.89808
G1 X9.70 Y9.70 E114.10792
G0 F9000 X9.06 Y9.49
;TYPE:FILL
G1 F2100 X-9.49 Y-9.06 E115.74427
G0 F9000 X-9.06 Y-9.49
G1 F2100 X9.49 Y9.06 E117.38063
G0 F9000 X9.49 Y8.22
G1 F2100 X-8.22 Y-9.49 E118.94211
G0 F9000 X-7.37 Y-9.49
G1 F2100 X9.49 Y7.37 E120.42880
G0 F9000 X9.49 Y6.52
G1 F2100 X-6.52 Y-9.49 E121.84061
G0 F9000 X-5.67 Y-9.49
G1 F2100 X9.49 Y5.67 E123.17755
G0 F9000 X9.49 Y4.82
G1 F2100 X-4.82 Y-9.49 E124.43970
G0 F9000 X-3.97 Y-9.49
G1 F2100 X9.49 Y3.97 E125.62697
G0 F9000 X9.49 Y3.12
G1 F2100 X-3.12 Y-9.49 E126.73945
G0 F9000 X-2.28 Y-9.49
G1 F2100 X9.49 Y2.28 E127.77706
G0 F9000 X9.49 Y1.43
G1 F2100 X-1.43 Y-9.49 E128.73987
G0 F9000 X-0.58 Y-9.49
G1 F2100 X9.49 Y0.58 E129.62781
G0 F9000 X9.49 Y-0.27
G1 F2100 X0.27 Y-9.49 E130.44105
G0 F9000 X1.12 Y-9.49
G1 F2100 X9.49 Y-1.12 E131.17941
G0 F9000 X9.49 Y-1.97
G1 F2100 X1.97 Y-9.49 E131.84299
G0 F9000 X2.81 Y-9.49
G1 F2100 X9.49 Y-2.81 E132.43168
G0 F9000 X9.49 Y-3.66
G1 F2100 X3.66 Y-9.49 E132.94559
G0 F9000 X4.51 Y-9.49
G1 F2100 X9.49 Y-4.51 E133.38462
G0 F9000 X9.49 Y-5.36
G1 F2100 X5.36 Y-9.49 E133.74886
G0 F9000 X6.21 Y-9.49
G1 F2100 X9.49 Y-6.21 E134.03823
G0 F9000 X9.49 Y-7.06
G1 F2100 X7.06 Y-9.49 E134.25281
G0 F9000 X7.91 Y-9.49
G1 F2100 X9.49 Y-7.91 E134.39251
G0 F9000 X9.49 Y-8.75
G1 F2100 X8.75 Y-9.49 E134.45742
G0 F9000 X8.75 Y-9.30
G0 X-9.30 Y-8.22
G0 X-9.49 Y-8.22
G1 F2100 X8.22 Y9.49 E136.01890
G0 F9000 X7.37 Y9.49
G1 F2100 X-9.49 Y-7.37 E137.50559
G0 F9000 X-9.49 Y-6.52
G1 F2100 X6.52 Y9.49 E138.91740
G0 F9000 X5.67 Y9.49
G1 F2100 X-9.49 Y-5.67 E140.25434
G0 F9000 X-9.49 Y-4.82
G1 F2100 X4.82 Y9.49 E141.51649
G0 F9000 X3.97 Y9.49
G1 F2100 X-9.49 Y-3.97 E142.70376
G0 F9000 X-9.49 Y-3.12
G1 F2100 X3.12 Y9.49 E143.81624
G0 F9000 X2.28 Y9.49
G1 F2100 X-9.49 Y-2.28 E144.85384
G0 F9000 X-9.49 Y-1.43
G1 F2100 X1.43 Y9.49 E145.81666
G0 F9000 X0.58 Y9.49
G1 F2100 X-9.49 Y-0.58 E146.70460
G0 F9000 X-9.49 Y0.27
G1 F2100 X-0.27 Y9.49 E147.51784
G0 F9000 X-1.12 Y9.49
G1 F2100 X-9.49 Y1.12 E148.25620
G0 F9000 X-9.49 Y1.97
G1 F2100 X-1.97 Y9.49 E148.91978
G0 F9000 X-2.81 Y9.49
G1 F2100 X-9.49 Y2.81 E149.50847
G0 F9000 X-9.49 Y3.66
G1 F2100 X-3.66 Y9.49 E150.02238
G0 F9000 X-4.51 Y9.49
G1 F2100 X-9.49 Y4.51 E150.46141
G0 F9000 X-9.49 Y5.36
G1 F2100 X-5.36 Y9.49 E150.82565
G0 F9000 X-6.21 Y9.49
G1 F2100 X-9.49 Y6.21 E151.11502
G0 F9000 X-9.49 Y7.06
G1 F2100 X-7.06 Y9.49 E151.32959
G0 F9000 X-7.91 Y9.49
G1 F2100 X-9.49 Y7.91 E151.46929
G0 F9000 X-9.49 Y8.75
G1 F2100 X-8.75 Y9.49 E151.53421
G0 F9000 X-8.20 Y8.20
;LAYER:3
G0 X-9.39 Y9.30 Z1.05
G0 X-9.70 Y9.70
;TYPE:WALL-OUTER
G1 F2520 X-9.70 Y-9.70 E152.74404
G1 X9.70 Y-9.70 E153.95388
G1 X9.70 Y9.70 E155.16372
G1 X-9.70 Y9.70 E156.37356
G0 F9000 X-9.06 Y9.49
;TYPE:FILL
G1 F2520 X9.49 Y-9.06 E158.00991
G0 F9000 X9.06 Y-9.49
G1 F2520 X-9.49 Y9.06 E159.64627
G0 F9000 X-9.49 Y8.22
G1 F2520 X8.22 Y-9.49 E161.20775
G0 F9000 X7.37 Y-9.49
G1 F2520 X-9.49 Y7.37 E162.69444
G0 F9000 X-9.49 Y6.52
G1 F2520 X6.52 Y-9.49 E164.10625
G0 F9000 X5.67 Y-9.49
G1 F2520 X-9.49 Y5.67 E165.44319
G0 F9000 X-9.49 Y4.82
G1 F2520 X4.82 Y-9.49 E166.70534
G0 F9000 X3.97 Y-9.49
G1 F2520 X-9.49 Y3.97 E167.89261
G0 F9000 X-9.49 Y3.12
G1 F2520 X3.12 Y-9.49 E169.00509
G0 F9000 X2.28 Y-9.49
G1 F2520 X-9.49 Y2.28 E170.04269
G0 F9000 X-9.49 Y1.43
G1 F2520 X1.43 Y-9.49 E171.00551
G0 F9000 X0.58 Y-9.49
G1 F2520 X-9.49 Y0.58 E171.89345
G0 F9000 X-9.49 Y-0.27
G1 F2520 X-0.27 Y-9.49 E172.70669
G0 F9000 X-1.12 Y-9.49
G1 F2520 X-9.49 Y-1.12 E173.44505
G0 F9000 X-9.49 Y-1.97
G1 F2520 X-1.97 Y-9.49 E174.10863
G0 F9000 X-2.81 Y-9.49
G1 F2520 X-9.49 Y-2.81 E174.69732
G0 F9000 X-9.49 Y-3.66
G1 F2520 X-3.66 Y-9.49 E175.21123
G0 F9000 X-4.51 Y-9.49
G1 F2520 X-9.49 Y-4.51 E175.65026
G0 F9000 X-9.49 Y-5.36
G1 F2520 X-5.36 Y-9.49 E176.01450
G0 F9000 X-6.21 Y-9.49
G1 F2520 X-9.49 Y-6.21 E176.30387
G0 F9000 X-9.49 Y-7.06
G1 F2520 X-7.06 Y-9.49 E176.51845
G0 F9000 X-7.91 Y-9.49
G1 F2520 X-9.49 Y-7.91 E176.65814
G0 F9000 X-9.49 Y-8.75
G1 F2520 X-8.75 Y-9.49 E176.72306
G0 F9000 X-8.75 Y-9.30
G0 X9.30 Y-8.22
G0 X9.49 Y-8.22
G1 F2520 X-8.22 Y9.49 E178.28453
G0 F9000 X-7.37 Y9.49
G1 F2520 X9.49 Y-7.37 E179.77123
G0 F9000 X9.49 Y-6.52
G1 F2520 X-6.52 Y9.49 E181.18304
G0 F9000 X-5.67 Y9.49
G1 F2520 X9.49 Y-5.67 E182.51998
G0 F9000 X9.49 Y-4.82
G1 F2520 X-4.82 Y9.49 E183.78212
G0 F9000 X-3.97 Y9.49
G1 F2520 X9.49 Y-3.97 E184.96939
G0 F9000 X9.49 Y-3.12
G1 F2520 X-3.12 Y9.49 E186.08188
G0 F9000 X-2.28 Y9.49
G1 F2520 X9.49 Y-2.28 E187.11948
G0 F9000 X9.49 Y-1.43
G1 F2520 X-1.43 Y9.49 E188.08230
G0 F9000 X-0.58 Y9.49
G1 F2520 X9.49 Y-0.58 E188.97024
G0 F9000 X9.49 Y0.27
G1 F2520 X0.27 Y9.49 E189.78348
G0 F9000 X1.12 Y9.49
G1 F2520 X9.49 Y1.12 E190.52184
G0 F9000 X9.49 Y1.97
G1 F2520 X1.97 Y9.49 E191.18541
G0 F9000 X2.81 Y9.49
G1 F2520 X9.49 Y2.81 E191.77411
G0 F9000 X9.49 Y3.66
G1 F2520 X3.66 Y9.49 E192.28802
G0 F9000 X4.51 Y9.49
G1 F2520 X9.49 Y4.51 E192.72705
G0 F9000 X9.49 Y5.36
G1 F2520 X5.36 Y9.49 E193.09129
G0 F9000 X6.21 Y9.49
G1 F2520 X9.49 Y6.21 E193.38066
G0 F9000 X9.49 Y7.06
G1 F2520 X7.06 Y9.49 E193.59523
G0 F9000 X7.91 Y9.49
G1 F2520 X9.49 Y7.91 E193.73493
G0 F9000 X9.49 Y8.75
G1 F2520 X8.75 Y9.49 E193.79984
G0 F9000 X8.20 Y8.20
;LAYER:4
G0 X9.30 Y9.39 Z1.30
G0 X9.70 Y9.70
;TYPE:WALL-OUTER
G1 F3000 X-9.70 Y9.70 E195.00968
G1 X-9.70 Y-9.70 E196.21952
G1 X9.70 Y-9.70 E197.42936
G1 X9.70 Y9.70 E198.63919
G0 F9000 X9.06 Y9.49
;TYPE:FILL
G1 F3000 X-9.49 Y-9.06 E200.27555
G0 F9000 X-9.06 Y-9.49
G1 F3000 X9.49 Y9.06 E201.91191
G0 F9000 X9.49 Y8.22
G1 F3000 X-8.22 Y-9.49 E203.47339
G0 F9000 X-7.37 Y-9.49
G1 F3000 X9.49 Y7.37 E204.96008
G0 F9000 X9.49 Y6.52
G1 F3000 X-6.52 Y-9.49 E206.37189
G0 F9000 X-5.67 Y-9.49
G1 F3000 X9.49 Y5.67 E207.70883
G0 F9000 X9.49 Y4.82
G1 F3000 X-4.82 Y-9.49 E208.97097
G0 F9000 X-3.97 Y-9.49
G1 F3000 X9.49 Y3.97 E210.15824
G0 F9000 X9.49 Y3.12
G1 F3000 X-3.12 Y-9.49 E211.27073
G0 F9000 X-2.28 Y-9.49
G1 F3000 X9.49 Y2.28 E212.30833
G0 F9000 X9.49 Y1.43
G1 F3000 X-1.43 Y-9.49 E213.27115
G0 F9000 X-0.58 Y-9.49
G1 F3000 X9.49 Y0.58 E214.15909
G0 F9000 X9.49 Y-0.27
G1 F3000 X0.27 Y-9.49 E214.97233
G0 F9000 X1.12 Y-9.49
G1 F3000 X9.49 Y-1.12 E215.71069
G0 F9000 X9.49 Y-1.97
G1 F3000 X1.97 Y-9.49 E216.37426
G0 F9000 X2.81 Y-9.49
G1 F3000 X9.49 Y-2.81 E216.96296
G0 F9000 X9.49 Y-3.66
G1 F3000 X3.66 Y-9.49 E217.47687
G0 F9000 X4.51 Y-9.49
G1 F3000 X9.49 Y-4.51 E217.91590
G0 F9000 X9.49 Y-5.36
G1 F3000 X5.36 Y-9.49 E218.28014
G0 F9000 X6.21 Y-9.49
G1 F3000 X9.49 Y-6.21 E218.56951
G0 F9000 X9.49 Y-7.06
G1 F3000 X7.06 Y-9.49 E218.78408
G0 F9000 X7.91 Y-9.49
G1 F3000 X9.49 Y-7.91 E218.92378
G0 F9000 X9.49 Y-8.75
G1 F3000 X8.75 Y-9.49 E218.98869
G0 F9000 X8.75 Y-9.30
G0 X-9.30 Y-8.22
G0 X-9.49 Y-8.22
G1 F3000 X8.22 Y9.49 E220.55017
G0 F9000 X7.37 Y9.49
G1 F3000 X-9.49 Y-7.37 E222.03686
G0 F9000 X-9.49 Y-6.52
G1 F3000 X6.52 Y9.49 E223.44868
G0 F9000 X5.67 Y9.49
G1 F3000 X-9.49 Y-5.67 E224.78561
G0 F9000 X-9.49 Y-4.82
G1 F3000 X4.82 Y9.49 E226.04776
G0 F9000 X3.97 Y9.49
G1 F3000 X-9.49 Y-3.97 E227.23503
G0 F9000 X-9.49 Y-3.12
G1 F3000 X3.12 Y9.49 E228.34752
G0 F9000 X2.28 Y9.49
G1 F3000 X-9.49 Y-2.28 E229.38512
G0 F9000 X-9.49 Y-1.43
G1 F3000 X1.43 Y9.49 E230.34794
G0 F9000 X0.58 Y9.49
G1 F3000 X-9.49 Y-0.58 E231.23588
G0 F9000 X-9.49 Y0.27
G1 F3000 X-0.27 Y9.49 E232.04912
G0 F9000 X-1.12 Y9.49
G1 F3000 X-9.49 Y1.12 E232.78748
G0 F9000 X-9.49 Y1.97
G1 F3000 X-1.97 Y9.49 E233.45105
G0 F9000 X-2.81 Y9.49
G1 F3000 X-9.49 Y2.81 E234.03975
G0 F9000 X-9.49 Y3.66
G1 F3000 X-3.66 Y9.49 E234.55366
G0 F9000 X-4.51 Y9.49
G1 F3000 X-9.49 Y4.51 E234.99269
G0 F9000 X-9.49 Y5.36
G1 F3000 X-5.36 Y9.49 E235.35693
G0 F9000 X-6.21 Y9.49
G1 F3000 X-9.49 Y6.21 E235.64630
G0 F9000 X-9.49 Y7.06
G1 F3000 X-7.06 Y9.49 E235.86087
G0 F9000 X-7.91 Y9.49
G1 F3000 X-9.49 Y7.91 E236.00057
G0 F9000 X-9.49 Y8.75
G1 F3000 X-8.75 Y9.49 E236.06548
G0 F9000 X-8.20 Y8.20
;LAYER:5
G0 X-9.39 Y9.30 Z1.55
G0 X-9.70 Y9.70
;TYPE:WALL-OUTER
G1 F3000 X-9.70 Y-9.70 E237.27532
G1 X9.70 Y-9.70 E238.48516
G1 X9.70 Y9.70 E239.69499
G1 X-9.70 Y9.70 E240.90483
G0 F9000 X-9.06 Y9.49
;TYPE:FILL
G1 F3000 X-8.94 Y8.94 E240.93475
G1 X-9.49 Y8.64 E240.96472
G1 X-9.15 Y7.88 E241.01681
G0 F9000 X-9.33 Y7.91
G1 F3000 X7.92 Y-9.33 E242.53772
G0 F9000 X7.88 Y-9.15
G1 F3000 X8.47 Y-9.32 E242.56767
G1 X9.28 Y-9.28 E242.59757
G1 X9.32 Y-8.47 E242.62743
G1 X9.15 Y-7.88 E242.66595
G0 F9000 X9.33 Y-7.92
G1 F3000 X-7.91 Y9.33 E244.18686
G0 F9000 X-7.88 Y9.15
G1 F3000 X-7.79 Y9.49 E244.21680
G1 X-6.77 Y9.32 E244.24665
G1 X-5.93 Y9.32 E244.27653
G1 X-5.33 Y9.15 E244.31506
G0 F9000 X-5.09 Y9.33
G1 F3000 X9.33 Y-5.09 E245.58647
G0 F9000 X9.15 Y-5.33
G1 F3000 X9.32 Y-5.93 E245.61627
G1 X9.32 Y-6.77 E245.64609
G1 X9.49 Y-7.37 E245.68463
G0 F9000 X9.30 Y-7.37
G0 X9.30 Y-4.82
G0 X9.49 Y-4.82
G1 F3000 X9.32 Y-4.23 E245.71449
G1 X9.32 Y-3.38 E245.74428
G1 X9.15 Y-2.79 E245.78279
G0 F9000 X9.33 Y-2.26
G1 F3000 X-2.26 Y9.33 E246.80479
G0 F9000 X-2.28 Y9.49
G1 F3000 X-1.68 Y9.32 E246.83471
G1 X-0.83 Y9.32 E246.86463
G1 X0.01 Y9.32 E246.89456
G1 X0.61 Y9.15 E246.93309
G0 F9000 X0.57 Y9.33
G1 F3000 X9.33 Y0.57 E247.70567
G0 F9000 X9.15 Y0.61
G1 F3000 X9.32 Y0.01 E247.73552
G1 X9.32 Y-0.83 E247.76527
G1 X9.32 Y-1.68 E247.79510
G1 X9.49 Y-2.28 E247.83357
G0 F9000 X9.30 Y-2.28
G0 X9.30 Y1.12
G0 X9.49 Y1.12
G1 F3000 X9.32 Y1.71 E247.86339
G1 X9.32 Y2.56 E247.89321
G1 X9.15 Y3.15 E247.93167
G0 F9000 X9.33 Y3.40
G1 F3000 X3.40 Y9.33 E248.45475
G0 F9000 X3.15 Y9.15
